sakibchowdhury131/TennisPlayerBot/working_dir/updated_sim_env/hitting_vel_training_dataset.csv
ball_init_position_x,ball_init_position_y,ball_init_position_z,estimated_init_vel_x,estimated_init_vel_y,estimated_init_vel_z,goal_position_y,goal_position_z,table_hit_point_x,table_hit_point_y,table_hit_point_z,paddle_hitting_vel_joint3,paddle_hitting_vel_joint4,paddle_hitting_vel_joint5
-1.4,-0.2,2.1,6.191849407701007,0.0,-3.0369311650166253,-0.21592973606172505,1.4793891431492776,0.8970073870208053,-0.22780794554818823,1.2257783702247296,0,0,13.726395141393322
-1.4,-0.2,2.1,6.391393878785596,0.0,-3.036840880680778,-0.2102484457704753,1.5819785933297519,0.6761509302956716,-0.17313992727401703,1.2317062256093627,0,0,10.202383747895706
-1.4,-0.2,2.1,6.491161180454981,0.0,-3.036795544825388,-0.20781439324352446,1.6278884898456276,-0.49495254376204406,-0.2009663061512041,1.2281369897933625,0,0,16.651852421694137
-1.4,-0.2,2.1,6.690685904913529,0.0,-3.0367045096627265,-0.20296231694962386,1.708281041694026,-0.16982581665196328,-0.19655840535485825,1.23106547530613,0,0,23.19160589861129
-1.4,-0.2,2.1,6.790443323653772,0.0,-3.0366588192590527,-0.20179672774835977,1.7170218225142584,0.17555583543802747,-0.21509738439628215,1.2296302190471826,0,0,12.674847023156602
-1.4,-0.2,2.1,6.890197444238346,0.0,-3.0366130192340535,-0.2014168107693598,1.708750790518399,-0.3783030774252984,-0.15701199311466385,1.2289375738094632,0,0,16.65604333095869
-1.4,-0.2,2.1,7.189440000236047,0.0,-3.0364750000983065,-0.20027945207991193,1.6837851341847085,-0.5211325450116581,-0.17009375891499232,1.2293295399992532,0,0,17.58236140343502
-1.4,-0.2,2.1,7.289180911860935,0.0,-3.0364287993948835,-0.1999026452017182,1.6754477276761586,-0.13096582268430695,-0.20569801239865126,1.2219021370395113,0,0,14.685848580774095
-1.4,-0.2,2.1,7.388918517624052,0.0,-3.0363825071448503,-0.19952703453461196,1.6671171053555938,-0.6731852940030674,-0.19772767323752188,1.2200607203524485,0,0,17.471096468417414
-1.4,-0.2,2.1,7.48865281624024,0.0,-3.0363361264960886,-0.19915262012952495,1.6588026606564643,-0.0018070020113097468,-0.21257935697953925,1.2320768063647642,0,0,13.565098624536255
-1.4,-0.2,2.1,7.887556915973928,0.0,-3.036149778217947,-0.19766859910893742,1.6258049667562082,-0.8859478670207063,-0.12022245064711681,1.231841459804697,0,0,17.996234775905357
-1.4,-0.2,2.1,7.987274661957358,0.0,-3.036102998234007,-0.19730088338698748,1.617645299111048,-0.04566802332328789,-0.2261757875396262,1.2310880574940504,0,0,13.000577733267626
-1.4,-0.2,2.1,8.286408015552524,0.0,-3.035962234537095,-0.19620634932513836,1.593451236673393,-1.2920855164078795,-0.121617422080477,1.2252703940179095,0,0,18.72829394070594
-1.4,-0.2,2.1,6.790411172283459,0.6490834208800389,-3.036644634830914,0.09015570564082298,1.8307806642722086,-0.06189660241274024,-0.3541471912308046,1.2232519705499978,0,0,18.746022502874858
-1.4,-0.2,2.1,6.616378887206267,0.5225248425287266,-2.9721358429499745,0.04303476637613138,1.6622083022496352,0.9559663883266849,-0.3935395677461035,1.227692930862158,0,0,10.070025398666909
-1.4,-0.2,2.1,6.790420291589836,0.5492251706432971,-3.036648658054375,0.049297003538202544,1.7507928264162596,-0.7707894204821173,-0.08603406160546731,1.2226080468197353,0,0,16.63464529558792
-1.4,-0.2,2.1,6.790415920694244,-0.5991543459436066,-3.0366467297180577,-0.4836649209545758,1.8017641017902837,-0.8279434323387728,-0.486748164536352,1.2203658288769617,0,0,14.868004712216276
-1.4,-0.2,2.1,6.790411172283459,0.6490834208800389,-3.036644634830914,0.09077206699192303,1.8307551107521154,-0.20006924834441978,0.005993158643649534,1.2227970830096506,0,0,13.780589088261385
-1.4,-0.2,2.1,6.790406046993134,0.6990123871904697,-3.036642373673466,0.11298631724066593,1.830791021365692,0.7058639536014487,-0.377774610600644,1.2218129422230264,0,0,15.315489600264447
-1.4,-0.2,2.1,6.790400545507733,-0.748941236636882,-3.0366399465475524,-0.5541278947304493,1.8215108143075076,-0.873959327654512,-0.7636269123478916,1.2282984150069665,0,0,18.598393999032574
-1.4,-0.2,2.1,6.790394668560111,-0.7988699610070715,-3.036637353776541,-0.5770580968549669,1.8278754127773698,0.2858155021090997,-0.22161284692263805,1.225643732549555,0,0,11.955902837171859
-1.4,-0.2,2.1,6.790411172283459,0.6490834208800389,-3.036644634830914,0.09077257879311362,1.830755404905155,-0.09084923569053646,0.024805059999397125,1.228486190042907,0,0,12.93997115679292
-1.4,-0.2,2.1,6.790406046993134,0.6990123871904697,-3.036642373673466,0.11298657047605098,1.830790630888159,0.7659261853358525,-0.3633678232037742,1.2215018526868069,0,0,13.502224271772164
-1.4,-0.2,2.1,6.790394668560111,-0.7988699610070715,-3.036637353776541,-0.5770581147531708,1.8278756255523336,0.2882155502492993,-0.2311868664961665,1.225959532499372,0,0,11.861813665831466
-1.4,-0.2,2.1,6.7903342398475175,-1.1982942776201466,-3.036610694050381,-0.75269880447231,1.8058666263112588,1.146341519224891,-0.06834475905404072,1.2288041736786572,0,0,13.876130741133185
-1.4,-0.2,2.1,6.790325024443931,-1.248221511846308,-3.03660662843118,-0.7709621182713559,1.7946017752053947,0.701826249912936,0.12804329601147854,1.223965504365937,0,0,16.38627714555699
-1.4,-0.2,2.1,6.790284519392937,-1.4479283166352563,-3.0365887585556806,-0.8451979204709327,1.7663641478326029,0.10061415665560067,-0.027414040686008515,1.2205878613063048,0,0,17.271816558149407
-1.4,-0.2,2.1,6.790273488711183,-1.4978544460392307,-3.0365838920784327,-0.8643863407366146,1.7687325393123077,0.09842937062589603,-0.0010295410143144673,1.2204745442371385,0,0,17.6354004919978
-1.4,-0.2,2.1,6.790262098976001,-1.5477803313842387,-3.03657886719531,-0.8835814712636888,1.7710922275526877,0.6313818980427687,-0.21789183726915426,1.2295351275303075,0,0,10.41731539170405
-1.4,-0.2,2.1,6.790250351611267,-1.5977059650850078,-3.036573684534396,-0.9027842615013231,1.7734463864953969,0.7057869577338222,-0.16010762462802539,1.2317101767260115,0,0,11.318359277323848
-1.4,-0.2,2.1,6.790212978526,-1.7474812812383034,-3.0365571964085447,-0.9604331773869429,1.7804598823221323,0.459369230768468,-0.0311168347514937,1.22650557098304,0,0,17.03560390897784
-1.4,-0.2,2.1,6.7901998156056464,-1.7974058335426668,-3.0365513892378004,-0.9796633823654475,1.7827844650550713,1.0289839670502932,-0.030229436588677487,1.2213053479289533,0,0,19.49949642822436
-1.4,-0.2,2.1,6.790415920694244,-0.5991543459436066,-3.0366467297180577,-0.48366473851352243,1.8017645212213935,-1.300338649516056,-0.49346420154446197,1.2317499380227435,0,0,18.520957745045656
-1.4,-0.2,2.1,6.790411172283459,-0.6490834208800389,-3.036644634830914,-0.506673593136214,1.8083342695328448,-1.0290745423083232,-0.25241389360649286,1.2272628776932368,0,0,18.999467005287535
-1.4,-0.2,2.1,6.790406046993134,0.6990123871904697,-3.036642373673466,0.11365510736633255,1.8307701449944682,-0.6476155182101926,0.23559620937896159,1.2270594474624572,0,0,18.403780579922184
-1.4,-0.2,2.1,6.790400545507733,-0.748941236636882,-3.0366399465475524,-0.5541282791448967,1.8215115918956397,-0.5278818662328042,-0.7792626505395128,1.18365717235746,0,0,14.03913774793165
-1.4,-0.2,2.1,6.790394668560111,-0.7988699610070715,-3.036637353776541,-0.5770581155640985,1.8278756284413085,0.20310078619747413,-0.2121269639757738,1.2240030659469996,0,0,13.198861525122147
-1.4,-0.2,2.1,6.7903342398475175,-1.1982942776201466,-3.036610694050381,-0.7526988240630262,1.8058666728386017,1.1319420344206073,-0.05298789628206325,1.2218645787899063,0,0,14.568269081012744
-1.4,-0.2,2.1,6.790325024443931,-1.248221511846308,-3.03660662843118,-0.7709623408596029,1.7946012603845043,0.941564647562564,-0.01473096011531521,1.224437118643219,0,0,10.99518432251578
-1.4,-0.2,2.1,6.790315443448893,-1.2981485406593496,-3.0366024015215842,-0.7892361700232385,1.7831558632692723,0.27042362578475754,-0.013884920613000845,1.2266317054866838,0,0,15.680450360295332
-1.4,-0.2,2.1,6.790420291589836,0.5492251706432971,-3.036648658054375,0.04931688393056288,1.7507933917045175,1.0297880848525323,-0.03903319774634044,1.2317902380565957,0,16.182391226962658,0
-1.4,-0.2,2.1,6.790415920694244,-0.5991543459436066,-3.0366467297180577,-0.48366490549729313,1.8017643263635676,0.7873855986184953,-0.6409315488639524,1.223936777062617,0,16.11391720513565,0
-1.4,-0.2,2.1,6.790411172283459,0.6490834208800389,-3.036644634830914,0.09077206104809066,1.830755710538642,1.2011563669224399,0.01995882518116132,1.2286107060931812,0,11.736923467289976,0
-1.4,-0.2,2.1,6.790400545507733,-0.748941236636882,-3.0366399465475524,-0.5535955249000423,1.8214223764287345,0.8269125766206473,-0.5311895483195049,1.2218525279744525,0,11.708438741379762,0
-1.4,-0.2,2.1,6.790394668560111,0.7988699610070715,-3.036637353776541,0.15924287508003682,1.8275978123923764,0.930000595294562,0.26748335639126597,1.232202079678749,0,18.413357366803044,0
-1.4,-0.2,2.1,6.790262098976001,-1.5477803313842387,-3.03657886719531,-0.8835814896596837,1.7710922613765834,1.1745413557224154,-0.42215591840253963,1.2322852454597615,0,12.601555157536811,0
-1.4,-0.2,2.1,6.790804998208451,0.0,-2.1256683171985813,-0.1967355535875589,1.597455291919688,-0.654484850138537,-0.6444428774413385,1.2233476768003364,0,17.973934130084306,16.871501150887983
-1.4,-0.2,2.1,6.79066799621209,0.09986276465017818,-2.503764746015591,-0.15266328554492845,1.633786981736765,-0.034470729312292586,-0.5058694455546024,1.2280419775454945,0,16.759669746847123,14.135387567263137
-1.4,-0.2,2.1,6.790709777595509,0.09986337908229004,-2.3936026073295125,-0.15205225343224504,1.6195423782963345,-0.7982331709484175,-0.5355748771603105,1.2298444739100163,0,14.07491468860032,18.482897147199196
-1.4,-0.2,2.1,6.790540520218276,0.09986089000320719,-2.8159535195038643,-0.1544008840995953,1.6738345003261537,-0.4595074655563081,-0.5890543892689939,1.2315872752833654,0,17.95180040005676,16.515074850414564
-1.4,-0.2,2.1,6.790508698976261,0.09986042204376933,-2.8892382528500704,-0.1550246001531428,1.6832103121595647,-0.27106921234812403,-0.524145260910754,1.2299587660639715,0,13.34017468335393,13.22073476837339
-1.4,-0.2,2.1,6.790681667354015,0.09986296569638453,-2.4682081696834857,-0.15246273321789966,1.6291976226944183,0.08338985879006545,-0.381590742624529,1.2298162199936065,0,11.901524780057386,11.479800327648634
-1.4,-0.2,2.1,6.790447395326051,0.09985952051950076,-3.026091668835882,-0.15558303346583957,1.7006751642873366,0.16750453238791674,-0.47374677845677715,1.2247942838143557,0,18.23541912294615,11.377418820670973
-1.4,-0.2,2.1,6.7906439505634175,0.09986241103769888,-2.565227748006258,-0.15300785804466227,1.6417001463441894,-0.8290904666598004,-0.6947146037275014,1.2318434204905564,0,18.76070351908912,19.726280243686702
-1.4,-0.2,2.1,6.790522518303117,0.09986062526916584,-2.8576122733699094,-0.15463658638849279,1.6791599596275861,-1.2611953005235117,-0.5076243834341809,1.2221972555538079,0,10.264360786245126,17.86305544747065
-1.4,-0.2,2.1,6.79084579424412,0.09986537932711981,-1.9971492945573033,-0.14986610158957028,1.5672499452857915,-0.0961767917512434,-0.5003790893119089,1.2221806268459707,0,15.128644617124793,13.112133524019452
-1.4,-0.2,2.1,6.7909032276127945,0.09986622393548306,-1.8055997248571032,-0.1488044732647788,1.5410412885493254,-0.9431700253747686,-0.6309199015194149,1.221067467939916,0,14.854892595752354,19.512700385732675
-1.4,-0.2,2.1,6.790608243034164,0.09986188592697065,-2.654148888184835,-0.15349383855357507,1.6531208939665492,-0.17069946106161682,-0.5006412877425767,1.2256841827418294,0,13.440399381709813,14.390416123508995
-1.4,-0.2,2.1,6.790661828743847,0.09986267395211579,-2.519657526343728,-0.15275229571767504,1.6358352112751353,-1.126652414467635,-0.7076423044010838,1.221722426260038,0,15.71141382850244,18.659217797416915
-1.4,-0.2,2.1,6.790914078490271,0.09986638350721222,-1.7671904779814795,-0.14859616229657796,1.535679479586314,0.27392494719766647,-0.3233517340607982,1.2282984020391983,0,12.842774023836302,10.58030467069179
-1.4,-0.2,2.1,6.790928897687287,0.0998666014365801,-1.7133979250106535,-0.14829658089374662,1.5281003387023342,-0.3997819784198751,-0.5351985270067059,1.2255568795037894,0,19.732929243898774,15.124867226881786
-1.4,-0.2,2.1,6.790953910733748,0.09986696927549943,-1.6186911753123923,-0.14776994629653945,1.5145399164647027,-0.016340570329272292,-0.40489374657253024,1.2291343843025806,0,12.406529391026158,13.059270457732834
-1.4,-0.2,2.1,6.7906996250428975,0.09986322978003948,-2.420788056113139,-0.15219639523911882,1.6230651646898533,-0.46586562463458314,-0.492538170587272,1.2208233221822233,0,14.786181488734076,17.859837020339736
-1.4,-0.2,2.1,6.790696323279768,0.09986318122469973,-2.4295696880056283,-0.15225153854832602,1.6242016863733624,-1.258466113288421,-0.5244917054853678,1.231738878160519,0,12.042954993065658,19.32172695617181
-1.4,-0.2,2.1,6.790868494607096,0.09986571315598436,-1.923608456388628,-0.14945790239872697,1.557283683265949,0.052764838586502626,-0.41652793861535814,1.229058956896891,0,12.742593994436712,11.619648067243514
-1.4,-0.2,2.1,6.790708590202819,0.09986336162063125,-2.3967965371578615,-0.1520658129592994,1.6199563132924266,-0.6232947392283309,-0.5399618272461006,1.2227570078324153,0,17.74314997189535,17.970668537270775
-1.4,-0.2,2.1,6.791061603868318,0.09986855299806585,-1.124940548251132,-0.14350681281687933,1.4361423896307595,-0.22600226386211994,-0.547581484527573,1.2246951387840455,0,10.15941851936274,14.350346917243758
-1.4,-0.2,2.1,6.79085250794337,0.09986547805798995,-1.9756690618884676,-0.14973303914904856,1.5643514902950943,-0.4238166010876652,-0.5328227607339416,1.2247107131154802,0,18.933799501635914,17.801240642489336
-1.4,-0.2,2.1,6.790608893254948,0.09986189548904179,-2.6525533589921224,-0.15348620856310632,1.6529154800070898,-0.45488158049850674,-0.5884332297480357,1.2228891011351908,0,17.477708774600274,16.807002261901847
-1.4,-0.2,2.1,6.790714087931704,0.09986344246958545,-2.3819756633173483,-0.15198935626857676,1.6180331836907869,-0.20732826683838243,-0.4490104627132603,1.2218970727514766,0,18.86518866672507,13.855664480398907
-1.4,-0.2,2.1,6.790867153616951,0.09986569343554574,-1.928026555689648,-0.14948229595057477,1.557885768080957,-0.7722545828701939,-0.6436477671505344,1.2238573696098567,0,18.796853907926263,18.86156102040532
-1.4,-0.2,2.1,6.7907483009599545,0.09986394560235423,-2.2877808707519875,-0.15146268136273808,1.6057682894433862,-0.5016826623970561,-0.6612473492219422,1.2244324158027036,0,17.42425326932473,15.737093428778248
-1.4,-0.2,2.1,6.790842636592966,0.09986533289107147,-2.0071770730050176,-0.14991819393232864,1.5686020107202165,-0.43471215368858235,-0.5392560748208003,1.2219325289494978,0,14.834031081319567,15.89573689482441
-1.4,-0.2,2.1,6.791068945236205,0.09986866095935909,-1.083110822932305,-0.14302437480593191,1.429305384179218,-0.39625998516830613,-0.6887025329301765,1.2255384331385712,0,12.543122209708475,16.313068027144716
-1.4,-0.2,2.1,6.790536625327466,0.09986083272540469,-2.825012018935169,-0.15443891771112223,1.6749921827992948,-0.14754884962419312,-0.5234905729108073,1.2290362703507707,0,16.4770877322157,13.851732222787797
-1.4,-0.2,2.1,6.790631685275912,0.09986223066582145,-2.5960769966446406,-0.15317403239698837,1.6456669770731853,0.029551657065139916,-0.5038810107740307,1.2244576890283745,0,16.16898292801647,10.1091090581832
-1.4,-0.2,2.1,6.790845293733128,0.0998653719666609,-1.998741934087107,-0.14987276659469023,1.5674651963333586,-0.9531174883107804,-0.606532561406874,1.2215506345378235,0,10.153242945310396,17.155194230548236
-1.4,-0.2,2.1,6.791073851377405,0.09986873310849242,-1.0542173724860149,-0.1426954147034553,1.4245128336666086,0.09874371730010999,-0.41274188923241817,1.2284318181264016,0,19.471039398696107,10.652455660591073
-1.4,-0.2,2.1,6.791043853551582,0.0998682919639915,-1.220108700422422,-0.1445715992285152,1.4512927801494337,0.07668461296105,-0.6250862327360401,1.225360721834846,0,18.341823560266803,10.212628029963312
-1.4,-0.2,2.1,6.791064683376646,0.09986859828495342,-1.1075890739961736,-0.1432955276818006,1.4333213562920284,-0.2588954195453386,-0.4455385336878435,1.225170996249589,0,14.356092875357831,15.87145659161865
-1.4,-0.2,2.1,6.790566571393732,0.0998612731087345,-2.7546989523611387,-0.15405755556838135,1.6660005251528118,-0.6853012782896494,-0.6099912369786877,1.2222652160574339,0,18.351007405601237,19.816722344772728
-1.4,-0.2,2.1,6.790880481103265,0.09986588942798802,-1.8836801506041567,-0.14923974572256943,1.5518249651126246,-1.3549224576332317,-0.6207973942979003,1.231235806253143,0,10.186473544405612,19.618725340406595
-1.4,-0.2,2.1,6.791068875312405,0.09986865993106164,-1.0835169629877583,-0.14302842600335622,1.429372323312756,-0.7809395644047874,-0.6945688409122999,1.2263524641711836,0,11.807309516003548,17.92652837778852
-1.4,-0.2,2.1,6.790923003916216,0.09986651476347141,-1.7349844474606257,-0.14840475352544513,1.5311519133866593,-0.3297263268578429,-0.516883033332653,1.2281084401119189,0,13.939582183380242,15.32785411924873
-1.4,-0.2,2.1,6.790598982028708,0.09986174973571904,-2.6767824088541303,-0.15361918407513475,1.6560217238690753,-0.7441921391356041,-0.7099959736228231,1.2288385669994577,0,19.23621238964448,15.458440368887315
-1.4,-0.2,2.1,6.790962263289249,0.09986709210719757,-1.5858431363142245,-0.14759471267352342,1.5097661667486353,-0.0453951378245527,-0.3966054442768486,1.2237966973354535,0,15.100271618612169,14.05284525997801
-1.4,-0.2,2.1,6.7909171139679,0.09986642814658442,-1.7563012469147665,-0.14852904039095163,1.534152182240285,-0.3668387895351862,-0.4818731645521647,1.223764950148642,0,13.134160866623391,16.054341816679788
-1.4,-0.2,2.1,6.790826917531767,0.09986510172840912,-2.0564108659020874,-0.1501851027016051,1.575208070978343,-1.1677337317460847,-0.6744595674893812,1.229575691878339,0,12.961306945096782,18.717880169348163
-1.4,-0.2,2.1,6.790636535980283,0.09986230199970692,-2.5839159353131436,-0.15310486172639504,1.6441046774744312,0.06118289400941664,-0.4410672430625331,1.2250124653197374,0,13.473318978852786,12.970924979829611
-1.4,-0.2,2.1,6.790623172653145,0.09986210548019292,-2.617297048339857,-0.15329441334985733,1.6483917218114619,-0.759315443271808,-0.7315138879229945,1.2311529412336866,0,19.18247047036338,17.256603966679208
-1.4,-0.2,2.1,6.790552000669798,0.09986105883337704,-2.789104091234691,-0.1542518582877657,1.670403163100823,-0.14269239372593454,-0.5131539114539417,1.22600001081654,0,16.896322321042042,12.109874137101933
-1.4,-0.2,2.1,6.7904492599659605,0.09985954794067275,-3.0220073522610136,-0.15555982509153118,1.7001547519921565,-0.2884360433909599,-0.5993337514026206,1.2261891456775365,0,19.550064585637585,15.719430619858347
-1.4,-0.2,2.1,6.790892355203528,0.09986606404711384,-1.8433150639930318,-0.14901920682299005,1.5462682803611731,-0.1860281236270753,-0.473889855875612,1.2297231724515827,0,18.353691827241178,12.354310129422728
-1.4,-0.2,2.1,6.790671773834465,0.09986282020344683,-2.493985364058773,-0.15260409902161468,1.6325254944094088,-0.9392464855146616,-0.5205047523593096,1.2325502519561806,0,10.029978785181443,18.595367112632154
-1.4,-0.2,2.1,6.790857026303829,0.0998655445044716,-1.961087676675497,-0.14965851330512903,1.5623769023341298,0.10622070559024582,-0.43866335338355383,1.2271621425364232,0,15.802186106647255,12.041998378593552
-1.4,-0.2,2.1,6.790741875078261,0.09986385110409168,-2.30574086402207,-0.15156293219788194,1.6081123784655407,-0.31207170667822304,-0.5425870659773786,1.223284428079018,0,19.032255028695218,14.484721476070385
-1.4,-0.2,2.1,6.790694847336294,0.09986315951964864,-2.433485939090332,-0.15227209443018538,1.624708611903603,-0.16119235314223287,-0.40128809821520894,1.2273606286838592,0,10.989775670135813,12.209842923286876
-1.4,-0.2,2.1,6.790948848923097,0.09986689483710398,-1.6382854729963015,-0.14788368661730317,1.5173695488853942,-0.03574443528737221,-0.3881442533882146,1.2223643534374946,0,11.316452308211227,13.689147155985395
-1.4,-0.2,2.1,6.790614664347672,0.0998619803580536,-2.638354656056805,-0.1534138382185783,1.6510947592495149,-1.2913556571241036,-0.7213945251322404,1.2324541509243778,0,11.819819007726,19.14885808861635
-1.4,-0.2,2.1,6.790445880024407,0.09985949823565266,-3.0294073438864544,-0.15559584639961727,1.7010996969930732,-0.3993263484351815,-0.6170595443744528,1.222192878132421,0,18.208739602234374,17.508076287798396
-1.4,-0.2,2.1,6.790740349308404,0.09986382866630006,-2.309986490571383,-0.15159345476876157,1.6086656179825016,-0.07254667526534096,-0.4572078533164618,1.2254753324536647,0,15.912412904604746,12.754359692697006
-1.4,-0.2,2.1,6.790888254923519,0.09986600374887411,-1.8573482621532378,-0.14909160109783143,1.548205179595519,-0.014326326813775679,-0.46153998524798134,1.2289905776429357,0,18.94875382912484,11.870647980943623
-1.4,-0.2,2.1,6.790624382088417,0.09986212326600574,-2.614291536713189,-0.1532720633670852,1.648005756610326,-0.5068885260623734,-0.6601893889477284,1.2272303811302723,0,15.091231971533103,15.085343631098269
-1.4,-0.2,2.1,6.790877355820939,0.09986584346795224,-1.8941679350940888,-0.1492964331814192,1.5532610780720868,-0.2619222957922564,-0.4682635765703774,1.2309360587502112,0,10.918328017839483,15.297816592255343
-1.4,-0.2,2.1,6.790927665774795,0.09986658332021836,-1.7179315727378608,-0.1483199959138498,1.5287430989831097,0.03224827911976445,-0.42045546848968735,1.2216797165501188,0,14.979069524571958,11.695287678225991
-1.4,-0.2,2.1,6.790765113747277,0.09986419284922388,-2.2401648805827534,-0.15119876984213768,1.5995338942320645,-0.428544488371844,-0.5059690909054695,1.2297199632415945,0,15.013680726956796,16.310429334459656
-1.4,-0.2,2.1,6.790628270812427,0.09986218045312079,-2.604606958273834,-0.15322164037146535,1.6467634307076668,-0.11425069639190326,-0.5468527154421753,1.2314121001889808,0,13.603117450710805,11.791501516223683
-1.4,-0.2,2.1,6.790713125880732,0.09986342832177586,-2.3845752231468254,-0.15200346356033997,1.6183711040658182,-0.08900488124543127,-0.4287605005187397,1.2244244562223154,0,18.194287135767684,12.363937017935612
-1.4,-0.2,2.1,6.791062926400802,0.09986857244706826,-1.1175221715191341,-0.14341894163859056,1.4349383231461903,-0.6012935999326899,-0.5205886286906266,1.2292385562577381,0,13.214793144312962,18.414476747609868
-1.4,-0.2,2.1,6.790969972542751,0.09986720547856986,-1.5549242932970486,-0.14740950637155711,1.5052379585926154,-0.05515404028855423,-0.44728316901073595,1.2241545063281016,0,14.649286530929597,13.561524242572048
-1.4,-0.2,2.1,6.790917901510198,0.0998664397280935,-1.7534654476741096,-0.14851349100128688,1.5337540190001735,-0.498945085838536,-0.5237410474314902,1.226673340993039,0,19.166440112941967,17.2976640453022
-1.4,-0.2,2.1,6.790692439502255,0.0998631241103265,-2.4398626414249236,-0.15230311509399783,1.625533552201146,-0.3225512862655112,-0.4730694584463774,1.2249415607732124,0,15.897377671427352,13.515372141618354
-1.4,-0.2,2.1,6.7910493766251,0.09986837318566089,-1.1913180971332693,-0.1442606464861097,1.4467657368732691,-0.7899648759274608,-0.5797141493980643,1.2233752515828287,0,14.76657294319443,19.17967213873509
-1.4,-0.2,2.1,6.790880282819369,0.0998658865120472,-1.8843472003161565,-0.14923065223220225,1.5519165054114692,-0.5500646833531884,-0.5500218787068136,1.2244836987498895,0,13.247580681915867,17.158330726248792
-1.4,-0.2,2.1,6.790743982753842,0.09986388209931807,-2.2998642042112394,-0.1515291845749019,1.6073453863679272,-0.16886040739699731,-0.5010551977840045,1.230638705005389,0,19.6928032262444,12.932521132386409
-1.4,-0.2,2.1,6.790676286872888,0.09986288657165776,-2.4822567285846375,-0.1525426814060674,1.6310125422341422,-0.743484034375696,-0.6077643413542346,1.2302772083563545,0,17.208374759681785,19.219590926586243
-1.4,-0.2,2.1,6.791027028807264,0.09986804454128251,-1.3038889521415342,-0.14483188403782038,1.4642606732769943,-0.8984190131583062,-0.5199650445556174,1.2236705038152058,0,11.71877060907305,18.798220448112374
-1.4,-0.2,2.1,6.790457713760265,0.09985967226117998,-3.003430857749194,-0.15545064412437198,1.6977825934049573,0.027654797331974276,-0.49479359749575724,1.2242990554535509,0,17.96449384164325,11.473730547261935
-1.4,-0.2,2.1,6.7910736003136485,0.09986872941637914,-1.0557154736224916,-0.14271240241296757,1.4247630929916115,-0.5401480874422431,-0.5172118608663173,1.2291868513034931,0,12.633668927863445,18.268827423644126
-1.4,-0.2,2.1,6.790573051995974,0.09986136841170667,-2.739275212918706,-0.15395946889448936,1.6640272395016416,0.006511305894544182,-0.42723562785541247,1.2303425507299395,0,16.140739896669864,12.275580762784461
-1.4,-0.2,2.1,6.790569577002881,0.09986131730886472,-2.7475550842041585,-0.15402149293270972,1.6650865384590903,0.07496569195077013,-0.4097111952887424,1.2225043512946898,0,12.083423079227273,12.087121862216838
-1.4,-0.2,2.1,6.790588668250717,0.09986159806251171,-2.701791589672773,-0.15376574313650934,1.6592275011886506,-0.43889774233201295,-0.6031965465561625,1.231248308096477,0,15.549956474896117,14.650634184587652
-1.4,-0.2,2.1,6.790537029279591,0.09986083866587947,-2.824073706299366,-0.15444853556846896,1.6748732179772485,-0.2629677723078187,-0.5552069856343601,1.2307678735698464,0,18.235249555684234,15.15372180596636
-1.4,-0.2,2.1,6.791075115848226,0.09986875170365117,-1.046639071790132,-0.1426149035242988,1.4232455819007264,-0.641930386806025,-0.5725666245247969,1.2243263997256237,0,16.424246937790606,19.141484899555635
-1.4,-0.2,2.1,6.790624130398282,0.09986211956467983,-2.6149172532460696,-0.15326710719991876,1.6480863046898935,0.021786695134635298,-0.5364674388870043,1.228597083031727,0,18.652080096321843,10.751099296509674
-1.4,-0.2,2.1,6.791048868295242,0.09986836571022728,-1.1939970931644694,-0.1442763927118503,1.447190608522141,0.18402402518843275,-0.3605959098242532,1.2283679408438342,0,14.9412449280499,10.896397504963835
-1.4,-0.2,2.1,6.790450418073064,0.0998595649716627,-3.0194682632003023,-0.15553180977482567,1.6998302568145998,-0.17991298913828618,-0.544568939082758,1.2212337806048605,0,15.986241893019033,14.616785842744786
-1.4,-0.2,2.1,6.790472551925895,0.09985989046949806,-2.970586015407406,-0.15527180007034677,1.6935891267412897,-0.21401581767941774,-0.5545061249445689,1.2257102480476751,0,14.075898576950843,12.332751288515968
-1.4,-0.2,2.1,6.790707522816692,0.0998633459237741,-2.3996643680849417,-0.1520889167437912,1.62032917935548,-0.7272821604375116,-0.5790912238360707,1.225298992809793,0,18.603270389696718,18.80523396819786
-1.4,-0.2,2.1,6.790681516333539,0.09986296347549439,-2.4686034707800886,-0.1524670876627386,1.629249618092762,0.03874118981962116,-0.39057543797564526,1.2293978407225126,0,16.60460968547028,11.315280097193366
-1.4,-0.2,2.1,6.790613847746325,0.09986196834921302,-2.6403678615539405,-0.15342167634190526,1.651353160658855,-0.23371569710785084,-0.5319917773300271,1.222407516367588,0,15.014965143927833,14.222590902885823
-1.4,-0.2,2.1,6.7904596200041745,0.0998597002941759,-2.9992285103191563,-0.15543061968780908,1.6972459027685227,-0.5751181761663652,-0.5797801782147857,1.2303433139270954,0,12.578748317997661,15.931655156036275
-1.4,-0.2,2.1,6.791053078632494,0.0998684276269457,-1.1716217173989207,-0.14403817570813612,1.4436421570936184,0.10190905645641586,-0.399756193326144,1.22835244224436,0,14.240582625823562,11.484013720465203
-1.4,-0.2,2.1,6.790504360925169,0.09986035824889994,-2.899104503504404,-0.1548554668730448,1.684460215766987,0.04291152560278419,-0.4168995796239187,1.2229418255842126,0,10.232852276891407,11.693172500920454
-1.4,-0.2,2.1,6.790620310939559,0.09986206339616999,-2.62439637845425,-0.1533358419563854,1.6493032340111533,-1.0816237139778881,-0.734502737719181,1.2234059799905321,0,18.249241303471173,19.95160054152163
-1.4,-0.2,2.1,6.790914469079805,0.09986638925117086,-1.7657929302819397,-0.14858875770882546,1.5354830033408235,-0.827217416116236,-0.5374153760828989,1.2233202783241712,0,11.589279524755241,18.77587891709951
-1.4,-0.2,2.1,6.790675797904342,0.09986287938094307,-2.483529885570661,-0.15254523297330058,1.6311746443548572,-0.7813953606522442,-0.6177058535705738,1.2234383478392632,0,15.934805068006007,18.886578925165963
-1.4,-0.2,2.1,6.7910565330132755,0.09986847842666347,-1.152936825658415,-0.1438225540876713,1.440656722514196,-0.5387507683492138,-0.5091453300618405,1.2267464821495337,0,12.678896059087466,17.76505046026771
-1.4,-0.2,2.1,6.790561542703575,0.09986119915740277,-2.7666152284702505,-0.15412552156619896,1.6675249188682613,-0.8582409526616083,-0.6866925404204468,1.2242257713513933,0,16.985220036468007,17.01359903380943
-1.4,-0.2,2.1,6.790684522529045,0.09986300768425105,-2.460723873424051,-0.1524259833316719,1.628230235847108,0.02301201905415615,-0.40876197501907113,1.2261591647754975,0,18.07652103831522,11.315559932597694
-1.4,-0.2,2.1,6.790908478198094,0.09986630114997119,-1.7871130263681678,-0.14870573180557967,1.5384649477168177,0.029539835268069234,-0.38047063931717756,1.2303719625108958,0,10.796070915097303,11.998034610543973
-1.4,-0.2,2.1,6.79106994806272,0.09986867570680236,-1.0772689747765796,-0.1429563987964317,1.4283411241058876,0.05056413519683041,-0.44274911478211715,1.2254626907905606,0,19.658771161406086,11.60517738551041
-1.4,-0.2,2.1,6.791058205035103,0.09986850301522132,-1.1437821071274357,-0.1437048310098399,1.4391880995042088,0.25263728630889837,-0.3524536042967829,1.2256294431875103,0,13.198930119456827,10.183428655090454
-1.4,-0.2,2.1,6.790460033883292,0.0998597063806339,-2.9983154431750236,-0.1554121775278491,1.697129294271543,-0.9134425539557577,-0.5551092935227183,1.2243153212785671,0,10.202506110344121,17.633486759310593
-1.4,-0.2,2.1,6.7908824920678335,0.09986591900099873,-1.8769022779782318,-0.14920413065413846,1.5508941819390472,-0.13296243231456528,-0.4696579413094325,1.2306844246427917,0,19.8579081886687,13.353152688749862
-1.4,-0.2,2.1,6.790741364228978,0.09986384359160105,-2.3071631570348217,-0.15157010035009974,1.6082998232376922,-0.91018218973702,-0.5125685526927463,1.2273727233800669,0,10.862441457944165,17.57762960088594
-1.4,-0.2,2.1,6.790444619621532,0.09985947970031939,-3.0321629195439215,-0.15561408093933374,1.701452349569041,0.050555256444095975,-0.5247626077530374,1.2275143835478124,0,19.774856384417937,12.801187926828506
-1.4,-0.2,2.1,6.7909867191436035,0.09986745175211142,-1.4855913949208244,-0.14633912467561644,1.4950060301401829,-0.15413323892883599,-0.6568560541702186,1.2305188910868532,0,17.85396987577011,14.09714111287829
-1.4,-0.2,2.1,6.791042956395792,0.09986827877052518,-1.2247211590691265,-0.14463423480005766,1.4520119362272217,-0.6870580062100812,-0.4869137745993533,1.2220365500169617,0,10.25683834675434,17.667663108935248
-1.4,-0.2,2.1,6.790888596729463,0.09986600877543328,-1.856182303497107,-0.1490758684772772,1.5480445626117232,-0.9670663100580592,-0.6641982779927038,1.2212763604237915,0,17.491150539091578,19.63837818442164
-1.4,-0.2,2.1,6.79095729993259,0.0998670191166573,-1.60544148652221,-0.1476979601856257,1.5126192683630444,-0.8307608618149523,-0.668749750461806,1.2247770939402418,0,17.76194059850587,19.60035560276266
-1.4,-0.2,2.1,6.791065094674789,0.09986860433345512,-1.1052507255377364,-0.1432738497553032,1.4329396378451997,-0.4303529943369787,-0.6833221674248586,1.2277499199702648,0,15.410431109225108,16.629700196434946
-1.4,-0.2,2.1,6.790564158961931,0.09986123763179311,-2.7604212103125647,-0.154078394639796,1.6667321711563132,0.25369144318070047,-0.37652593914909865,1.2267782337584148,0,15.091213493591624,10.818273899000644
-1.4,-0.2,2.1,6.7906450975825905,0.09986242790562594,-2.562325861583261,-0.1529898846362695,1.6413279855892284,-0.45227802200969003,-0.55715804277435,1.2240594149841586,0,12.060792277052506,15.993071162196756
-1.4,-0.2,2.1,6.790739287930325,0.0998638130577989,-2.3129356829021575,-0.151606793822457,1.6090507479841898,0.027216325825309414,-0.43921079733982415,1.2217810207387763,0,19.98004164652918,11.735142710425299
-1.4,-0.2,2.1,6.790922736877878,0.09986651083643938,-1.735956367208189,-0.14842220248815663,1.5312890140210424,-0.39022984782693665,-0.6810017590953533,1.227146254699741,0,19.39528833319784,16.049475473890006
-1.4,-0.2,2.1,6.79093272560559,0.0998666577294971,-1.699235957764067,-0.14821517828787067,1.52609160036845,0.31619531982253307,-0.3418858366236307,1.226698892802326,0,12.080175204956294,10.301846276455072
-1.4,-0.2,2.1,6.7906135759798225,0.09986196435264327,-2.6410375584201162,-0.1534198928311758,1.6514382368705998,0.14057186767383742,-0.4466567827759504,1.226078324406508,0,15.423992236850683,10.638627853962316
-1.4,-0.2,2.1,6.7908306616137715,0.09986515678843899,-2.0447851004309214,-0.15012732561948527,1.5736519518676775,0.25503072464068743,-0.41032416645168934,1.2217386459798776,0,17.177247173702085,10.108248743142454
-1.4,-0.2,2.1,6.790680240313609,0.09986294471049151,-2.471941218769551,-0.15248355456591517,1.629680143998094,-0.6757751257078601,-0.4874702835381544,1.229625594693501,0,10.114964644515913,16.589369645455562
-1.4,-0.2,2.1,6.790965350467122,0.09986713750686826,-1.5735329366249573,-0.14752554369292714,1.5079663852208771,-0.3970032797391824,-0.5542763216184815,1.2243598592185885,0,18.9376259182949,16.43919258619366
-1.4,-0.2,2.1,6.7904560202053155,0.09985964735596209,-3.0071601283853866,-0.1554714547230095,1.6982588004438242,-0.05014650187039642,-0.520594702954812,1.2280467817095062,0,17.214169563584235,12.361498931510605
-1.4,-0.2,2.1,6.7906522092569865,0.09986253248907451,-2.5442677527479063,-0.15289109854612293,1.6390046144756285,-0.30989153893957294,-0.5412449059647378,1.2236217196720025,0,12.366892462472252,13.97180009757879
-1.4,-0.2,2.1,6.790926590961117,0.09986656751413525,-1.7218776522032897,-0.14834591535430278,1.5293010182980675,-0.09297411024291045,-0.44855997649668944,1.222128071213402,0,15.222773667842603,12.871024199221125
-1.4,-0.2,2.1,6.790763777358038,0.09986417319644447,-2.2439837309311272,-0.1512198276572217,1.6000343905086132,-0.9367957189509485,-0.5985033073099738,1.2308810333906899,0,15.028684714804275,19.793204719174362
-1.4,-0.2,2.1,6.790884295425137,0.09986594552095829,-1.870804239050976,-0.14916600715565267,1.5500567706567203,-0.1894394487623244,-0.4502767930340086,1.2224238002469054,0,13.92623516734934,14.115566988417655
-1.4,-0.2,2.1,6.79045162676136,0.09985958274649098,-3.0168163384845315,-0.15552405494964233,1.6994907263798993,0.16428918109069887,-0.4732358683740728,1.2282758944865437,0,18.2961306490118,10.705505976751185
-1.4,-0.2,2.1,6.790825586877087,0.0998650821599556,-2.060527861074277,-0.1502163679977766,1.5757574811179544,-0.36091711433136303,-0.5429738606230164,1.2279729910444734,0,16.626635184824046,14.928256441152373
-1.4,-0.2,2.1,6.790922174516574,0.09986650256642138,-1.7380014379904551,-0.14843174433535486,1.5315777218358735,0.0024523916227595904,-0.5748550410015858,1.2221670956885358,0,18.22014372005676,11.529347163271774
-1.4,-0.2,2.1,6.790646947099823,0.09986245510440916,-2.557640502383123,-0.1529638012636733,1.6407245917646263,-0.2669611306866315,-0.538603188652354,1.2272302441836775,0,14.463978887748613,14.710841939675099
-1.4,-0.2,2.1,6.79086901207647,0.09986572076583045,-1.9219009963104483,-0.14944930334894319,1.5570516780801011,-0.23525158613563849,-0.5102313673766968,1.2262848589061293,0,18.257472783436256,14.120915678400472
-1.4,-0.2,2.1,6.790682560714227,0.0998629788340355,-2.4658686002731756,-0.15244883946556126,1.628895640476653,-0.20933470582899874,-0.46887613614763,1.2318206607912505,0,13.850047420343762,13.936943837095313
-1.4,-0.2,2.1,6.790944906788692,0.09986683686453723,-1.6533890893397185,-0.14796742762052542,1.5195427284324623,-0.1407423543357806,-0.46186477511634894,1.2246082271007646,0,19.092733216303074,13.3153499325404
-1.4,-0.2,2.1,6.790752169741303,0.0998640024961972,-2.276905147474615,-0.15160629004728354,1.6043454568052076,-0.09092968697650698,-0.44643114198067213,1.2275886761927364,0,11.52684810227463,12.09387255945865
-1.4,-0.2,2.1,6.790686850949115,0.09986304192572071,-2.4546051172458405,-0.152389324443962,1.6274398109791126,-0.8423773414921305,-0.512247109304005,1.2211985252682434,0,12.678539318832579,17.283478945194474
-1.4,-0.2,2.1,6.790914683434366,0.0998663924034493,-1.7650255072249976,-0.148583718738888,1.5353762212524151,-0.6362457212625308,-0.5682820038540706,1.2248608705107062,0,19.967138632750395,19.23371081510671
-1.4,-0.2,2.1,6.790520541049823,0.0998605961919119,-2.8621558095979083,-0.15465559720483876,1.6797398882759427,-0.1401637296260157,-0.5185654642641624,1.2260551061900662,0,13.699829542787043,11.309731871089644
-1.4,-0.2,2.1,6.790970769854887,0.09986721720375069,-1.5516922123082821,-0.14740692865008753,1.5047597484991835,0.21935027128670692,-0.3712006203419764,1.2250282590190984,0,10.356724754401807,11.05285178105335
-1.4,-0.2,2.1,6.790895393277108,0.09986610872466217,-1.8328510630286488,-0.14895130158520892,1.544822692513755,0.11191874376411584,-0.43413165980502577,1.2295055432859985,0,19.766485896180672,11.456907023134749
-1.4,-0.2,2.1,6.7904512072295375,0.09985957657690614,-3.017737037720849,-0.15552907353743506,1.699608760500078,0.17771105014575272,-0.44406301294926326,1.229128749344551,0,14.681069729506099,10.991448372272167
-1.4,-0.2,2.1,6.7908601671569,0.09986559069348422,-1.9508909848881473,-0.1496120380325251,1.56099429033883,-0.5699571450692589,-0.6018069561300906,1.22661370203273,0,13.998525147280363,17.32738132180008
-1.4,-0.2,2.1,6.791039857191112,0.0998682331939893,-1.2405223468408977,-0.1448134214220989,1.454470113659979,-0.7812194677806663,-0.5451217295551168,1.2289013537364573,0,11.329520721499339,18.42706945382018
-1.4,-0.2,2.1,6.791059088613007,0.09986851600901403,-1.1389142774868333,-0.1436520058011611,1.4384047995797824,-0.20215050329459172,-0.45892174648245504,1.2249536283013622,0,15.33660220273412,15.031339822414111
-1.4,-0.2,2.1,6.7910658954524195,0.09986861610959519,-1.1006836272969167,-0.1432155927108752,1.4321936272762572,-0.14739767832198059,-0.5591333708020543,1.2252013245842874,0,12.161277730638183,13.65522134867388
-1.4,-0.2,2.1,6.790646812646788,0.09986245312715747,-2.5579813691479103,-0.1529510837119574,1.6407693651532544,-0.5548019420071084,-0.6361015525272508,1.2271368603343231,0,19.88914256523242,17.308611195397795
-1.4,-0.2,2.1,6.790688616110359,0.09986306788397625,-2.449957327283663,-0.15236495295066,1.6268399713343955,-1.261957786055679,-0.5836918438682278,1.2225300183981276,0,13.61109377658206,19.868552598913745
-1.4,-0.2,2.1,6.791050395588201,0.09986838817041432,-1.1859296162451116,-0.14419744735308337,1.4459142929493336,-0.6638895798225274,-0.5599208017732626,1.227217515585882,0,13.287436618124246,17.94975480187157
-1.4,-0.2,2.1,6.790868825827907,0.09986571802688138,-1.9225157144449767,-0.1494406961259888,1.5571354004972224,-0.2019032515419547,-0.504499947856571,1.2224047532130031,0,19.635938465348094,13.772396101714321
-1.4,-0.2,2.1,6.790943097710205,0.09986681026044497,-1.6602755933212876,-0.14800132176372008,1.5205302408206838,-0.036784842350045886,-0.4389290030299485,1.2266302408469423,0,18.163790928226945,12.280480603328781
-1.4,-0.2,2.1,6.790726178796067,0.09986362027641471,-2.3490817297376054,-0.15180021800185967,1.6137590667571036,-1.1499702893612347,-0.6093705809345931,1.2243221101080906,0,16.684236124489317,18.407926837357806
-1.4,-0.2,2.1,6.7910556487518114,0.0998684654228188,-1.157748814826931,-0.1438761253526381,1.441427680634916,-0.64660573203114,-0.5476439602284282,1.229824835650339,0,18.111803651180956,19.200742777470104
-1.4,-0.2,2.1,6.791072892566348,0.09986871900833139,-1.0599270152249929,-0.14275219499008607,1.4254653952360254,0.09120935167489899,-0.4282044015329613,1.2264946854172205,0,19.29498512968469,10.25876297140126
-1.4,-0.2,2.1,6.79096116544887,0.09986707596248534,-1.5901983726037017,-0.14760424127411434,1.5104013689843598,-0.23501022806920088,-0.5197973236012795,1.227450931112389,0,19.399407121096086,14.438859478938365
-1.4,-0.2,2.1,6.790974180916933,0.0998672673664247,-1.5377896336952546,-0.14732135192843412,1.5027107173046519,-0.710575278364269,-0.6322178952004107,1.230619549878388,0,19.282067591932204,18.932193518180704
-1.4,-0.2,2.1,6.7908409222896005,0.09986530768073099,-2.0126014773337175,-0.1499417604107804,1.5693317781266718,0.24303489016005006,-0.36397069424171685,1.2250051497972554,0,12.379800939843062,10.098394523434319
-1.4,-0.2,2.1,6.791076232841391,0.0998687681300181,-1.0398978526695046,-0.14252225382385436,1.422117836274897,0.1336086944711282,-0.38628677132200606,1.2229009895191383,0,15.067489147259236,10.983334537173263
-1.4,-0.2,2.1,6.790924036650967,0.09986652995074952,-1.7312207263259793,-0.14838296132494383,1.5306215161964432,0.12337360600687833,-0.41865779398578995,1.2279821925797805,0,16.137726795096203,10.782728525868317
-1.4,-0.2,2.1,6.791067475936909,0.09986863935200985,-1.0916127357593908,-0.1431193126158486,1.4307042713047988,-0.1397326353656248,-0.4225808848436999,1.2295599310672674,0,10.00451181505489,14.604575400523366
-1.4,-0.2,2.1,6.790881461717575,0.09986590384878591,-1.8803779384326091,-0.149206930281842,1.5513715309870604,-0.3741528934042364,-0.4954677150387359,1.2306094713984084,0,12.699526550947542,15.920768276339256
-1.4,-0.2,2.1,6.790956180722851,0.09986700265768977,-1.6098286584800903,-0.14772236090210528,1.5132565718806454,-0.6105940312171969,-0.7477724202303262,1.228386331947353,0,18.823488411630223,18.046693056348367
-1.4,-0.2,2.1,6.790964064652467,0.09986711859782726,-1.578671547537418,-0.1475476759921375,1.5087195230269916,0.08695538114809086,-0.40862494413027417,1.2298078751148511,0,11.349061620342166,13.584980830686675
-1.4,-0.2,2.1,6.7908578774683015,0.09986555702159228,-1.958329358470401,-0.14964319230685436,1.5620028621457323,-0.36001595097448663,-0.547342485763736,1.2235040199839735,0,16.46363219873552,16.20908625664276
-1.4,-0.2,2.1,6.790962597212484,0.09986709701782948,-1.584516113859742,-0.14758631177582018,1.509572016096746,-1.1379770026413558,-0.5576309528031592,1.226152503409238,0,10.024654985759163,19.615769819650076
-1.4,-0.2,2.1,6.790516733443486,0.09986054019769597,-2.870887776955513,-0.15470221101739565,1.6808550133605267,-0.16825183472230565,-0.5535511459292489,1.22323788100761,0,16.66628018553174,11.974266325288541
-1.4,-0.2,2.1,6.790898829962444,0.09986615926415476,-1.820944812423697,-0.14888990287832335,1.5431723307296104,-0.32352281444392306,-0.48089476872234266,1.2222030124397876,0,10.619376132254647,15.137315209504365
-1.4,-0.2,2.1,6.7906203963999445,0.09986206465293801,-2.624184615751197,-0.15332708691418678,1.6492760908385962,-0.2971061116358135,-0.6033986090532631,1.2313942023614364,0,18.542806913760053,14.47153196954294
-1.4,-0.2,2.1,6.790786055585194,0.09986450081742815,-2.1795154760613755,-0.1508706570177239,1.5915558569699475,-0.3532876973401594,-0.4840808863473337,1.2316130611146603,0,13.438193412612783,16.316938392843877
-1.4,-0.2,2.1,6.790536660499331,0.09986083324263761,-2.824930331379356,-0.154444541304893,1.674982163035443,0.053186788036526045,-0.47366899922513994,1.2280986317678315,0,16.699068129645326,11.865926976659239
-1.4,-0.2,2.1,6.79090998863872,0.09986632336233647,-1.781760848355809,-0.14867777342386612,1.5377177632969536,0.15744134398028312,-0.5595476029094703,1.2256615628773764,0,15.58595508117831,10.63723873809778
-1.4,-0.2,2.1,6.790933181202323,0.09986666442944436,-1.697542801543186,-0.14820633576346676,1.5258510760602528,0.24385387073071602,-0.3445764806888114,1.2222601420005104,0,10.913130930940728,10.994970672895747
-1.4,-0.2,2.1,6.790802279659172,0.09986473940674978,-2.1314312757787945,-0.15059875053946065,1.5851962131259356,-1.050463027222159,-0.6439437730341233,1.2232483175164035,0,12.449075801927705,18.5790917143782
-1.4,-0.2,2.1,6.790655203134133,0.09986257651667607,-2.536631241590719,-0.15284290789742408,1.638021668145159,-0.25356900918666747,-0.5389668453906622,1.2210508155100417,0,14.404840987623707,13.621416698083333
-1.4,-0.2,2.1,6.790753396099145,0.09986402053087096,-2.2734476945791116,-0.15138835894670338,1.603894453091194,0.038620240059197807,-0.4024721658989734,1.2265616996257558,0,10.555139561507604,11.06396539033155
-1.4,-0.2,2.1,6.790638021748485,0.09986232384924243,-2.580180789239961,-0.1530855123280062,1.6436241544857495,-0.18826343550191174,-0.48413410771897936,1.228203634566891,0,10.07475427899772,14.980039316428497
-1.4,-0.2,2.1,6.790519631720731,0.09986058281942212,-2.8642432641802174,-0.15467244713367354,1.6800068445679956,-0.7744945892516237,-0.5117614562928785,1.2215162831818618,0,11.284118176031939,15.276807181433108
-1.4,-0.2,2.1,6.790550416414192,0.09986103553550008,-2.7928225827260533,-0.15427438002434182,1.6708774815909626,-0.921294980921372,-0.6157090732775874,1.2293928817924256,0,14.2705570376049,17.437234912016443
-1.4,-0.2,2.1,6.790769171301569,0.09986425251913955,-2.22853307938383,-0.15114124984368424,1.598008156592392,-0.7895198806129603,-0.5029800962327401,1.227768303974727,0,10.735561912990278,16.893553771641727
-1.4,-0.2,2.1,6.790522074093914,0.09986061873667795,-2.858633567717135,-0.15464110893148805,1.6792900898367376,-1.0417868983742344,-0.6111405020772745,1.2243936626551963,0,14.8000629704468,17.36356667496515
-1.4,-0.2,2.1,6.790616111185468,0.09986200163508041,-2.6347843504511914,-0.15339325176259605,1.6506365820811726,-0.2981016333199991,-0.5496239578604325,1.2315560042419307,0,13.29775565796656,14.218161342293836
-1.4,-0.2,2.1,6.790650760392705,0.09986251118224487,-2.5479560245972266,-0.15290899860461035,1.639479701062017,-0.619302925334153,-0.6445879230857221,1.2319497667269876,0,12.201330000728971,15.968689145239955
-1.4,-0.2,2.1,6.790763157928996,0.09986416408719112,-2.245751772994602,-0.1512357302339482,1.600266393890599,0.013855068650168341,-0.42776189824219213,1.226109892810901,0,19.644282063428758,11.848627890428569
-1.4,-0.2,2.1,6.790670498790767,0.0998628014528058,-2.497290005328203,-0.15262520648385577,1.6329516292310133,-0.5497914521061457,-0.5278591575765671,1.2265865553268664,0,10.441040017744431,17.457218978257547
-1.4,-0.2,2.1,6.790562445219237,0.0998612124296927,-2.7644798855984476,-0.1541140454081347,1.6672519824922234,-1.3281525137817682,-0.6547084569685196,1.2277554310167187,0,14.858979148721541,19.04577993482637
-1.4,-0.2,2.1,6.791052112922369,0.09986841342533248,-1.1767917656123572,-0.14409508421065545,1.4444645461628651,-0.2626780190077852,-0.47636661548761294,1.2272090800756366,0,12.903232571329397,15.87908995682638
-1.4,-0.2,2.1,6.79091633947186,0.09986641675694186,-1.7590857761409495,-0.14854580775554072,1.5345425201379717,-0.08051760792563789,-0.409167384898172,1.227953255479536,0,12.753903860741486,13.822882604493824
-1.4,-0.2,2.1,6.79089203400169,0.0998660593235523,-1.844418058313444,-0.14901664553004831,1.546420715290755,-0.6962772289511934,-0.5987762762356942,1.228105777434062,0,17.09952076775679,16.447862782837735
-1.4,-0.2,2.1,6.79105371196945,0.09986843694072878,-1.16821854327263,-0.14399869048750435,1.4430997903613345,-0.22186810142438146,-0.4613142741524975,1.2303129194433235,0,15.427894281758109,15.005344942120676
-1.4,-0.2,2.1,6.791059566706306,0.09986852303979665,-1.1362715646028931,-0.14362088443489873,1.4379776814706855,0.20545433282000322,-0.36720684864864556,1.2272971636060754,0,13.762547792757267,10.170700222609376
-1.4,-0.2,2.1,6.790942250406911,0.09986679780009888,-1.6634914548221147,-0.14801072992532993,1.5209918218521123,0.0940040102072551,-0.3951119572866328,1.2220792741670206,0,14.585887903855344,11.07225062788161
-1.4,-0.2,2.1,6.790905853226068,0.09986626254744335,-1.7963780644515737,-0.14875083005107337,1.5397578855222152,-0.26395743430631413,-0.4725517032864652,1.227496731652553,0,14.67366654854376,14.905530937793968
-1.4,-0.2,2.1,6.790629224078373,0.09986219447174038,-2.602228027970419,-0.15320483144270053,1.6464567155740548,-0.09147372395631698,-0.5680025624206819,1.2245793436560144,0,19.56307598739733,11.346791298920959
-1.4,-0.2,2.1,6.790951830718122,0.09986693868702767,-1.62677071803067,-0.14782078515159097,1.5157085095434097,0.24987179673672383,-0.34028175808740196,1.2238419232953468,0,13.154700516206086,10.254380067900211
-1.4,-0.2,2.1,6.7909261459703,0.0998665609701499,-1.7235088415546684,-0.14834842366820866,1.5295321221257043,-0.6653086757423203,-0.6001164074071177,1.222273500999295,0,18.334539901541273,17.599168847449043
-1.4,-0.2,2.1,6.790966327820147,0.09986715187971118,-1.5696160622719901,-0.14749840624434793,1.5073939122460167,0.17887125067612078,-0.41396739171280644,1.2260723907933735,0,16.73800225193132,10.70286001207828
-1.4,-0.2,2.1,6.7904715177836295,0.09985987526152318,-2.9728851757965202,-0.15527496362677493,1.6938818769942996,-1.0392890748614214,-0.7806956628452426,1.1905551078435377,0,19.79806595865638,18.48034056132528
-1.4,-0.2,2.1,6.790518330742206,0.09986056368738616,-2.867227500834595,-0.15469211299154756,1.6803886005094166,-0.0772276003483379,-0.5029457732736121,1.2314889157075037,0,13.786549032440737,10.995429815124982
-1.4,-0.2,2.1,6.790917926596958,0.09986644009701173,-1.7533750421725713,-0.1485220381215529,1.533740701594185,-0.2818275475619664,-0.4460227598322511,1.2220278852821362,0,13.320648127090422,15.50975789442934
-1.4,-0.2,2.1,6.790531211473354,0.09986075310990383,-2.837561456223767,-0.1545170637020437,1.676596940951811,-0.5022195986554382,-0.5885453229317174,1.2203198821934285,0,17.016003455117165,17.749338273910602
-1.4,-0.2,2.1,6.7905738059966225,0.09986137949995033,-2.737475754657588,-0.1539655154295514,1.663796750703853,-0.637276249790642,-0.5638243129703441,1.2297242397523795,0,14.176883869609647,17.58938533327069
-1.4,-0.2,2.1,6.79067481993485,0.09986286499904073,-2.4860745214914104,-0.15256641641998814,1.631504808077362,-0.3466807863545391,-0.513095752630739,1.227305326931062,0,19.135231797586677,15.985329990426115
-1.4,-0.2,2.1,6.790725717447081,0.09986361349186845,-2.350344557614328,-0.15181276993226286,1.6139242458293692,-0.8523405387616344,-0.5861075970478049,1.2245667022125097,0,15.32069789176031,16.95996675813283
-1.4,-0.2,2.1,6.790639820663262,0.09986235030387425,-2.5756519428558633,-0.15306137053748767,1.6430421574599348,-0.545896444074837,-0.5666534765819947,1.231743016402236,0,10.801109131347273,17.199067943284312
-1.4,-0.2,2.1,6.790953073168531,0.09986695695835879,-1.6219492964648907,-0.14779374499357195,1.5150113157166376,-0.30436798718918384,-0.46963741236879103,1.2293112407134923,0,15.795264585601021,15.949465889473846
-1.4,-0.2,2.1,6.790830410021851,0.09986515308855859,-2.045568263302542,-0.15012407354299,1.5737573510525167,0.06807439212612754,-0.4518475374263594,1.221025919827747,0,19.2506018243702,12.451153364516395
-1.4,-0.2,2.1,6.790689407509145,0.09986307952219331,-2.447870931297871,-0.15235005244659316,1.6265692792575503,0.013263923271849876,-0.4081355619569495,1.2298767104765183,0,18.236422278325975,10.800171228312868
-1.4,-0.2,2.1,6.790662719974776,0.0998626870584518,-2.517366508461656,-0.1527384010496031,1.635539216176209,-0.08850958421591484,-0.5136053757094123,1.224295363805456,0,19.06743097121801,11.267500408915808
-1.4,-0.2,2.1,6.79078762586931,0.0998645239098428,-2.1749047278958145,-0.15084432501858747,1.5909475502040034,-0.48423248999534396,-0.5115509985876383,1.2217206099431406,0,13.90234545589249,17.38816062117137
-1.4,-0.2,2.1,6.790651192825834,0.09986251754155795,-2.5468557104605694,-0.1529000923906928,1.6393380033342844,-0.05496285299710873,-0.511327051834379,1.2226658717714385,0,17.11835235164866,12.090695274244954
-1.4,-0.2,2.1,6.790906917088986,0.09986627819248195,-1.7926286188229312,-0.1487366018357346,1.5392354384901632,-0.1735173091435502,-0.45899029167474265,1.2227337132874476,0,16.671774648645385,13.947937901321858
-1.4,-0.2,2.1,6.790854851886117,0.09986551252773701,-1.9681175776978677,-0.14969629218979003,1.56332920733465,0.17737027154350632,-0.44325683756664425,1.226514937105143,0,19.46325152620505,10.818616092084572
-1.4,-0.2,2.1,6.790914422600451,0.09986638856765095,-1.765959291423016,-0.14858532233043842,1.5355074292400903,0.18546860838084156,-0.3680733346391176,1.2262176660814528,0,15.92644314438885,10.643817645962217
-1.4,-0.2,2.1,6.790961276471208,0.099867077595166,-1.589758465680866,-0.14761647730772218,1.5103377556561777,-0.9478469858670652,-0.6602841184937106,1.2297327785106056,0,15.838890075715812,19.811216778712883
-1.4,-0.2,2.1,6.79056278585886,0.09986121743909893,-2.7636735605133467,-0.15410242808603128,1.6671483083862095,-0.21499158176933292,-0.5544204865592646,1.2260853837124912,0,14.61157605716178,11.173950384470173
-1.4,-0.2,2.1,6.7909185022580765,0.09986644856261995,-1.7512992890112145,-0.1485098256764649,1.533448326727579,-0.45232038661329815,-0.5102022476165291,1.2294079420618536,0,17.813413647439486,17.05461548470186
-1.4,-0.2,2.1,6.790577564974072,0.09986143477903164,-2.7284892397138805,-0.15390795993045808,1.6626468346839318,-0.30641516904263255,-0.6046398573189782,1.2256597034364465,0,17.79944239401785,15.200398587725008
-1.4,-0.2,2.1,6.790726465279224,0.099863624489398,-2.3482972415245484,-0.1518034717726302,1.6136583603300287,-0.3217624642391247,-0.39196489745362983,1.2258626487537236,0,10.992618703426135,12.882571721732464
-1.4,-0.2,2.1,6.790802245022771,0.09986473889739056,-2.131535004030809,-0.15060386043828805,1.5852105091659552,-0.8568398148558294,-0.6980541608732156,1.2272051848397876,0,14.939266530685073,17.668216603275116
-1.4,-0.2,2.1,6.79084405368048,0.09986535373059491,-2.002682670782363,-0.1498796585842727,1.5679960926550818,-0.9409492180262125,-0.6348935086185256,1.2292223355280674,0,12.024410362593727,18.134770465149366
-1.4,-0.2,2.1,6.790807646023325,0.09986481832386929,-2.115302972397224,-0.15051170297605304,1.5830569659263352,-0.17197786188805997,-0.42109480861831683,1.2276863654965422,0,17.591562737143732,15.165461345640322
-1.4,-0.2,2.1,6.791073978292683,0.09986873497489279,-1.0534592418673583,-0.14268777956964343,1.4243861627318275,0.015872421811882337,-0.4049672790334022,1.2297430001799659,0,12.849796983602767,12.7062540316802
-1.4,-0.2,2.1,6.791049222282162,0.0998683709159165,-1.1921321548321728,-0.1442646086394787,1.4468959478633665,-0.4018802707442035,-0.5309691555136437,1.2236628302499284,0,15.87084568632724,16.951824244548582
-1.4,-0.2,2.1,6.790593150183568,0.09986166397328855,-2.6909488412287175,-0.15369276305647933,1.657838322607394,-0.4963916671908334,-0.6082376935297347,1.2230859661179347,0,13.83292025851127,14.186811978471358
-1.4,-0.2,2.1,6.790795983984896,0.09986464682330887,-2.1502088196358926,-0.15070917740852352,1.5876855924362296,-0.7086867039971544,-0.5743588492650092,1.2300887071170905,0,15.817851657655194,17.99525381632478
-1.4,-0.2,2.1,6.790600880626307,0.09986177765627158,-2.67215612650471,-0.15359700062444426,1.6554294468396518,-0.14379531871275378,-0.5322300032483966,1.2223390488007269,0,19.649418008577527,15.323622313705012
-1.4,-0.2,2.1,6.790874725257652,0.0998658047832035,-1.9029529054354555,-0.14934573099663273,1.55446402252213,-0.5192293567650091,-0.5605955473171335,1.2264147649382993,0,18.602277580565925,18.3163204914703
-1.4,-0.2,2.1,6.79093336864236,0.09986666718591941,-1.6968457344720278,-0.14820324385965247,1.5257520467933392,-0.0505295857042818,-0.4046944277584163,1.2297317901189913,0,11.270475098950056,13.758939317933656
-1.4,-0.2,2.1,6.790740477665782,0.09986383055391013,-2.3096295972485947,-0.15158251563827463,1.6086201087822793,-0.1611331434706555,-0.4721971798292063,1.2284131525038977,0,15.64472047804572,13.61577348348768
-1.4,-0.2,2.1,6.790445215920116,0.0998594884694115,-3.030859517671942,-0.15560689890284,1.7012857023854209,0.18109511241262072,-0.4634200125727494,1.2275109751800528,0,16.756662107343473,11.590760412723766
-1.4,-0.2,2.1,6.790800331557492,0.09986471075819958,-2.1372581133887536,-0.15063617955803071,1.5859695850787399,-0.39997223633652695,-0.5949699181842432,1.2218592425803645,0,12.520137786790542,14.45388863012305
-1.4,-0.2,2.1,6.790547846398258,0.09986099774115242,-2.7988456372278137,-0.15430371827539294,1.6716479513361517,0.0734233537581012,-0.44501213510383014,1.2288893959394067,0,14.494671398047686,10.633853869245677
-1.4,-0.2,2.1,6.791068431326757,0.09986865340186446,-1.0860921768685117,-0.14306394930490293,1.4297952649805254,-0.0778153234956503,-0.6218458756457459,1.2246710030432986,0,11.165016901564162,12.759458640183958
-1.4,-0.2,2.1,6.790834122596419,0.0998652076852391,-2.033982907624221,-0.15005385549196806,1.5722039640394592,0.21385641446147777,-0.39775254921080266,1.2209417716575908,0,14.494490891478367,10.72085383809569
-1.4,-0.2,2.1,6.790528400998728,0.09986071177939149,-2.844057232787769,-0.15455562551174412,1.67742766534605,-0.09918670308704985,-0.4697636984967099,1.2214352966361586,0,14.938793128467381,14.664393893177436
-1.4,-0.2,2.1,6.790720372329133,0.09986353488719235,-2.364930616777805,-0.15189631541738924,1.6158207945367669,-0.18019603447116625,-0.49148376336528865,1.2261458343469402,0,15.594455177775112,13.212691047469427
-1.4,-0.2,2.1,6.790879133280026,0.09986586960705646,-1.8882099604524427,-0.14926266953872552,1.5524450867999702,0.012491926292085832,-0.40270717573398745,1.2261070812000066,0,11.801033087876059,12.824845200725772
-1.4,-0.2,2.1,6.790535117518495,0.09986081055174179,-2.828512014531448,-0.15446756205948417,1.6754404000994598,0.06328239770932113,-0.4636214580817756,1.2240232201774113,0,12.422512919112918,11.837313468005613
-1.4,-0.2,2.1,6.790768931234457,0.09986424898874358,-2.2292228392910474,-0.15114580399422267,1.5980977844672117,0.11323828357010073,-0.44928873154899046,1.2247198165223736,0,19.264731260006563,10.034185282381241
-1.4,-0.2,2.1,6.790701034623403,0.09986325050917122,-2.4170302180977643,-0.15218045156031515,1.622578249533494,-0.24471219450085727,-0.4206519774879118,1.2270597366436455,0,13.669473743721106,15.676072287592994
-1.4,-0.2,2.1,6.791053715323621,0.09986843699005599,-1.1682004934586132,-0.14399527760625713,1.4430968134215847,0.1731193144932831,-0.3834464951611856,1.22254168540845,0,14.960606563769035,10.544560229345041
-1.4,-0.2,2.1,6.790851848867376,0.09986546836569632,-1.9777874998649736,-0.14974525318632181,1.564636832693992,0.07361804821136987,-0.4272913099514761,1.2271876592577307,0,17.241840764028495,12.524866411092944
-1.4,-0.2,2.1,6.790739081115067,0.09986381001639844,-2.313509947967418,-0.15160551618501134,1.6091256223509245,-0.11893913289826445,-0.39769607164514503,1.2284133044418055,0,10.279117680027714,13.312108090617212
-1.4,-0.2,2.1,6.790531055232414,0.09986075081224177,-2.8379229106042203,-0.15452336528115077,1.6766428036761383,0.035254034142501195,-0.41936842135263686,1.2292259613142955,0,11.954388813078152,12.879866646627654
-1.4,-0.2,2.1,6.79069023047612,0.09986309162465234,-2.4456996041804047,-0.1523429743885815,1.6262885893618813,-0.44528892247433144,-0.48037359347707337,1.231667346966911,0,15.079786455366664,15.094224671000896
-1.4,-0.2,2.1,6.7910090413425195,0.0998677800197445,-1.3878867423271402,-0.1457519975354565,1.4790645354167153,-0.707853007706164,-0.5096834472884207,1.2262315192298492,0,17.577521585921716,19.426286927287585
-1.4,-0.2,2.1,6.790696081215479,0.09986317766493391,-2.430212370320035,-0.15224854933843182,1.6242844526932743,-0.8758510729233682,-0.520550467631541,1.2264093999139696,0,13.43793633426262,17.24660047401364
-1.4,-0.2,2.1,6.790784841157489,0.09986448295820072,-2.1830751451539854,-0.15088832977779854,1.592026139011922,-0.3616655051819648,-0.5290561910257876,1.230011579518541,0,19.2893940881498,16.94446960793064
-1.4,-0.2,2.1,6.79086123229256,0.09986560635724118,-1.947421576955577,-0.1495877794464892,1.5605234194135338,-0.5080426544030695,-0.5681983841126071,1.2219489828583672,0,13.104016781629888,16.531280727834346
-1.4,-0.2,2.1,6.790845685212297,0.09986537772370907,-1.9974963387989675,-0.1498524082757808,1.567297163062257,0.17085997919429613,-0.4323550470566838,1.230866282519281,0,14.325963515235651,10.59321215605587
-1.4,-0.2,2.1,6.791072902910766,0.0998687191604497,-1.0598655821813807,-0.14276025629941613,1.4254544427753446,-0.20984010180370627,-0.4660099064764518,1.2267399383984334,0,12.943233818629398,14.75083866369129
-1.4,-0.2,2.1,6.790926125364276,0.09986656066711896,-1.7235843403323514,-0.1483413399547818,1.5295425803843188,0.02387604602174362,-0.4329456796632569,1.2273639997386605,0,16.923472649542042,11.40533162447899
-1.4,-0.2,2.1,6.790634008646901,0.09986226483304383,-2.5902584888391544,-0.1531378326490665,1.6449200597231481,-1.0280052736487837,-0.5734041984523679,1.227380154824091,0,16.23009915438729,18.501124815383026
-1.4,-0.2,2.1,6.790813162418985,0.09986489944733723,-2.098603270830033,-0.15042374391322255,1.580836734008498,-0.3818929771025014,-0.5537085246793756,1.2315826156973455,0,12.956762016123417,16.100684306929004
-1.4,-0.2,2.1,6.790806081948428,0.09986479532276826,-2.120015524021568,-0.15053827389202967,1.583683147905801,0.22916006545162285,-0.31273586032592693,1.2263728345367608,0,13.70258623961159,10.76833658616543
-1.4,-0.2,2.1,6.791067942113553,0.09986864620755265,-1.0889225612010733,-0.14309209962421637,1.4302612548887883,0.16437052171933023,-0.608965059127969,1.2285600133603638,0,11.59922036102958,11.520853785348873
-1.4,-0.2,2.1,6.790784907921523,0.09986448394002201,-2.1828795896497155,-0.15087493113712996,1.5919988982413333,-0.6650483650915604,-0.5682212754194174,1.2247170243623606,0,15.23915257401147,18.99381294513804
-1.4,-0.2,2.1,6.790564909976169,0.09986124867611856,-2.7586409280715785,-0.15407931718876877,1.6665047867338978,-0.5921270480174468,-0.5719325228312855,1.2268499953186922,0,15.015627208527079,19.023239178534567
-1.4,-0.2,2.1,6.790654033415091,-0.14440882328512927,-2.537438982873219,-0.2667878304097276,1.6716540296212394,0.08856289713509559,-0.5035442366251788,1.2312684572294843,10.192086664689468,19.801991297886733,12.925956029594811
-1.4,-0.2,2.1,6.790655665906993,-0.006105736861499178,-2.537439583054031,-0.2018155423765657,1.6528479109051415,-0.23443284646356027,-0.5284729771313086,1.2220378012103605,10.351961906234619,16.051694516723018,17.051257948626795
-1.4,-0.2,2.1,6.790653230863786,-0.1763210285296335,-2.5374386878176125,-0.2818595627535854,1.6759278153849664,0.37149540255885183,-0.41976890245117887,1.2215911700468816,10.985500708741148,10.174940831797068,12.879478881180507
-1.4,-0.2,2.1,6.7906547596509625,0.10767007110764837,-2.537439249871696,-0.1493107987865886,1.6370293281931638,-0.2044168243330497,-0.4949508640461362,1.2268027991277288,10.883692158266816,14.617909625913612,19.11086668985876
-1.4,-0.2,2.1,6.790651873291971,-0.22001119342993203,-2.537438188710297,-0.303108500349228,1.6817753322586988,0.18325618593989154,-0.48115351484052615,1.2292874973065062,10.595147408228346,15.62730235684544,15.214790864279198
-1.4,-0.2,2.1,6.79065517546837,0.07931360419154654,-2.537439402745676,-0.1626167317684128,1.64101211884162,0.1641050121796757,-0.4506844223396961,1.2315245698223138,10.519391030621655,17.307141510066558,12.909147754876216
-1.4,-0.2,2.1,6.790655653065958,0.014177662030505633,-2.537439578333114,-0.19232950722485204,1.6500511239038373,-0.16545408717281646,-0.5204017377567609,1.2270871349002077,10.982692369787616,18.86761545416407,16.056935835750153
-1.4,-0.2,2.1,6.7906556656169315,0.006401462547505066,-2.5374395829474494,-0.1960093379387827,1.6511269067937597,-0.17284392581477215,-0.49981096077733667,1.2275828066785854,10.911402363175275,13.846325474523436,17.326166522179353
-1.4,-0.2,2.1,6.790652497027008,0.20111895691788728,-2.537438418024678,-0.10529402790046007,1.6237565572146644,-0.07946039067693932,-0.3718257151536898,1.2220398912132533,10.420401050597865,17.072112875019307,15.325087342270203
-1.4,-0.2,2.1,6.7906518340294575,0.22114646904165758,-2.5374381742755503,-0.09582604403391023,1.620881100185413,0.13737111863211982,-0.2791949494186901,1.2243218927335418,18.972382654740617,11.973082320711093,16.9534248184517
-1.4,-0.2,2.1,6.790651689343701,0.22528072074363248,-2.5374381210822605,-0.09406969835992891,1.6202878108245846,-0.190721051363323,-0.4028161052296169,1.2259064189841897,14.12043749624404,19.922730306651715,17.049691230129614
-1.4,-0.2,2.1,6.790652962290782,-0.18578085478064832,-2.537438589077503,-0.2863092500088665,1.6771888946225735,0.40545497617172294,-0.41396977102021804,1.2259935629793253,19.303382189293266,10.627957218608495,16.88568190767478
-1.4,-0.2,2.1,6.7906524015606,-0.20412379491507648,-2.5374383829266733,-0.295087670563455,1.6796371968429877,0.33506014687457175,-0.4526291144810702,1.2263218420813862,13.927233624163064,17.934192189755034,12.440220053509378
-1.4,-0.2,2.1,6.790652192465618,0.21055548285645598,-2.537438306053552,-0.09998468530333383,1.622394661783924,0.1285911002480291,-0.2830572922000099,1.2315040122963383,12.018718992208335,10.735261623920492,15.344181614777408
-1.4,-0.2,2.1,6.790652353870428,-0.20560842494378395,-2.5374383653934984,-0.29629127598465455,1.6798620165677098,0.9403334065215708,-0.30890468806839316,1.2214834570921285,16.36815608989199,11.516287838791927,10.594053683452977
-1.4,-0.2,2.1,6.7906513960345904,-0.23343739282788434,-2.5374380132479857,-0.30952231097066596,1.683556115219345,0.27815540605088773,-0.45947586488650405,1.2240735811118602,13.732877905818572,14.376248113449712,16.625901370173082
-1.4,-0.2,2.1,6.790649859216824,0.27221257764835416,-2.5374374482414908,-0.07108495024717397,1.6135025462023562,-0.4040359268197278,-0.41533293015631245,1.2296285526963768,11.311931192620976,12.932901641457349,16.11636849220513
-1.4,-0.2,2.1,6.790655596789321,0.03030753816769538,-2.537439557643104,-0.18492844720662038,1.6478232424585446,0.5642214214089822,-0.3332148175976897,1.2309479430424768,18.410102505603888,10.942214958225806,10.954590786716038
-1.4,-0.2,2.1,6.790655233281377,-0.07452167764436135,-2.5374394240004605,-0.23404168799683453,1.6622158936048348,-0.13346842361657732,-0.5049240156168473,1.227683008282863,15.452574006603488,14.39314470621608,19.720660811176707
-1.4,-0.2,2.1,6.790653461966976,0.16775478989641934,-2.537438772781968,-0.12091772464721794,1.6285188251099028,0.16593356913254032,-0.2934855522402062,1.224402497011735,19.663522114889503,14.7765415030748,16.573024220398338
-1.4,-0.2,2.1,6.790654574393393,0.11813211987584671,-2.537439181762231,-0.14423455815746458,1.6355522473698496,0.02630795154941011,-0.4683500056906438,1.2305094851412532,12.0767304452492,18.187569539285903,14.760131647455381
-1.4,-0.2,2.1,6.79065264703981,0.19630442456552766,-2.537438473176401,-0.10753958706077234,1.624444575299591,-0.0381812668895085,-0.35596094572161663,1.2280996881707484,11.042743395575979,16.62381444812606,15.179691000780966
-1.4,-0.2,2.1,6.790653567197094,0.1637058825546367,-2.537438811469528,-0.12281129023619622,1.62909538424138,-0.019726158711482086,-0.34736872270252445,1.231685122969456,10.708841343667178,15.767669946364666,15.606358423002883
-1.4,-0.2,2.1,6.790655126187257,0.08318070599604432,-2.537439384627689,-0.16065450554366068,1.6404667794385852,0.061973172857185815,-0.4357422363093082,1.2311811107233985,16.195538544132674,13.433881550336993,19.01445385474127
-1.4,-0.2,2.1,6.790654365498838,0.12891480546888268,-2.537439104962864,-0.13921109375451998,1.634030341129094,-0.10319371930840236,-0.3748888274287931,1.223976195742343,15.769586781459084,13.35463713255184,19.907243964121882
-1.4,-0.2,2.1,6.7906550030153845,0.09213906965091168,-2.537439339343912,-0.15646424479326462,1.639210478657482,0.07549440385283979,-0.449345299339579,1.2269642951331352,17.81804984426421,15.731557951789224,17.90064650622114
-1.4,-0.2,2.1,6.790651835217627,0.22111219890557532,-2.537438174712321,-0.0958990764337855,1.6208872291251395,0.04539959080433015,-0.3455783879945469,1.226225612373798,11.287451369996917,17.375598717465735,13.418966957573655
-1.4,-0.2,2.1,6.7906528098387575,0.1909423266121335,-2.537438533029004,-0.1100032020165599,1.625210957147535,0.22171387340012766,-0.31956449303566703,1.2261532835999105,12.522763138368655,19.172929111501553,11.224857088004343
-1.4,-0.2,2.1,6.790654493868047,0.12240119027099094,-2.537439152157326,-0.1422168400310388,1.6349485656290588,-0.057151517637264275,-0.5090057285540059,1.2289715755306663,13.06336988202223,19.827722028442253,15.95408904150455
-1.4,-0.2,2.1,6.790651993749055,0.21649106330897894,-2.537438232995939,-0.09805455758477313,1.6215509697234172,0.37427359016794864,-0.26328714141974024,1.2310581691701752,16.92143488139437,16.32123509511812,10.739770839685717
-1.4,-0.2,2.1,6.790654014280104,0.14525126895661877,-2.537438975838313,-0.13146918026308427,1.6317166291879754,0.3328423987714496,-0.27824086907443435,1.2316124475637311,14.747350748057183,16.847684140241437,11.911179951232825
-1.4,-0.2,2.1,6.790654682435289,0.11214932252312737,-2.537439221483524,-0.14704979950360542,1.6363955051417305,0.061530741700867086,-0.40993710530913163,1.2239494030663658,16.704552460497222,14.283904741813853,18.089671647418076
-1.4,-0.2,2.1,6.790650964042229,0.24495712271982661,-2.5374378544272957,-0.08468844987879269,1.6174513320423092,-0.07170994607541288,-0.3525302064620886,1.2230826595386413,14.997440973812289,16.636576422633496,16.29547216859423
-1.4,-0.2,2.1,6.790651708350683,0.2247419498175729,-2.5374381280700575,-0.09411258955497344,1.6203650166825128,-0.2990580412026198,-0.4157281082168555,1.2225771151112146,19.504160719648446,19.768531828468337,19.81906651843662
-1.4,-0.2,2.1,6.790652314827579,0.20681592910038127,-2.5374383510395404,-0.10254501910744449,1.6229383137494007,0.48811055808100384,-0.21360279990105666,1.2268923447889237,14.843957397324083,11.806221266350152,10.291877857380406
-1.4,-0.2,2.1,6.790652410364544,0.20384853996436414,-2.537438386163444,-0.10394871435054533,1.6233647078408349,-0.2097718135059057,-0.4032823500616806,1.227826950021292,15.346972534414284,19.220406231325555,18.13328334370295
-1.4,-0.2,2.1,6.790653756689196,0.15615047516208014,-2.5374388811357207,-0.12635617292318885,1.6301693253795877,0.20666782851512097,-0.29092542420656087,1.2268447499182782,18.00758085847451,15.380281087250172,15.234890473284716
-1.4,-0.2,2.1,6.790653240352835,0.17597750502701626,-2.5374386913062352,-0.11706861639054586,1.6273487070975095,-0.040655130268268246,-0.3614307642752448,1.2292469225358036,15.11248202904034,18.004334707335623,16.44933228754101
-1.4,-0.2,2.1,6.790655358921143,0.06286078617739665,-2.537439470191565,-0.17019390364940803,1.643308859496687,0.2836495094384433,-0.40721936662418257,1.2299204361136005,15.40288769466342,15.494947419090828,14.490070136361547
-1.4,-0.2,2.1,6.790652582441243,0.1983919747127194,-2.537438449426972,-0.10658466417383498,1.6241467185830283,-0.02465345797570707,-0.3421208185066185,1.2277459636557588,14.992717307214981,16.420241095437405,16.48926690940337
-1.4,-0.2,2.1,6.790653513753071,0.1657745845399372,-2.5374387918210317,-0.12183861595061427,1.6288011348363725,0.029295761132729303,-0.34017510991062,1.2218173951842775,19.235668555666027,17.882244618361078,16.884331333723168
-1.4,-0.2,2.1,6.790655036450506,0.08979571784667018,-2.537439351636266,-0.15754654580751698,1.6395388013749175,0.3375884610291903,-0.405330737051854,1.2214674798933136,13.443975733065614,15.656532077514711,12.084804810735736
-1.4,-0.2,2.1,6.790655314896146,0.06717758448628874,-2.5374394540058987,-0.16820855357218706,1.642707049406504,0.1463304512814477,-0.42047333905332784,1.2302372840194458,15.786098501078513,12.660363845352379,17.57692851972751
-1.4,-0.2,2.1,6.790650459888976,0.2577516194981122,-2.5374376690767875,-0.07869998943692176,1.615601106745825,-0.189280783226309,-0.38360732328742925,1.224030838428314,15.477672274832148,16.851386624071505,17.443600913957393
-1.4,-0.2,2.1,6.790654784593784,0.10618278625883715,-2.5374392590418537,-0.14979800740562182,1.6372345679379334,0.350217780412941,-0.3748195011975506,1.2293443042164285,19.499276551167867,12.660890831657184,15.805157369995555
-1.4,-0.2,2.1,6.790653282043273,0.1744602158756825,-2.5374387066336013,-0.11780580985327674,1.6275647396808623,0.13694821248877673,-0.34368307324142827,1.2306512797158358,10.217865816407345,18.624130313314737,11.79973364856506
-1.4,-0.2,2.1,6.790654960224334,0.0950539192905353,-2.5374393236118564,-0.15507187580880033,1.6388001875652654,0.11281463993171058,-0.4253278156461305,1.2278594311020992,17.418261241774395,12.03708201750158,18.652143789969863
-1.4,-0.2,2.1,6.790655667489087,0.004136249383888124,-2.5374395836356456,-0.19707475170095312,1.651438846888381,0.1242375154326623,-0.4576216727354943,1.2216090492258886,15.035950759511794,17.952855235993702,13.682768406226776
-1.4,-0.2,2.1,6.790654559162537,0.11895133279829162,-2.537439176162657,-0.1438309631201079,1.635435448834444,0.31169331210140194,-0.3885394925663107,1.2260485347244279,10.492827155336412,14.316375060829762,11.584416048929416
-1.4,-0.2,2.1,6.790653743681627,0.15668075144495086,-2.5374388763535194,-0.12615122332483691,1.6300942954055615,0.14544198084701937,-0.2977672037586004,1.2314331538349528,11.129463249315751,12.633720153249502,14.471117496458179
-1.4,-0.2,2.1,6.790654882570077,0.10012713352213876,-2.5374392950625335,-0.15269780653654988,1.6380875890737459,0.2629467323521528,-0.3884713081847278,1.23144236868431,17.3365452733464,10.493006430164012,16.84912667198012
-1.4,-0.2,2.1,6.790655395541769,0.05903001348000814,-2.537439483655035,-0.1720307953878175,1.6438439010935482,0.2209052728481199,-0.4027021191294429,1.2297259224105106,13.628388332638139,11.161291217968804,16.00317179970969
-1.4,-0.2,2.1,6.790655663850451,0.007968783808560698,-2.5374395822979423,-0.1954218781434233,1.650914575339538,0.4558477407947989,-0.37593494987294973,1.23113627638148,17.437764990070235,14.70428354747058,11.087161276522085
-1.4,-0.2,2.1,6.790653636603015,0.16097967821805836,-2.5374388369863965,-0.12407932466449953,1.6294823820885256,0.4738010279226865,-0.22186999602058313,1.2316543149380934,13.418183767182683,11.644078430057846,10.6762074811888
-1.4,-0.2,2.1,6.7906509597947995,0.2450677020038694,-2.5374378528657715,-0.08456275173907353,1.6174338006373863,0.2805352577157787,-0.27063227293516506,1.226051535498176,13.654066288472034,14.226291982900644,11.478849780487185
-1.4,-0.2,2.1,6.790655143971538,0.08180625272783848,-2.537439391166032,-0.1612562351736327,1.6406580817014436,0.2141382753345559,-0.4131529671441099,1.2313290645056232,13.321706328175207,13.646740576922305,15.035873428315938
-1.4,-0.2,2.1,6.790653189575053,0.17780804517668392,-2.5374386726378617,-0.11624529818882468,1.6270885405743565,-0.40089476478995917,-0.4507635378470287,1.2219979563065835,10.007174309800298,18.46792112140741,18.769956527645444
-1.4,-0.2,2.1,6.790655491501916,0.047549977922778375,-2.5374395189345478,-0.17743387044611633,1.64544435953565,0.4732264613147904,-0.3685929119167767,1.2231781747429546,16.504065440953582,13.540475746446871,12.561591017213694
-1.4,-0.2,2.1,6.790655078134069,0.08678570673329888,-2.537439366961074,-0.1590161841839243,1.6399621282370327,0.054010444193434516,-0.4791720155738152,1.2313079339828024,5.162395760233956,16.846106475401275,12.535973509113113
-1.4,-0.2,2.1,6.790654209551157,0.1364101191246858,-2.5374390476290998,-0.13588138705387684,1.6329727996872503,0.40945433652295415,-0.24881746421705092,1.2249090745425337,7.4804954362556515,8.538717260904967,10.964402606173069
-1.4,-0.2,2.1,6.790652358712848,0.20545816636112102,-2.5374383671738343,-0.10323067689848882,1.623133513455072,0.22360828776376412,-0.2677349829811805,1.2244090761493316,17.46077164387094,12.703135091525752,15.27091518225368
-1.4,-0.2,2.1,6.790653242757205,0.17589035659589136,-2.537438692190115,-0.11708316506575463,1.6273591242881058,-0.5897462948859353,-0.37461241645227067,1.2218638164407516,-9.830010143342157,19.59410693630793,14.794176872930489
-1.4,-0.2,2.1,6.790654987947864,0.09317584300305493,-2.5374393338043433,-0.15599568727092558,1.6390660976694602,-0.7546000424942301,0.032677579089236214,1.228222113352319,-2.4898465532001204,-2.188516606980123,15.500174000912848
-1.4,-0.2,2.1,6.79065435274584,0.12954403095399858,-2.5374391002742414,-0.13891068712037424,1.6339415832973714,-0.08198336681872835,-0.35405216967394676,1.2292237675387712,11.801700790100647,1.616094466594305,19.93660916416175
-1.4,-0.2,2.1,6.790653059071712,0.1824284928127784,-2.5374386246587477,-0.11405166127035057,1.6264282456748838,0.06836572786881664,0.05145130988263262,1.2292775018468831,5.245279032384648,-15.186399046173392,13.497410999346286
-1.4,-0.2,2.1,6.7906540572558605,0.1433522737619186,-2.5374389916381546,-0.13238032483249584,1.6319854396623583,0.45189430931153457,-0.2807948583296582,1.227696860715125,15.286683369878489,8.075969609293267,13.561386759111858
-1.4,-0.2,2.1,6.790655408657411,0.057596095454783836,-2.5374394884769913,-0.17268336849531662,1.6440438420345242,-0.44794737654851224,-0.35315448082144224,1.2304148669386241,-9.49563914287102,15.568453727347816,11.616961754158075
-1.4,-0.2,2.1,6.790655633147011,0.02133018978907497,-2.537439571009905,-0.1889972025457723,1.6490621386192421,0.6177370755413341,-0.3102727064120149,1.2248009509550335,16.487529610887336,-5.563196165976279,11.468028435759868
-1.4,-0.2,2.1,6.7906523225788185,0.206576762682118,-2.537438353889314,-0.10270127535059927,1.622973436051363,-0.4017337758146059,-0.3542275484616824,1.2312152483289116,8.713159586430493,6.327816913851066,18.5397260222328
-1.4,-0.2,2.1,6.790654084374914,0.14214089712449862,-2.537439001608419,-0.13293632382834447,1.6321578952076647,-0.03900528809720391,-0.3453813503281386,1.22905569683507,-1.046790645026931,9.58386288962895,12.470314333174478
-1.4,-0.2,2.1,6.790653381946505,0.17076950133839697,-2.5374387433627277,-0.11952215915487169,1.6280913412367068,0.5464965737973908,-0.18620189792683092,1.2286404638140411,15.949677023754745,-15.433360219061418,10.534576350165064
-1.4,-0.2,2.1,6.790651904473588,0.21910538903097798,-2.537438200174087,-0.09680183481100219,1.6211740454176646,-0.10573256161037031,0.25471209210297757,1.2244527221229333,-6.264489825335788,-15.058408609192163,11.881778345625795
-1.4,-0.2,2.1,6.790654091478512,0.14182187743917662,-2.53743900422009,-0.13310245668562615,1.632202582372365,-1.2736890048818443,-0.2505577924952122,1.2318666833948386,-16.815554693561488,14.787505066215978,15.912890736500724
-1.4,-0.2,2.1,6.790654809950194,0.10464918135156376,-2.537439268363997,-0.1506021479076188,1.6374518310178514,-1.2598005816708795,0.414631538399073,1.2315209272367935,-17.76480658520306,-5.817540430304927,17.6085732157401
-1.4,-0.2,2.1,6.790655188764667,0.07823750646266836,-2.5374394076340323,-0.1630197251320929,1.641159706537573,-0.2424669469356279,-0.48389037769429366,1.221309810330174,9.55665577172471,7.429058222418345,19.435600351284485
-1.4,-0.2,2.1,6.790652568537112,0.19883843205612095,-2.5374384443151143,-0.10636788882264618,1.624081356446998,-0.631357845253331,-0.5415072321700348,1.2284678928650017,4.4365068747846195,19.682790664903635,18.635472793142753
-1.4,-0.2,2.1,6.790654980016022,0.0937170129089826,-2.537439330888276,-0.15571312475101903,1.638987211733073,-0.3489092937233655,-0.5649399084119654,1.2308133880585914,7.5716910305193785,17.67590742266694,17.900596237854156
-1.4,-0.2,2.1,6.790655446540441,0.05323796767583211,-2.537439502404517,-0.17475466093222913,1.6446522793901464,0.5306916180912004,-0.3305145393660085,1.229655351806616,17.36059777161715,2.9510370758387907,14.910111138287888
-1.4,-0.2,2.1,6.790652566884834,0.19889141992360804,-2.537438443707707,-0.10624873872708389,1.624073907855931,-0.29938352589623374,-0.30363287598036137,1.2280439076443006,10.411050812739777,-0.39833919641767324,19.552425179102855
-1.4,-0.2,2.1,6.790655527938583,0.04238416101152387,-2.537439532330339,-0.1798348725830349,1.6461625714745267,0.45328274404952046,-0.34915124331435543,1.2306390339991191,9.663655412060915,3.4304627288047556,12.191530247239339
-1.4,-0.2,2.1,6.790655442846649,0.05367847580126872,-2.5374395010465634,-0.1744977625979136,1.6445885996309615,0.5142521881647303,-0.34683683532243065,1.2243209111620725,11.21785817728518,10.901423208474583,10.709870264253754
-1.4,-0.2,2.1,6.790651471250051,0.23137310510652487,-2.5374380409007458,-0.09109646490048966,1.619410151350054,0.002161698335595129,-0.33383821886922144,1.2247389871540761,3.8557708428016184,11.907930351556043,13.385699599245982
-1.4,-0.2,2.1,6.790649067312469,0.2901796038997406,-2.537437157100193,-0.06266428902344398,1.61089317070829,-0.3619211052130672,0.3063799171757169,1.230608016935411,-7.886951254329077,-17.3381639572422,17.883581966065528
-1.4,-0.2,2.1,6.790655105705241,0.0847360411518383,-2.537439377097499,-0.15997087552770597,1.6402494198562132,-0.3390004610858587,-0.03361615955897872,1.231687118090758,-5.9564157080959035,0.4005534975338989,12.150928058546697
-1.4,-0.2,2.1,6.790650565351921,0.255128175304129,-2.537437707849932,-0.07915121015896269,1.6159769206840302,0.3909818305705683,-0.2046539409182213,1.2315479755909111,12.928630331796825,-10.134416259610969,10.71748204162137
-1.4,-0.2,2.1,6.790652671702535,0.195501556631672,-2.5374384822436014,-0.10784134720428463,1.624558538284223,-1.0487542038438822,-0.5242264207367294,1.2320578287609223,2.9191807695791354,9.333800898704144,18.85115239630647
-1.4,-0.2,2.1,6.790654878810951,0.10036621343488594,-2.5374392936804924,-0.1525902840599777,1.6380545459795837,0.4557488605104783,-0.336847463333105,1.222170890459345,4.898440976947352,4.257106787984725,10.000717299470757
-1.4,-0.2,2.1,6.79065166675521,0.22591934409498693,-2.53743811277765,-0.0936372405845989,1.6201951920939064,0.1647195917384585,0.05619290083820545,1.2273557598268208,-9.700332104331437,9.266940395153085,10.476347220875923
-1.4,-0.2,2.1,6.790655657239206,0.012157141576503161,-2.5374395798673532,-0.19344948433147152,1.650334673822707,-0.5358198492699439,0.241897064661653,1.2311560095044998,-15.492228753392654,-11.368230386960274,12.060957584958778
-1.4,-0.2,2.1,6.790653379995799,0.17084232860153037,-2.5374387426455414,-0.11953094537536144,1.628079896955834,-0.8407461318782872,0.34057807932950224,1.2234767726978595,-7.079066257486133,-4.150036990055481,14.671022941374066
-1.4,-0.2,2.1,6.79065133310333,0.23515063173593198,-2.5374379901115063,-0.08926438187042825,1.6188659000731906,-0.33888216819029043,-0.299035431050381,1.2233136440121746,11.860259014233261,1.6395751534944445,19.82386366071981
-1.4,-0.2,2.1,6.790654166356482,0.13841444862375152,-2.537439031748683,-0.13473034370018838,1.6326863437098802,-0.6871311068881498,-0.10974265225510323,1.2208316744166403,-2.7526583791836536,2.1100730633899047,15.796993838186983
-1.4,-0.2,2.1,6.7906548363875,0.10302590095012665,-2.5374392780836885,-0.1513032201891061,1.6376786094863864,0.3553964464803655,-0.244635886402284,1.225736084317809,10.359094116295854,-12.872214347737971,12.181990773880237
-1.4,-0.2,2.1,6.7906537036150105,0.15830298506590568,-2.537438861623116,-0.12539725634235077,1.6298634723897987,0.18074133328288705,-0.2559796686263315,1.2250613455535801,13.21093564500277,-11.442120400414275,15.218657019967027
-1.4,-0.2,2.1,6.790654396497615,0.12737238917566174,-2.5374391163594012,-0.13989921343701933,1.6342478201992927,0.4140292019632651,-0.344316712122139,1.2217981375373685,10.234146218634123,2.9428313102819104,12.743637506973426
-1.4,-0.2,2.1,6.79065383018262,0.1531198998038219,-2.537438908155387,-0.12782039436709713,1.6305999289998852,-0.6768768799618341,0.3850844781378509,1.2227156094004754,-9.659710304022958,-8.134857429781812,15.826558118474257
-1.4,-0.2,2.1,6.790654363669795,0.1290052380802087,-2.5374391042903355,-0.1391734697386282,1.6340167555503342,0.5919264696999137,-0.30353111161391405,1.2261852558084216,19.48904869412609,-17.350112547415048,11.914465930790824
-1.4,-0.2,2.1,6.790654906773597,0.09857390472769012,-2.537439303960909,-0.15346129774022169,1.638306078910733,-0.03763651862499283,-0.4351875505343781,1.230564158891197,6.571144632890853,5.182755072143767,15.713459249579415
-1.4,-0.2,2.1,6.790653629516044,0.16126015949041284,-2.5374388343809073,-0.12401019752728959,1.6294441618139124,0.48135647158885003,-0.15379608401398673,1.2314483845627142,12.730080472188746,-16.538937054566482,10.371655376686054
-1.4,-0.2,2.1,6.790650228373103,0.26341919220007615,-2.53743758396066,-0.07525142257267206,1.6147764530531536,0.32836165117796207,-0.06300581763512426,1.2298724547154471,-9.531551373193391,16.033687586209446,12.310763402248812
-1.4,-0.2,2.1,6.790653449644779,0.16822253531458387,-2.537438768251725,-0.12075105561857791,1.62845357812966,-0.14274919112292797,0.25782606557704774,1.230556741112541,-5.300313592927655,-11.003289912512443,12.604546350298762
-1.4,-0.2,2.1,6.790654667691189,0.11298443932721725,-2.5374392160629,-0.14665264510294637,1.636277680501415,0.5407234396565411,-0.31608318092481685,1.2218960883340733,19.06542272065414,3.065011598541929,14.982597080786814
-1.4,-0.2,2.1,6.790654653548689,0.11377971914960039,-2.537439210863539,-0.14630647249061488,1.6361653465025063,-0.7906086009250262,0.3557775461419693,1.2231115558656256,-10.566731832783066,-12.05339552794101,16.255056081257294
-1.4,-0.2,2.1,6.790652754997453,0.19276528032692752,-2.5374385128666788,-0.1092042872644936,1.6249509896470662,-0.5210392317482277,-0.00024267488889933284,1.229979427595206,4.046997205189701,-6.72028044783068,18.7963776875618
-1.4,-0.2,2.1,6.790652181381525,0.21089095490125942,-2.5374383019785185,-0.10064830898591948,1.6223542876530979,-0.7780038852100605,0.4261561206051872,1.2257010400884145,-17.740192130159823,-19.86706615516745,17.98341001171191
-1.4,-0.2,2.1,6.790653747759006,0.15651472246991593,-2.537438877852587,-0.126181427232467,1.630116965984583,0.05495180647523782,-0.338175252242968,1.2266480875051307,17.866840440792892,16.690183442262445,16.47219174536666
-1.4,-0.2,2.1,6.790653341081914,0.17228870841686117,-2.5374387283389055,-0.11880092293819118,1.6278740817948405,0.24946191235403134,-0.2528201312676468,1.222666037560469,18.004075977236326,-12.844904346507109,15.589774181279434
-1.4,-0.2,2.1,6.790654668866889,0.11291807327086012,-2.537439216495194,-0.14668101681320583,1.636286824872509,-0.8319404180790749,-0.1445068373190786,1.2297668924180587,2.005119346814258,-1.0459101812773284,18.290735633278004
-1.4,-0.2,2.1,6.790655524770983,0.04285797261782687,-2.5374395311658304,-0.17962148173668463,1.6460973147803442,-0.8467612918745498,-0.6394072055342713,1.2310611468330621,-2.650593863771448,13.719606736249538,15.37369558300102
-1.4,-0.2,2.1,6.79065535300289,0.06345817505285067,-2.537439468015812,-0.16997615229855645,1.6432259723106823,-0.2973421956092323,-0.14968430843476974,1.2258196238159091,6.776596253739243,-15.202399415748179,19.91777394392198
-1.4,-0.2,2.1,6.790651674767467,0.2256930275729907,-2.537438115723347,-0.09376005814766573,1.6202290954456324,-0.5047257052761189,0.05992063620233643,1.228393705967729,1.0560636909270968,-4.942995932750378,17.08183821371864
-1.4,-0.2,2.1,6.790650689316973,0.2520096098824287,-2.5374377534253156,-0.0813913473539095,1.6164318175133467,0.27317054079746234,-0.03934925150757165,1.2255033833354063,-2.0843985894107853,2.2960355325037973,10.469389903265725
-1.4,-0.2,2.1,6.7906519241083885,0.21853308795325654,-2.537438207392846,-0.09703394198821375,1.6212561387380626,0.009555883243979543,0.014163613996859573,1.22670586001045,5.617640509523035,-13.368740887408226,14.309010400701498
-1.4,-0.2,2.1,6.790650449147542,0.25801732316290904,-2.537437665127733,-0.07849678674976424,1.6155612428043042,0.20267659282728867,-0.24028083002860132,1.2316582635252444,12.98892874003262,-9.848936156353801,14.706516074798412
-1.4,-0.2,2.1,6.790655569414152,0.035603213550998714,-2.537439547578728,-0.18244383449531604,1.6470886243120844,0.18135571571771172,-0.30520932270042567,1.2230802542129424,-0.4784532019447596,6.086408167693499,10.474252770265904
-1.4,-0.2,2.1,6.79064912985087,0.28880130173376095,-2.5374371800922546,-0.06332814695244243,1.6110935510464088,0.15738512268215146,0.18621122981446578,1.222860896644401,-17.995973378843996,-5.668213131838806,11.892948754260694
-1.4,-0.2,2.1,6.790650360234025,0.2602063137634114,-2.5374376324390013,-0.07692257581446517,1.615244243406453,-0.17471784184210865,-0.31397090764929236,1.2241130305535712,18.869566122878318,-15.795338703224356,14.85651072217401
-1.4,-0.2,2.1,6.7906554424533105,0.05372516861521737,-2.5374395009019324,-0.174474496933932,1.6445822305693274,-0.8426405987777321,-0.6932753144458134,1.2317306856463286,2.338556282855663,14.360248627778233,18.687445941849166
-1.4,-0.2,2.1,6.790650787516341,0.24951159552764057,-2.537437789528063,-0.08257654289118398,1.6167929263608145,0.021333463195030367,0.1938964802192355,1.2275703168109757,-14.581955092760834,9.41207911184804,12.08089242802242
-1.4,-0.2,2.1,6.790650884078193,0.24703063404049042,-2.537437825028732,-0.08363984351740766,1.6171505295563735,-0.4840672784576138,-0.025767777077067174,1.22637576725104,-4.5042306227693985,3.0730542951474895,15.715901608411611
-1.4,-0.2,2.1,6.790652870438709,0.18890751006626738,-2.5374385553083556,-0.11101994844777552,1.6255027127112904,0.2873915488220386,-0.04449831272365151,1.2290539639219715,10.63637328600478,-18.65916148109426,11.723845483610125
-1.4,-0.2,2.1,6.790654934846021,0.09674116844913705,-2.537439314281613,-0.15427129322989636,1.6385632184596144,0.4640043444026935,-0.26060967327525314,1.2213657561267548,9.796239820442967,-11.457629242605027,10.667196381865766
-1.4,-0.2,2.1,6.790654754509315,0.10797411021292058,-2.537439247981368,-0.14904170215069096,1.636983050044678,-0.8645488541678609,-0.23495325947538037,1.2240485143835678,-1.0162884275484743,3.0383101084521513,16.98151315084396
-1.4,-0.2,2.1,6.790653713005899,0.15792425820623235,-2.537438865075714,-0.1255726953873854,1.6299184058228522,0.6220301069895325,-0.17556407505643537,1.2283015409135187,18.75653780230592,-1.5720790115882721,12.455660551733665
-1.4,-0.2,2.1,6.790655541159154,0.040346619871634015,-2.5374395371908776,-0.18080123411381666,1.6464452347506087,-1.3517275633814518,0.39742853678995055,1.230413645839614,-14.45747819546054,-5.748242762240544,15.133361415996534
-1.4,-0.2,2.1,6.790650452174347,0.2579424788649365,-2.5374376662405496,-0.07861539041401826,1.6155729577037108,-0.10950027361302031,0.2551245640324904,1.2265759199620057,-16.504692192638146,-1.042185583923576,12.236755365002303
-1.4,-0.2,2.1,6.790651875173506,0.21995664133136028,-2.5374381894020104,-0.09635328171310814,1.6210515760308168,-0.05959143317977187,0.23866566651317084,1.2229859614663292,-2.814824477078485,-11.573651299385004,12.558443769724702
-1.4,-0.2,2.1,6.790655307116715,0.06791186460149312,-2.537439451145893,-0.16779740514888186,1.642602707872757,0.42687538549803733,-0.3379503840255713,1.2219872917410912,15.435638550097842,-14.857918730148082,15.079317785489906
-1.4,-0.2,2.1,6.790655406515604,0.05783268420203047,-2.537439487689568,-0.1726081601038885,1.6440131868979555,-0.17955103592437932,-0.3180707820698574,1.2275568297866049,8.511769429917202,-8.428523390825235,19.38843624071848
-1.4,-0.2,2.1,6.790655013930973,0.09138064256984713,-2.5374393433569153,-0.1568536024392039,1.6393173904001657,0.03398147731090151,-0.2587333109327206,1.2267086469897714,15.034765962961224,-19.418716110380124,18.505805084582704
-1.4,-0.2,2.1,6.790654456722134,0.1243211028589819,-2.5374391385008366,-0.1413653121219908,1.63467909982743,0.05882118507499326,0.05271555238549626,1.2260253717103815,0.4769083985911138,-11.571601553098866,11.690040738533423
-1.4,-0.2,2.1,6.790654687477762,0.11186228415217547,-2.537439223337401,-0.1472014600935312,1.6364361603185626,0.5247673353539793,-0.3382355392492407,1.2235494171155625,12.121722765196083,12.414806203622426,10.396421646504505
-1.4,-0.2,2.1,6.790651312287181,0.23571459238246106,-2.5374379824585347,-0.08902917450353592,1.6187838082039283,-0.3176231252218329,-0.18746061408772463,1.2219014993483102,-0.14891976991343014,4.830273659162149,15.601566797347935
-1.4,-0.2,2.1,6.790652295720623,0.20740430324824422,-2.537438344014973,-0.10226242993028783,1.6228540330037977,0.34056919621806037,-0.22394098716678917,1.2210923313943052,10.70676576906477,-6.54301330198814,11.91493361073353
-1.4,-0.2,2.1,6.790654837682357,0.1029457370408493,-2.537439278559681,-0.15140988915160677,1.6376918463175971,-1.2128555793415217,0.42964812809952424,1.226799383522339,-7.691926458523856,-11.03140452378478,19.52405212814931
-1.4,-0.2,2.1,6.7906537730251415,0.1554819498883675,-2.537438887141583,-0.12672214535352133,1.6302642098226894,-0.5292880788473439,0.3164001819678767,1.220905930805093,-6.022155908427841,-5.9541605438074185,14.292694744515426
-1.4,-0.2,2.1,6.790652273152169,0.20809712896330268,-2.5374383357177166,-0.10196899775915236,1.6227553436202888,-0.3733773311265181,-0.42438038273065193,1.225269252678112,7.324341826836665,14.43527289985716,18.02935601137336
-1.4,-0.2,2.1,6.790653163873426,0.17872744670804463,-2.53743866318878,-0.11574870445622873,1.626955706461306,-0.8360176311645523,0.4483291842382953,1.2285984400886125,-18.014557795719956,-15.999823992366387,16.019989353403936
-1.4,-0.2,2.1,6.790654725875367,0.10965189216419091,-2.5374392374542154,-0.1482124506313196,1.636747459396359,-1.216792486242071,0.40709182793996035,1.2228020490632994,-17.528581125595526,-6.449142281169822,18.148200088931013
-1.4,-0.2,2.1,6.790653080300864,0.18168487585904503,-2.537438632463598,-0.11441055699882849,1.6265336057897484,-0.11243259810470554,-0.3290409535312476,1.2273097278969776,10.808292795423974,-2.6857517957216643,19.158584599580735
-1.4,-0.2,2.1,6.790654305706987,0.1318389441463652,-2.537439082980555,-0.13778832767169674,1.6336163616544241,-1.1499417545432682,0.10792123656696237,1.2288624237723416,-9.644763218483096,2.883609242495602,14.997738083990962
-1.4,-0.2,2.1,6.790652167450055,0.21131185261963115,-2.5374382968566422,-0.1004825377599592,1.622294598004304,0.11858305384101901,-0.0917858818472581,1.2204498355450095,8.64819469136425,-12.476129887341543,13.805075493569584
-1.4,-0.2,2.1,6.790655511025285,0.04485608931473983,-2.537439526112273,-0.17863283261170632,1.6458173680537724,-0.6659782464737235,-0.6436001592085338,1.2316510482173384,3.28583926954326,15.883330426765937,18.5510262145922
-1.4,-0.2,2.1,6.7906528871338345,0.18834306364756248,-2.5374385614462724,-0.11130621671518046,1.6255837137991205,0.11161060813005033,0.18530271358037342,1.229764743318623,-6.4581784461275795,-8.035666955366008,10.275265096999167
-1.4,-0.2,2.1,6.790653141749257,0.17951510524294,-2.5374386550549133,-0.11536424956240235,1.626843693351002,0.005130496946626619,-0.26592529865709835,1.2268742988360806,5.357409940386187,3.594578277334822,15.111022215660451
-1.4,-0.2,2.1,6.790655088495221,0.08602117784688668,-2.5374393707702936,-0.15931269103897797,1.6400669285011804,0.2607321800903884,-0.3739259931005799,1.2248458090717866,18.508639653807656,7.626904551477015,19.45355146706777
-1.4,-0.2,2.1,6.790652744597878,0.19310902796679352,-2.537438509043284,-0.10897235772044385,1.6249007349758497,-1.0274618960394968,-0.2319022269388337,1.2289567045914056,-2.446667367047496,5.99633000225402,17.661101335633678
-1.4,-0.2,2.1,6.790649020151847,0.29121468241481985,-2.5374371397617423,-0.06235611565789273,1.610742611823536,0.1869519649197634,-0.16458666871973146,1.2215806345867717,3.744098099846429,-0.4477221440912338,11.544894002697625
-1.4,-0.2,2.1,6.790652809574489,0.19095115226701376,-2.5374385329318017,-0.11003143563818416,1.625209229755356,-0.08263226814444324,0.0954958685748211,1.2208618585855435,3.746413762808274,-14.713051331339564,14.949861992818905
-1.4,-0.2,2.1,6.790653671366993,0.1595966834940099,-2.5374388497673195,-0.12474450377593815,1.6296793376638643,-0.3248406030061643,0.1462453757016449,1.2262440253003744,-13.139477393504633,9.015127858105785,11.744708428591723
-1.4,-0.2,2.1,6.790651193350641,0.23891137020119357,-2.537437938731806,-0.08755931437612036,1.618323422753373,0.27703943314915563,-0.26665154838273375,1.2234587245939046,8.928076293838494,13.03762689284342,11.094126766249824
-1.4,-0.2,2.1,6.790655387124129,0.05993223279691762,-2.5374394805603373,-0.17153550864975264,1.6437159094901563,-0.1611053646640209,0.12672381043370537,1.2258845876433522,-6.302380178109658,-8.900710173411742,10.48400234593894
-1.4,-0.2,2.1,6.790655426750085,0.05555734640050547,-2.537439495128737,-0.17368005263477468,1.644328307717009,0.6451588602401456,-0.2958158926559524,1.2280575430296747,17.084933142856784,1.846366099761937,14.209054599377318
-1.4,-0.2,2.1,6.790650461517114,0.2577113209792503,-2.5374376696754553,-0.07872416176165686,1.6156070734736239,-0.9567958280274269,-0.22722466864743948,1.2270594749517492,-2.9705090191943917,6.182707712712027,17.909714951470953
-1.4,-0.2,2.1,6.790653042255137,0.18301540063057065,-2.5374386184761732,-0.11376530902772734,1.6263454697876911,-0.29439517469485155,0.3095453533896496,1.2249404272475146,-11.47152619149371,-18.87709569844474,11.01782791833392
-1.4,-0.2,2.1,6.790655514832533,0.04431167417908055,-2.5374395275120065,-0.17890358737831605,1.6458938324598367,0.5131563287387685,-0.3265335136614929,1.2222260101659115,17.266594920134956,2.314327892959234,15.928697900763892
-1.4,-0.2,2.1,6.790653058614318,0.18244448008419845,-2.5374386244905622,-0.1140837573909761,1.6264261169541347,0.22654028026100279,-0.2547021765178325,1.2283853072879598,19.443023381117,1.9986210202157686,18.263740527978833
-1.4,-0.2,2.1,6.790655393241369,0.05927793766124623,-2.5374394828093116,-0.1718734619701645,1.6438085516927186,0.3634223099492428,-0.35533172541046293,1.2267054014651402,16.682892020835027,-3.0454586052359716,17.205477765874782
-1.4,-0.2,2.1,6.790653401653888,0.17003199758631515,-2.5374387506080254,-0.11989209404855254,1.6281957313667808,-0.08980010413796219,-0.3282099738470343,1.231085576819632,11.94441984484677,-1.20660273257538,19.461652810299128
-1.4,-0.2,2.1,6.790652889511772,0.1882625303709018,-2.537438562320453,-0.11129016169730317,1.6255946368826248,0.06719708682869265,0.020193396744273662,1.2258081725593362,5.565527031591984,-10.17735072809951,14.75793632835889
-1.4,-0.2,2.1,6.790544529650155,-0.29005224427445464,-2.79316279247368,-0.3376315643181054,1.7260120952477198,-0.32461491569884077,-0.30430436033621333,1.2252357918193775,-0.9736608547479939,2.6631392134191536,11.697324085754307
-1.4,-0.2,2.1,6.790785239419872,-0.19001107334446043,-2.175797155182977,-0.2871367103529091,1.6284815899044578,0.5830266905042645,-0.4226423246287721,1.2233758971752529,12.207322391254408,18.76888129349095,10.98272609217412
-1.4,-0.2,2.1,6.7905632471392074,-0.16403345968668326,-2.759468512658465,-0.27724643857741527,1.7040598390250503,0.17883916888849322,-0.5040435313655992,1.2202302415787867,15.953479999404507,15.297351176665245,17.408219242943616
-1.4,-0.2,2.1,6.7906188423969915,-0.07712227114961001,-2.6288106031624636,-0.2356858939181326,1.674664918094142,-0.044394783407100256,-0.20695970356026627,1.2253837277083661,3.41955837161634,-6.556948173689477,14.100054836082034
-1.4,-0.2,2.1,6.790479533564788,-0.14918930276425435,-2.952915362904349,-0.27139249743693805,1.727818485069827,0.45121935368012506,-0.4061006047713746,1.22170600124105,19.335795727005767,-19.284565647516313,17.289524897490047
-1.4,-0.2,2.1,6.790804365651137,-0.06794052931258454,-2.1264602051553894,-0.2285924338043026,1.6062734395958977,-1.0899062222446323,0.1966308848012397,1.22455987022022,-8.886064544685098,-3.1741272511253698,15.43438960465162
-1.4,-0.2,2.1,6.790812674437436,-0.022568144842696203,-2.102382138390979,-0.20717870787021453,1.5972102852747951,-0.09787671401230348,-0.4653534056304809,1.2280984371622503,1.3624693062042113,10.129227191367427,13.652278766966063
-1.4,-0.2,2.1,6.790660449520232,-0.08114820202106632,-2.5238815426601846,-0.23704980424299887,1.661315858055957,0.4200233124325847,-0.31888267515651686,1.2259377940554124,6.217070146858767,-7.553722461718566,10.359292983939618
-1.4,-0.2,2.1,6.790612530511577,-0.08424167577850694,-2.644164825507964,-0.2391515281514368,1.6776787700588498,-1.227488511373831,0.1980669787180591,1.2242645568690325,0.05870950848556333,-9.098062003784605,19.95160791745169
