sakibchowdhury131/TennisPlayerBot/working_dir/updated_sim_env/hitting_velocity_simulation_data.csv
ball_init_position_x,ball_init_position_y,ball_init_position_z,estimated_init_vel_x,estimated_init_vel_y,estimated_init_vel_z,goal_position_y,goal_position_z,distance_ball_robot,table_hit_point_x,table_hit_point_y,table_hit_point_z,paddle_hitting_vel_joint3,paddle_hitting_vel_joint4,paddle_hitting_vel_joint5
-1.7420689604713928,-0.3404966221543937,2.2553617262158845,4.459207813760955,0.0032935904318653897,-0.6568189997871698,-0.3778284570651452,1.1074679525366369,3.445340354929525,,,,24.019114712107793,22.653855745058305,-12.873347136583336
-1.9288546244957216,0.4143132454274374,2.2096924540127496,6.068249756087489,-0.23995135653148036,-1.41490155664858,0.2655073436789575,1.4399147285056015,3.63212601895287,0.9188432434757943,0.19047230918764557,1.2241868333873824,7.651671999810303,18.14152663110011,6.150557601133989
-1.481400087620648,0.27409607665078883,2.358023702406984,4.8951111721634355,-0.1227466223083784,0.6913380190809093,0.2009994821127311,1.5817885224589774,3.1850873341581307,,,,14.666918216387355,19.476006348975805,-19.04662366993345
-1.4002466990694795,-0.26069112092491287,2.0102574461944402,7.303091459212272,0.285705876961484,-0.2272565089729639,-0.12167286375436115,1.256956624113744,3.104333617769307,,,,-19.89717991899903,-20.806967577543418,-10.70200067145954
-1.3670590482372686,0.00020454072934117384,1.791591144552932,4.9757600709341965,-0.10628354503758237,-1.4352696021976818,-0.08274798180927674,1.1931325349220143,3.071145966937096,,,,17.886452980381073,-7.496100800418706,-20.07968611422245
-1.204802046112972,0.3928183170080878,1.7369040394499031,7.487725822883551,-0.0651050304938483,-2.7435860473039497,0.3583703920966684,1.5230543471880216,2.908888964869327,0.5389814055750557,0.5715441741111602,1.2282311390349432,12.55951614741485,-21.24591071689256,5.682797997929413
-1.9844835204958016,-0.2006655375217341,1.7933365522237534,6.72734231326336,-0.3474438780632938,-1.2198919266248431,-0.3964355827198597,1.3243662874098947,3.6887852549469784,1.1082016649003517,-0.3834007863139992,1.2226251180653118,24.283179692049863,-5.464556845081147,10.406212054741562
-1.5239860734460688,-0.20317623344604618,1.7483739622464933,6.824305954346652,-0.0007712587160790818,-1.6127469013295936,-0.2037360245872122,1.3152651134030322,3.227271171839532,0.7666934375587106,-0.06930616039248587,1.2279261341754624,-0.056397453055377154,-8.859171270526572,24.805724412707637
-1.3587979686854026,0.43830749848941497,2.3458819248781064,6.755053809449798,-0.449158236405629,-0.47071221664133134,0.2361326927685785,1.3408328813741066,3.062225521480776,1.1547173436993006,0.2530737377930086,1.2323791920176985,9.355596733937464,5.7362978512855,-22.027838273024482
-1.642158841120008,-0.1755050286670068,2.252204273305982,7.002974241468873,0.18480628031687152,-1.7568128450645304,-0.07826125557300544,1.569125002980987,3.3462961209462265,1.0538096185463757,-0.0887831671289763,1.2320576153570775,-24.385708321102225,8.53535322285351,-20.736633095691072
-1.0449395701276416,-0.22969551061205773,2.101873388536402,6.671936916569585,-0.49183291461476486,-2.5883205051194125,-0.4342617302109184,1.6867514705900066,2.748523658078608,-0.12954796068664814,-0.6735749302454754,1.223064810346165,16.251342134942334,15.420116293248382,23.249774315431118
-1.0708263882093467,0.37369173066114536,2.387675564698773,5.650920119889271,0.14505595860821785,-1.9427181666968707,0.451223090094662,1.7313952675465407,2.7740819709729427,,,,10.81357458799749,2.099640475797715,24.30885010661232
-1.9894493233229373,0.2576078839967366,2.453706947085033,7.067945888809799,0.4166075420325166,-0.44489001277135287,0.48354000249254425,1.4992316346106322,3.6938429594212545,,,,19.98599987426481,-11.610794703828475,-4.258938290463921
-1.5500615566778935,-0.00960242110278664,1.875097326348375,6.027617558384932,-0.08510874307887342,-1.4401784120079952,-0.057624565410615655,1.197696596315928,3.2535578793188025,,,,-20.545967764606342,-5.688362795277071,3.4691674620704602
-1.083451746768719,-0.0437130161214907,1.5183506140440932,6.5308807441789085,0.4980212299604897,-1.4984918984716167,0.16083930152967058,1.2715348041398338,2.786948069409628,,,,11.904648241410685,2.403605685729959,-7.11097296175247
-1.4510618541244868,0.40703043841740116,2.0065357540129845,7.051294177348737,-0.3302911590957036,-0.8153912743003033,0.25680009738834264,1.5046262016612624,3.15455817676081,,,,-16.164182445599142,7.651995900479323,19.123118482383774
-1.9498706953580327,-0.17716957805333167,2.0185022592690554,4.6856137206549064,-0.09279434989895474,0.8259665822737361,-0.27973912981548815,0.9998142777487768,3.6539209769305794,,,,-7.269825464362763,19.588784121666954,9.295034370628242
-1.1001815119772385,0.009059716353325253,2.3987788210816916,4.25653814166937,0.06800433560534683,-2.420108653326416,0.020501060058850107,0.9037262604578866,2.804231799944662,,,,-6.746382677242641,21.015302902053126,-14.269080350991109
-1.7813563130606394,-0.40444308265926865,2.4144486421457643,7.039361988347714,0.09168167325940946,-1.9333576671041541,-0.3560173516478327,1.726139803732553,3.4854063855072894,,,,-24.79626697990492,-25.89794175530206,-10.497146933026551
-1.8346965199593743,-0.3962022856516494,2.27833074792648,7.310993192554633,0.43510452457534043,-0.41968931386865194,-0.16655991204068835,1.3638988989737535,3.537987827223775,1.349220806831248,-0.3254672316494874,1.2266518859066562,-0.6721032777032994,-3.2274878325856227,-6.923844145308037
-1.9202268735942063,0.48955048289979985,2.254684134486943,5.071032019230568,0.2940157633860174,-0.4152778801591239,0.6783163864486501,1.1875469113975359,3.6236936067149346,,,,18.93998757676903,-15.332251983215867,5.47240364481994
-1.2120505691091994,0.10542700293860918,2.235868725578804,5.126563886869366,0.3546183356744437,-1.4394414957996204,0.29982652876892624,1.544335526074367,2.915517302229924,0.47252402630322915,-0.2260864548214237,1.2248942106925569,24.227534404408708,-18.94626869940295,9.530753667168781
-1.667321642488042,-0.043187730207370434,1.8701563767647797,5.40751311339978,-0.41338466548545727,-0.24285542842312324,-0.3133262336465379,1.1832017101513133,3.3709664214873793,,,,-23.18207488280231,-15.83858597793114,19.04023191334576
-1.4109870630610089,-0.06004304599024868,1.5142826655349257,6.510331956916424,-0.3380070538342894,-1.6074209296915853,-0.22676129106164505,1.0477239370859033,3.1146318420603416,,,,10.113167734893056,-11.425327222257101,18.414146530484665
-1.550263050789658,-0.34062540602506286,1.769160987778555,6.561410286449991,-0.22893058330796023,-0.19001463290722498,-0.4572231975191487,1.4494879332252546,3.253907829806784,,,,-14.952021231176916,-2.0554155880835316,-18.423728279043896
-1.9006051861813873,0.19748609986528198,2.047803724418885,6.089682098034164,-0.12556291716245616,-2.54482038146989,0.08991769400776899,1.0032461784244364,3.603859452032964,,,,3.0890286013462047,11.716683736951563,20.488162063494958
-1.7782843104597181,-0.3301596752077909,2.2950299762547273,7.026847029043957,0.415907072305961,0.011184752098039041,-0.10195968054218016,1.2582995110865545,3.4815385763112947,,,,1.965409583249036,20.404263564829964,-22.39847178948081
-1.6198695186083545,-0.39399022803206596,2.3935349219028765,4.291566684486003,-0.21726382531764177,-1.607291623819549,-0.6212235074142668,1.1103379743388064,3.3231237844657446,,,,-4.493164819180882,18.409224222110446,-14.116732454232324
-1.1331061120492048,0.44577364771072037,1.948270885414205,4.650884260170667,-0.13450067311997493,-2.609398435379635,0.3260190940135387,1.2963498357530314,2.836360377912409,,,,14.081066346230616,-12.146872135471169,-6.338274390356062
-1.1624409078377413,-0.014989925249786484,2.2033961783108515,4.042616632527807,-0.4321879265201911,-0.7068139858183642,-0.3466258813892159,0.956130794036619,2.8656951737067593,,,,-2.3998980075963656,15.646150685637938,-2.638761842574421
-1.3198700927572151,0.11401109010150223,2.4113033731977156,5.3884096606756415,0.06837385390372042,-0.11520267918104565,0.15837803879864054,1.5507135014024913,3.023124358632047,,,,-6.330047664623886,10.653092253624626,-8.470478526044477
-1.487473715836034,0.26658740324493313,1.9335286679710935,7.71954371913667,-0.04267416956821979,0.0489482390008078,0.24894235441594523,1.3061306471877998,3.1913072611490563,,,,3.0170173518393386,7.436491979591935,-0.45493362609823845
-1.9006511304078058,0.3821865181586521,1.712963890734664,7.858377414915534,-0.44671871374610816,0.11733959480555001,0.17315133813402767,1.4126137166901696,3.6048032772305385,-1.898293059329537,-1.5074920680611756,1.2282203146223802,10.71512236872822,-1.0103855382747613,14.190961355256478
-1.2453983530926203,0.4869132366199247,2.4413685684685325,4.762229680868693,-0.45964398399328754,0.6181912844133208,0.20930751918960766,1.463230970809901,2.9494371963122195,1.1170369773341131,0.27908163216422566,1.2228435136357623,-0.802742630455156,-22.08640206226998,-22.311993227871913
-1.9312294541952606,0.184108639668627,2.4713419183720466,5.031093426941329,-0.3917974155519599,0.36526504179082764,-0.09572176065420962,1.4651613767042895,3.6353292452386294,1.1776087718493147,-0.2950272985830313,1.2319712469772122,-13.725724304160773,-0.6838593608928798,-6.594169258989908
-1.1999341401697685,0.397625937533179,2.4213545332055886,6.846360957185933,0.39588038445173,-0.12286048219419143,0.5778916781932557,0.9634859965555826,2.904232971292112,,,,-0.362135866531079,24.20116464454672,25.79649022692722
-1.8769811513607029,0.44763330997349093,1.8406695267796116,6.4131198199931205,0.43665544331184414,-0.6428294576284443,0.6920066053937782,1.393718304388923,3.581279982483048,,,,3.242606835432829,18.212190170276116,-18.98262630859895
-1.8132387614550294,-0.21441855825738376,2.217619662777507,5.919993582168495,-0.47820629368104495,0.7161883141769465,-0.49190675533705164,1.4289198825610046,3.5166459408887336,,,,6.829460467606274,-12.619786363615331,6.03760229294569
-1.4034452941701043,-0.3303912999340961,1.929478121667727,4.341556354971754,-0.04551484555773477,-2.426449150745782,-0.43715093285412276,0.9210548291220952,3.1066890990129608,,,,-4.268520391481105,-0.7675355626417971,0.8116238129139702
-1.0431140947626734,0.48523843231655617,1.5876473896886079,4.843547230369971,-0.36931669355077634,-1.3614657728015978,0.2633821045012274,1.3058435911251538,2.74635789960553,1.0790983172620123,0.31359276634022976,1.1967890126310472,-22.053460122316114,-24.57057883190608,-1.4584019747321713
-1.3260381005017285,-0.4562562313469577,2.4793097455493505,4.256967979708133,-0.30038789081940465,-1.3210370986314146,-0.7062666784778046,1.1872351304956967,3.0302133204743145,,,,-1.7439913010892882,-5.28968486864808,-22.31460148602595
-1.5554135519887167,-0.25954518189571685,1.7642285796855226,7.305042086932314,0.3881692246750834,-0.23766555676019152,-0.07415216981279649,1.3144588687222882,3.2595887719613224,,,,-15.859057228412983,18.775838664683967,-13.171251767076406
-1.1502271293991573,0.06019105497573918,1.9004397240404791,5.767962951031578,0.36061862819545876,-0.6358954850047382,0.24032473117586334,1.4867274481306874,2.854482928726039,1.0737347706654317,0.14288285996329536,1.2251532343739704,-14.293150059036508,-24.650086838259345,-24.251884406436638
-1.7459959844522384,-0.47266576792183024,1.8871288783941629,6.41246116250116,-0.018799302370222648,-2.2810460760619478,-0.5082933693977683,1.2478513224179935,3.450143507166064,,,,-18.678838925894897,16.590921720048456,-9.11606500429618
-1.8733492584302778,0.3587012670372506,1.9282425146714597,7.785370324027152,0.2429748196857595,-1.549214775139589,0.4660251416684629,1.536142135669351,3.5774967811441036,1.0688921423455748,0.5027129581117762,1.2279153061372514,-15.199200580288597,4.215652881931952,7.182257919270943
-1.4669227841739816,-0.4383934481956847,2.4452817910097773,4.104779599593655,0.2527899175766146,-1.679975004177443,-0.29684287055690894,1.0673361417076213,3.171326616356255,,,,-5.27970915511484,-25.636896388054367,5.660114346734659
-1.968132319677332,0.29883936404361944,2.4255598976650767,5.2069438034792626,0.29359463788707796,-1.7311352895373489,0.46433976707653624,1.1228306843836968,3.672536151859606,,,,-11.80261455785636,-18.38754590147815,-17.71894039094314
-1.3569692134806246,-0.4603704855163695,1.5355298276152813,6.006678328791821,0.000432570823627465,0.010543094344388493,-0.4670339641283884,1.3343932815253186,3.0613730456625525,-2.981569654729414,0.20594615290641013,1.2263523932258913,-26.156646786936207,-10.041504948254245,15.348635666981341
-1.097933633674328,-0.048590267714446744,1.5888289354779574,6.103434864209536,0.3019978781780619,-2.2358619307047967,0.0809922002174317,1.316069142738239,2.8011894609485557,0.9936265330815623,0.13974090087640897,1.2279283412087703,-11.043253818063963,-17.556026758565938,3.789340921748805
-1.7877594345177268,0.41282620726625485,1.8636146219158687,6.862335664551171,0.026408395883654734,-0.3167802520501084,0.4265511505976835,1.4548116536788727,3.4916328465063273,0.858188460452604,0.4805285340304767,1.2278325616316843,16.31137115403272,-23.772256643686042,-11.319814511936775
-1.264603489806985,0.2742590369373926,1.702494489171839,7.388328388344583,-0.4797784451041309,-2.647022141631936,0.075116206125003,1.4350515485689999,2.9681396635505344,,,,24.05670781301618,-14.675841561002155,-16.399038161699135
-1.4064374706816358,-0.3679760509586224,2.240787913487318,6.890833178993265,-0.2860492905093226,-0.45990095688328125,-0.48889124712347976,1.3525671294747523,3.110415152664668,,,,5.205639639509607,9.13126742137872,-7.015324133099398
-1.2053055343121013,-0.4740825819204516,2.246285098699689,7.1980989960412245,0.028795720475467412,-0.8575893233708953,-0.4501515514838476,1.2956427942999722,2.9085532599116215,,,,18.83551360610072,-19.370742185303396,22.622538483137816
-1.1055586348755466,0.3606414599733532,2.384356826606248,5.083250013015377,-0.2278016961594398,0.9297769855997373,0.24066406335528773,1.0997756272464179,2.8088063604750673,,,,-8.258218424126646,9.356239323436249,-2.119764768378635
-1.9544910743991806,0.11554109962998971,2.270642392501862,4.2154147227300065,0.21646370966687756,0.5736495966140964,0.25970830414781,0.9995516953913324,3.6577387999973694,,,,18.840096774964305,-1.0831074687411,-8.968517145395133
-1.0900332711017402,-0.284213426773845,2.0192038785450936,4.518335036518817,-0.48502479497136264,-2.171175839981103,-0.6219709123895365,1.1669000421629057,2.793280996698459,,,,-22.67048585112333,-20.220558513566548,-0.14917683468954973
-1.3923962475352778,0.4851303816494943,2.20626369573361,6.623982989791575,-0.4823762789606434,-2.609503300435314,0.2573291024011124,1.7246977784325654,3.095643973130512,1.0334637477387643,0.2630265379798271,1.23259206587008,-3.7082910190313516,-2.184011386031934,1.1166465755060593
-1.4285860240366306,-0.3576488862781333,1.5263682551822282,6.885395855400933,-0.031116631558054664,-2.0257723475104505,-0.38119668898423287,1.1847379307251769,3.132759138231518,,,,6.579103582721709,13.187564367230863,-15.010325991035701
-1.9583365171776506,-0.051514784583912454,1.856352104861468,6.341740362954944,-0.18579037143855504,-2.3035977914779515,-0.17923877064406432,1.0027839457379981,3.6625096313725374,,,,-4.098162781891588,8.939330704754457,-20.881640627993207
-1.7938389584937415,0.293647257965837,1.5287939108489788,4.569024086494089,0.4106643002454202,-2.87795359749639,0.5227195711058612,0.4781312648171523,3.4980120727000785,,,,10.914870532223421,-19.652355053714963,18.70287706353879
-1.5288729204566263,-0.249812835943805,1.8337853377291056,6.934758411022113,0.009697780371928921,0.4003128838148129,-0.2376978789561581,1.3208210829601108,3.2330460346744143,1.059720880113452,-0.2580479926103908,1.2267402836985555,9.226589860634823,11.946739129064818,-5.137288210944049
-1.3125356937171822,-0.4328397950552283,2.1478917211146795,5.696919365321964,0.3244187323215142,-0.460308707572068,-0.25282236997820595,1.5425208583832737,3.0159286469534896,-1.3385960166927116,0.10536986982340375,1.222446567216838,-10.988281676432276,-1.1592644560544119,18.641065401671572
-1.214285664443211,-0.10244663517544639,2.1336747739068285,4.3715796182595135,-0.14615470476773362,0.5796708456440314,-0.21002390688752984,1.4019062904803543,2.9176538546046062,0.513564629011341,-0.08926633281235716,1.2244165582416033,-21.045474650642635,1.9820929806460583,-0.14406491591522116
-1.9342549235497675,-0.296211807306171,1.8702505927373645,4.639146400013914,0.3681147454098932,0.15781665790491672,-0.055443911485313246,1.0760077203897336,3.6376701499170596,,,,-24.368186377427932,20.99967550998151,-2.122434935661062
-1.4118250914259716,-0.38886396057343875,1.930779122417162,4.843913839355167,0.19364770193468495,-2.5276077688661225,-0.3161305910584781,1.2038174677890057,3.115240317793264,,,,12.33213104527485,3.3365779720577216,-7.092966915918021
-1.6672626666769743,0.05622590658880988,1.6053834600975434,5.989434674465581,-0.44404684985411724,0.9545771627140098,-0.1943295628754648,1.3202943038075083,3.3706778930957824,0.4913886064607131,-0.03735070994922354,1.2254887462637942,-16.534061780808113,-12.521163136420952,4.495395989717155
-1.5167282054975753,-0.2775913449880404,2.1386776843747564,7.867060485157769,0.19582755676953667,-1.1555613592157243,-0.1839578443036638,1.3699281412653341,3.220165531245981,1.0293062268400195,-0.12239710516459944,1.2285092866913694,6.1564173190270886,9.154537244843564,-24.723624340219523
-1.0454686291721378,0.057362227896986084,1.7871297220322762,4.425115453561457,0.04131961704206322,-2.4934743178993024,0.04346379108014445,1.0544214906357654,2.748914602057285,,,,-20.059260563471888,3.713664980255411,13.840187943881771
-1.7372138688967271,-0.4603392646639177,2.0778327463537747,4.735417007604266,-0.054845836020045446,-2.9660310095648157,-0.5990619651526058,1.1052298515710164,3.4406598417818746,,,,-20.198925342125243,-2.727908108418067,7.430241205878878
-1.0359041832193625,-0.3236702632374606,1.894093703306351,7.040739565317864,-0.4827592926411217,-2.3737435353444525,-0.5186173527730459,1.6269984504436847,2.739350156137002,1.1140880687661305,-0.5119666945403278,1.2229973718710676,-0.04161389119963842,6.362320578820982,-4.3902641647768945
-1.3724796867149356,-0.17836709253601002,2.3660355311548926,6.119100239003483,-0.3971939805306679,0.5901359117827099,-0.3628363873905778,1.0326102132465893,3.075709651835698,,,,-17.541699999525548,20.16938001580589,21.377266578704145
-1.8395984798170808,0.20213892301007352,1.7228714559486757,7.158734992629743,-0.4584672835024084,-0.25188753124121277,-0.020298284173389552,1.2937887429905512,3.5428284449378427,,,,-12.615926199339667,8.967357416896391,-3.2851078545934196
-1.1965570444820575,0.19807960635251953,1.8816913698356879,7.81027621054772,-0.14290388991383463,-2.5589784696356865,0.13702157899679684,1.6226083677518517,2.8997870095907228,,,,-23.822961915918935,-1.2760319829859197,-2.6167406447636727
-1.0735868490652143,-0.21850854087256855,1.8417657093414703,6.710842999035318,0.3102472424890679,-2.4107739795632277,-0.0869540497987509,1.4476994284388944,2.777455451776212,1.082261757950674,-0.2870551366797984,1.2318110503367017,-23.45156467431197,-19.643409914073324,13.52458813612403
-1.2897108330274136,0.23287091317825614,2.099789690733445,4.451633885583686,-0.09901781637372542,-3.004435535870158,0.1009789938054032,1.1928647038702165,2.9939937635436435,,,,-16.142789375036628,20.462374270777204,-19.606671188495586
-1.5839174743816375,0.2437873651558492,2.1870130209290934,5.534444684122395,0.27601657500674337,-0.03615663685838655,0.4099911286127049,1.6015833853060832,3.2882004048989613,,,,24.83796703512458,3.0960881360268546,-17.925024925358017
-1.9864712989210314,0.4681165790211388,1.9096505605490575,6.169816536051886,0.01905171150737406,-0.11688357975193853,0.478310878331643,1.4180620613257466,3.6908272792392274,0.29627903175826503,0.660437314381486,1.2252079631147599,-1.4815328336063638,-6.965088121853622,18.365459668347174
-1.6317528522632072,0.21817055092780513,1.6908390961884612,4.160538005182186,-0.07848914647577532,-1.3106691473005583,0.08938728327763423,0.6032979618298204,3.3352566775797174,,,,1.566268744540958,-6.735590414092534,-20.21520915193184
-1.1018610403891458,-0.46832706451797834,2.037204817931099,6.601824626741664,0.4043006926069159,-0.8958266704252082,-0.28753177435366106,1.4241399003315685,2.8053648657056565,,,,0.6427672202464366,-0.7906456032578971,12.995081022520626
-1.182163964284479,0.12999191985526615,1.6756369044699628,5.5258513693381595,0.056922661651495066,-0.7020500622044779,0.15483417254481888,1.2909264151468807,2.8855091309556675,,,,1.8221551928776791,24.63198677195492,5.69466943260815
-1.0836133796131209,0.29741570701893905,1.9762751083238765,5.962709494170291,0.307371978956823,0.0668606416543227,0.442752478987473,1.3770259939583427,2.786958546284309,,,,-6.098626013657204,20.205303008156115,8.725723675549764
-1.3100784920606579,-0.4444228886167617,2.4088584163338917,6.365445020386726,0.4249490411472756,-0.7438493591875073,-0.22568271075254487,1.3661959549093887,3.0136081269400483,,,,-9.250718522108599,15.850695540728166,3.2521166153509014
-1.1976112586911558,0.44017771366710456,1.7595610148073273,7.308318359605952,0.1616252064387158,-2.8703755782420437,0.49521259830553543,1.5147632476411104,2.9009696475932882,1.2194345824425303,-0.2409727372002262,1.2296054352357855,-7.2899770322129624,11.58429118673402,2.6028664158284154
-1.922220236141977,-0.2693799376510607,1.7233900421452544,4.129690366980281,-0.16126366468157016,-0.3192192202784483,-0.48760918467339487,0.6465965197771921,3.625709193030466,,,,7.8114441221277655,17.24762975858147,10.395847102357955
-1.8601800651615106,-0.029206276293793132,2.1880313425300026,7.746733717594907,-0.17080521284274813,-2.8677156080949118,-0.1085322834311053,1.6641600848989717,3.5636690220499614,,,,18.02480728854119,5.049374197842036,3.3769671910624273
-1.1013731865776673,0.01096840534301513,1.8145871406423941,4.821677894091216,-0.15504040860412363,-0.5973225258824755,-0.08994178486295903,1.0951458034112715,2.804908251687289,,,,3.2186214242168756,-0.6004282349743506,-8.46032288554824
-1.0358271575879971,0.050923299004812406,2.4977115018206586,7.270273452913312,0.15021498581064552,-2.4322532601344093,0.11139209936796098,1.5249240569305087,2.7393622226976184,,,,-11.078999952982672,-15.98318324708197,2.4884149093513286
-1.2876469837121776,-0.014248417978018568,2.148636381084532,4.452501546007461,-0.450409373156061,-2.3917800439357606,-0.3687189518390414,1.2226536062594184,2.99155937823315,,,,-25.18819374158939,0.1560332568445734,3.6126750087055814
-1.9458772663190627,-0.09767995296998255,2.0969966701186924,6.5195064112259615,0.39629085231277394,0.6054764205510565,0.13029621834076727,1.4472934973040792,3.6497896608400353,,,,8.076557947400365,11.22125853957004,-4.9648042866605335
-1.473816166684521,-0.39734254564779226,2.135157964416111,4.381067019245037,-0.4933331661954643,0.36120267568076514,-0.7843277589340918,1.2943819778059453,3.1777811323992924,,,,16.90795278047598,-4.8986968684314105,-23.307660062223608
-1.27895780357834,0.3941778006174399,1.913376319153002,7.601923295261681,-0.29080382312439035,-0.8844482212287019,0.275532931621574,1.454076033327965,2.9829227692931113,,,,2.809218367556458,20.895289622018336,14.195347365079018
-1.3246889319604827,-0.40993461045225543,1.572390938646957,6.410744225282521,0.08392039570879195,-2.6657140259700363,-0.3917127180278492,1.2308819430791342,3.0283641434358235,,,,22.951496229410516,-24.248349941274512,0.36684487061519105
-1.7303937489866978,0.08783900120674437,2.1801772683192837,5.306942691639431,0.10734105068786581,0.8878619698684176,0.15908654025380228,1.5312895369311672,3.4340689604620387,,,,-4.165521607427544,13.957202412259935,8.109977835497657
-1.2804372040800858,0.13886487968450556,2.017981435583417,6.158564210093687,-0.14105453670823387,-0.527697579034232,0.07656148200531217,1.4506034658792795,2.984269895848957,0.7600217786998762,-0.008131410668412243,1.2299205212719515,11.540584770441571,-0.8241952525310814,1.119258314355315
-1.3142120994681314,0.2520350855550967,1.7968470530351142,7.326651826220072,-0.29157839467875313,-0.8307463017971095,0.12665543497671813,1.4649800818732086,3.018187525606748,,,,25.016526932020113,15.618264827446774,4.985914468975587
-1.096305007047518,0.31703553113628713,1.6721006040981656,4.858578891807035,0.06189590749640317,-2.7757070604973855,0.32050693172325173,1.214809352720919,2.8002623421372714,,,,-20.398656443913982,21.219702910638496,0.800637805835647
-1.1945602682690835,-0.18411815458923353,1.5576940314577943,6.735564374593643,-0.46571088080852086,0.17027121322904293,-0.3915520131911356,1.365502148017893,2.898517603358837,-0.5698881666489845,0.4675665801960333,1.2235731316392362,-8.555899360381348,0.8905288229192908,24.67049094360213
-1.2440790603815337,0.08716043337808388,2.4731497228352,6.7939862094500825,-0.445756786584417,0.31192136565341144,-0.08041417436094975,0.7068823633332104,2.947364267834847,,,,22.61811733803467,-10.39043118004537,19.61762563194984
-1.8284828423916077,-0.23272372616002146,2.4539214962953864,4.014516195315103,0.23167644597129833,-1.3290306858041845,-0.11041318843110001,0.9284707927578602,3.531768049844654,,,,-6.08679562418498,-8.083562011705801,10.16925532758516
-1.897602222653005,-0.2808369712344536,2.31803397731849,4.758833057086669,-0.07279227740665917,-2.3145995015036647,-0.41687483438640244,1.1772523407216093,3.6008874301996068,,,,23.97858237813308,8.295374148586735,-11.435792060980422
-1.633107040930733,0.21966494176044338,1.5667809085892683,5.615762519292282,-0.40008427858736484,-2.455485699205191,-0.047868322551842785,1.128943846071963,3.336392248570972,,,,-8.031276784502596,-25.554584249152775,-20.618510919373094
-1.9168407367788363,0.4064123990257238,2.1733412276539195,5.032234907529141,0.3035623517505126,0.8708476217030636,0.6106635697463603,1.4419233581236677,3.6201259445127043,1.0794131384826047,0.539371990575936,1.2304385629945316,7.649541292366961,6.8174257964084015,-23.915301872534975
-1.607587539434042,0.2558265255961888,1.5474945127620798,4.495076075246267,-0.3903475806882817,-2.9615076805820273,-0.12955958211334306,0.5560831208362513,3.3120831178467105,,,,19.78646614263696,20.13257438129912,-10.674278525542398
-1.2690660018165971,-0.1694530091768196,1.8515043471007884,5.166319904615229,0.008034178805997882,-2.8131046692395323,-0.19863466938854246,1.1804355943842229,2.9735615802292656,,,,7.347279413553688,17.111074121922044,-22.319420848224723
-1.3345862121611154,0.07266594120587999,2.4206233283947003,4.9724308680681695,0.29463623633999014,-1.2627925699692355,0.24553467985124527,1.5995459308339237,3.039081790574184,1.2930382840870815,-0.06683394599290327,1.2284752215449577,0.039356737616933285,4.261271355583238,-6.311584856396622
-1.3960667303416547,0.33182778859087547,2.3515298109125977,7.927019602897598,-0.32058300912909843,-1.8716011391104104,0.20765244858857276,1.5014161256751282,3.100223843926554,,,,4.613047566734199,11.67117556191267,21.294307425122806
-1.2898701743713783,-0.3298201054929495,1.5536149990484396,7.832540288131931,-0.37752675637716226,-1.6752219687674952,-0.48335833385179294,1.3816505595757922,2.993967294249927,1.0200357001876725,-0.4514663190402198,1.228688409904896,-19.54116441074413,-12.315496513686478,-16.816742258128976
-1.1474720504948492,-0.37733223027789964,2.2772359397772903,4.098949435595305,-0.09656992128011854,-2.5875692551653273,-0.5054680221385748,1.1705124364201782,2.8507203136072965,,,,23.117290621389895,-1.8286944425662957,-19.38784486403915
-1.2455371837491662,-0.2478520432277993,1.6331343606115145,5.927345158148736,0.22754265963972564,-2.702679157706296,-0.15589985273048784,0.9927831791882451,2.9487854468616135,,,,7.5931157805218765,5.521627742277426,-15.08696608631512
-1.9854501856720388,-0.032648001843482155,2.1351997113359786,7.334525193654571,-0.4944711346792585,-2.501740005306843,-0.284282668431719,1.632586279316866,3.688698448776832,1.0703933647509845,-0.32063079515633874,1.2290155927965771,20.23497233171514,7.246386545238358,2.655029851767334
-1.4451976459123028,0.004915198772904694,2.0760649784884064,7.129446585553598,0.10268074489837353,-0.6358931514415289,0.06184977410108971,1.3679925724129642,3.1485375192707226,1.0871637235450589,0.09288381195087761,1.22583999205457,22.6686686007001,-5.65667723083105,-2.4042792254366705
-1.7318214144732575,-0.24036209514379314,1.812763270659186,4.652816218385514,0.19577747799899958,-0.3458024894059619,-0.13783776760180158,1.0548818887277391,3.435659070804551,,,,10.999258921947929,16.742401889300425,-5.140628984380255
-1.758669282171658,-0.38265714674610796,2.026631801138737,5.489650407026598,-0.41267697945391646,-2.478600544733496,-0.6906282387845751,1.2362016568105059,3.462506938502953,,,,-2.2506502046901016,8.034737896608348,-12.857525605683906
-1.072278473963555,0.3809272448113832,1.6197203545505372,7.967001558678728,-0.28290376153095487,-1.547440342236257,0.2724679877050486,1.4394080746991134,2.7761161303213626,,,,18.063013708273342,23.896312841222883,25.76988313076469
-1.7157575053666514,0.4518548191106172,1.6345246217442209,6.893500243432005,0.48447041496193055,-1.7191207568142985,0.6827129338932759,1.206631232494798,3.4194361640064246,,,,6.823351127448369,0.5062711568397039,15.089725947122659
-1.8978511678992818,-0.4742731972607387,2.466532691099914,6.238149752163942,-0.02808566799723966,-2.163787215801527,-0.5096872631013798,1.7240159552645036,3.601529826539055,1.072254085176497,-0.47231161161817153,1.226038238920233,15.290479575257736,2.2317501848173396,9.974660485601873
-1.954916074560677,0.1677183861671585,2.177152298330717,5.8314539474924665,0.3317015823707159,-1.95219362899401,0.3489816493320431,1.0698620812530466,3.6581469096078534,,,,-16.307034174622725,-18.81673041247429,18.930019585821693
-1.594668304344061,0.2821447502904626,1.9682094867056068,7.744831516081536,-0.3731650453891211,-1.5241259841988253,0.11915122579695639,1.5560786397460633,3.2978991393912374,1.1831584769180612,0.16337971379298313,1.2275263814208903,13.159749549625364,-6.546376581725437,-21.93645287830715
-1.6140937791366863,0.0006788868504016277,2.1274079119813227,6.0396785399585085,-0.2328605666871058,-0.6512240748275744,-0.11872090791249842,1.5297832161811555,3.317992067275754,1.0607423911532763,-0.14035644424638563,1.2298506942009844,23.686836923886514,-11.42029767448238,-6.661360286002532
-1.8513206223932226,0.47563183325713654,1.7121557004127326,5.25872660620168,-0.27586769791368315,0.3483868625463593,0.27850411064397174,1.175570633594647,3.555660508675431,,,,13.510973484183145,21.083256036684162,-21.05258326143995
-1.6990434822092064,-0.3198361891531527,2.1139521289075747,5.987853240895724,0.18467342417064714,-0.6505629615331188,-0.21406983827687212,1.496991767653531,3.403383368491416,1.0799360884518088,-0.2355203572456976,1.2232961211276263,16.18539770912465,14.962173592717027,-3.627638777281999
-1.5850648230556201,-0.011758779982698253,2.074917515293693,6.797334457548274,-0.07083622486691449,-0.25433335120904843,-0.0319983947772326,1.3541116870218088,3.28847141520251,-0.16254011091416767,0.2303981660623921,1.228374901894579,-9.87431329408241,2.2618450942994355,15.618191661514889
-1.2449185782114074,-0.13957164269802314,1.7043677365744427,6.851655776019019,0.11386930032241338,-2.906160895514631,-0.0955409074222312,1.3926170946400132,2.9490987533783697,,,,1.2304682041201929,15.584054758621201,-19.147552243728747
-1.1608729212663116,-0.40949568187285745,1.8535919362700577,5.040746665914888,0.18694125119239402,0.4054402544654323,-0.3111257253709811,1.4050507164266863,2.865169950599064,1.1386506344227958,-0.3086323470190452,1.2300373750662044,-12.664968604137792,-23.92653481711581,-23.94533410599678
-1.842110583128181,-0.19818386674651833,1.9367419255110743,5.455284021079727,0.19430919849973582,-1.86251242999262,-0.10548225086666549,1.2378284084908762,3.5454400859469315,,,,-22.440865783714056,13.871938045629513,3.620270752616435
-1.6512538734144682,0.2950671079823671,1.764570135394242,4.733800300095918,-0.17742380064067476,0.11255511965076792,0.15026517421283084,1.2231996842576807,3.354583376233219,,,,-8.197574937648856,-3.2737154471793355,-17.559587839841875
-1.3787299369618002,0.10871087374167354,1.5491058591095719,7.829833587157591,-0.3116235429739367,-2.5240045549165657,-0.017859201966638455,1.1683579390905048,3.0820594397794916,,,,-11.407535802508283,-17.248291281270784,-14.49530904741004
-1.5120681448000595,-0.12888541315697621,2.2961011805721836,6.795828758613727,-0.3531928043497867,-1.944472635432497,-0.2918783563971519,1.6370851173823535,3.2153976476166912,-0.14834109165167103,-0.5359693598134373,1.22358466873016,13.756925330621403,23.03427233906163,19.916596265020928
-1.5720934195915168,0.18840879925991227,1.5647735164692407,6.918793656719195,-0.07614906977875258,-2.801019027072016,0.13721494307763224,1.2218916014885621,3.2754274234765424,,,,6.216179924110658,17.67904679037611,-26.157443046409732
-1.684039038199661,-0.06372489109251167,2.2291168985458074,6.526602205299135,0.031073605410636418,-1.8029903319381901,-0.04177948405707303,1.6136443148947255,3.3873730420849713,1.1010756707577702,-0.08796876880097995,1.2328150153833,15.366021959870647,-11.45982019370673,-8.40997882481381
-1.9109202025745855,0.08143206071996956,1.824532279420576,6.100088861113395,0.20375139180950685,0.833867902886194,0.20249995180354005,1.4509724324601665,3.6145643387357764,1.0881956555251897,0.21530082141005133,1.2250627254838695,22.072736761441874,5.589947066384482,-14.241553207562967
-1.3137681943313886,-0.1068144299072793,2.2395853743922283,5.122466225544127,-0.40977946815677124,0.348814886081108,-0.340626130669822,1.5060599230576313,3.0178565589675683,,,,9.459271316915965,8.586681733174013,1.0653693683693022
-1.0689298704256764,0.019771032931139465,2.107195395792986,7.166586777374526,0.1299916569623849,-2.855572698680824,0.0699334512613385,1.6652546122726597,2.7722354743503854,,,,-7.61981497287147,3.9173469896330433,-5.495435601393331
-1.2482280276300286,-0.03745472537264305,2.079761587211309,4.841212272760842,-0.13426487698007306,-0.6651011510762217,-0.12963330542043672,1.2565990636475906,2.9522158455344556,,,,4.1614080108214395,-0.25021778623972685,-6.25832709605958
-1.4541735635335753,-0.04844821301469382,1.775639354880819,7.669269494089193,0.3840385305118571,-1.986989372021064,0.1006967073540834,1.5336345742637478,3.1581613814380023,1.0808195016711473,0.19698970252572942,1.2285892512582801,-12.664796210074499,2.514796165916251,4.5734010487819265
-1.9561861353590446,-0.0369699673409406,1.9391827149585144,4.8730266242533915,-0.32196628671486927,-0.4223703514615984,-0.31112809776499306,1.082290521014063,3.6600957048086373,,,,14.055540977811479,-8.17505651255467,10.05803766796502
-1.5290099963052628,0.24817573835119167,1.6933487667935512,5.121783225169256,-0.02809528272933015,0.8417947917764934,0.2189641531537311,1.2221284505156167,3.2329195657548544,,,,11.799202610477773,10.782189201893885,0.2876545350706348
-1.3281089589328565,0.4292750665056454,1.8910363359908007,5.049480504800279,0.06772830974925537,-0.34660886988531203,0.4595475515699688,1.2812387309148812,3.032018528402654,,,,-24.49576448374347,17.494365516811104,5.292456983370308
-1.7853743959781436,0.22724552124394615,1.8449586332279302,7.238844125426134,0.021485679320565332,0.6270064753029381,0.2387543325135365,1.3401363918040212,3.4892839654681467,0.9592142222097857,0.1352513692664702,1.2254181887143099,-10.019424196620074,1.4138404850177315,-4.007937290813597
-1.5037481164756281,-0.06977436501872292,2.4463004618980198,7.0842731948500415,0.16045687264911845,-0.696268470908521,0.026659778832891404,1.2284781581488775,3.207889556749689,,,,16.0534917001014,0.9026203309625596,22.692271433418238
-1.7696779827121252,0.43946233859386363,2.381565247483147,4.773445898351909,0.4367799714610632,0.939867663295928,0.7484584267472152,1.5962474551527974,3.473819422986185,1.0188385254506565,0.7143762338428332,1.2272960566454865,-10.321662303576199,-5.005374690312247,-15.90356291632331
-1.8955980176276417,0.30768814083367524,2.149244902663424,4.533327021051505,0.13198935087497699,-2.106977632794873,0.3264249032115357,0.9278075231605953,3.5989796651067136,,,,21.521702269874467,-19.420062752088146,7.443050482358316
-1.6607157621505988,-0.2109650432609692,2.292200277259712,7.480691814325642,0.33377888331859173,-2.1209153910530176,-0.050852716244075336,1.5645393212501186,3.364097409629671,-0.1083553485182658,0.15892845200960554,1.222947475678352,-9.617047983643292,-1.2692207309157488,12.97202894469696
-1.9270427956196912,0.3352067080831155,2.362340898538463,7.776778085570744,0.038536781916711504,-2.687566713519942,0.3481541574728188,1.8055035791533105,3.630672122879133,,,,24.168985385342538,-25.396408944535647,-10.162737095306477
-1.3455653269754038,0.19930973232077098,1.7452935910348453,7.8774393244073515,0.35797731861223925,-2.6817298676542656,0.3271325419672477,1.5367995702469428,3.049161620162401,-3.800191331564907,0.5511567432218182,1.2301338298099551,24.37936223566165,1.309116765392922,9.838028058413947
-1.6517761817714718,0.016399875277886222,1.8610043982441318,7.3805927904462365,-0.18134733947685722,-2.254906746840337,-0.06604864552505282,1.3803415715756584,3.3560419449031675,1.3431870960882242,-0.2300774289213608,1.2260207832627812,-6.311210098234067,21.701974158810067,-4.809680851179565
-1.7813428487155072,-0.32950288767663305,2.335064366729751,6.640024166540943,-0.22300017837554975,-2.611064685249822,-0.4587606740339379,1.7824651497037811,3.485586030890849,0.6602126550765522,-0.5644515476221952,1.233708478730935,15.570815245142388,26.07598863445486,13.029575806070559
-1.6418924527238268,-0.03310909128202666,1.7507697318981537,7.665343521711172,0.4237882071713367,-0.7869408377587739,0.1513335959064919,1.4330611004802047,3.3451384363056595,0.873926429720646,0.08906586359085529,1.2278695799865955,-11.940572029302295,14.4019302825141,13.320398850734769
-1.738993900395835,-0.36395220270593986,1.892025235631035,4.522686865528236,-0.16669350687208428,-0.4469964814790295,-0.5390187073981894,1.051651592788017,3.442840829577712,,,,-1.2239588841426063,-19.224324008351857,7.326932123122587
-1.1359836652623452,-0.49085893806372694,2.1570369382022423,4.640904947291844,-0.21125952551622085,-0.2687224848391523,-0.6386710271726581,1.51391276407594,2.839830594442799,1.0976881335019741,-0.5379030339150137,1.2237347168933932,22.009444567748027,25.80619304942561,6.504196601031891
-1.0980293181303062,-0.23622009728036875,2.200919160298205,5.884363969261734,-0.10805279628434583,-0.35826284570450895,-0.27780679969245303,1.3820592056545122,2.8012378983894566,0.360247626366314,-0.22061871447926146,1.226406219538514,14.611537679785968,-7.852060691544576,-18.969594729631453
-1.049674270358995,-0.027189393421504615,2.1469269367723074,7.071608295517624,0.3785254188237924,0.5717122699917709,0.12638901811366937,0.8065073235990003,2.7530289047703995,,,,21.718766438850505,-19.40836228037709,-12.389496988568437
-1.3903136951319066,-0.1884546365895885,2.1672237047487775,4.576148850949302,0.2959914781601536,-1.0737975212371254,-0.013393450516314936,0.9364226898712151,3.093668329543311,,,,11.540608991121452,-14.720397707493696,11.008375733236269
-1.009227474465158,0.1887731142893604,2.0020888901964846,5.1932784601009985,-0.32064944688819264,-1.8698903222258245,0.020982240229381804,1.2456906051081953,2.7125821088727493,,,,-1.1632567234438016,18.070090241150204,2.9978717872849603
-1.2961773403356456,0.11233472816499945,2.1917303473982193,7.48701949986188,-0.41692764042966846,-2.466371124483686,-0.04499223986885928,1.523208013116248,2.9995319747394245,0.7481315828512368,-0.018419066232969183,1.2261512370957781,0.5820951098512724,-15.543044624980022,1.0665183360728714
-1.082260744405183,-0.19799295906467596,2.0732048747946,7.790907231618398,-0.44674030355969174,-1.3525593264776248,-0.3529474605353401,1.3665704995981094,2.7859010547324488,0.851516579582934,-0.3423790228515515,1.2280087655659546,15.61677095634912,-21.1272033881098,1.8928749720781508
-1.817357095121333,0.041758811514719274,2.493995698415703,6.3174605068332035,0.2725867375645541,-0.46087892865564584,0.20234737068770692,1.6037652465460746,3.5206624486127325,,,,-11.116310084814968,17.25677427082674,-14.243849255673435
-1.1859208662851857,0.4761854699342092,2.250505894007897,6.501118065290328,0.44482116836495056,-1.0470405045801812,0.6808877661965476,1.4475651969972623,2.890010361682762,,,,-1.1591073161164305,25.952536089844035,25.474013076625074
-1.9229641975841512,-0.21421008230702665,2.402599777173378,4.579557163712522,0.19931168187099058,-2.8162125889929257,-0.15974773604924164,1.1154431273563317,3.6263725285296875,,,,6.533341170597244,-25.217228314231498,-18.54533698044239
-1.5521446899720526,0.4177658624654522,2.244783109718899,5.684806268374132,-0.24722524986736438,-1.3008920188897832,0.27433849362476637,1.5994018166389785,3.255553020917589,0.0999118604549852,0.5531109500328388,1.2225517641708832,-6.915451213021793,-15.90131732904416,22.330070679747443
-1.285504168654421,0.11241519038072645,2.2944797136413615,4.487025711850894,0.4463856661165533,-0.9233465327685053,0.39228784284705404,1.2795204766303194,2.9897020502464673,,,,9.421373165130733,8.535221743722083,14.190536212603755
-1.892912452578332,0.12010229358136226,1.5905721942908198,6.562723362548564,0.4546103315447003,-2.426931146449025,0.3479686098461681,1.4040686626137833,3.597110334170358,1.17870415859493,0.2372192135647893,1.2270327798190779,-3.882887619994485,6.184075570899253,7.45631957629323
-1.0581102610611777,0.14282976670449166,1.8975943943312723,5.626173787976416,0.15601949938168547,0.7526970918211973,0.22008675796746774,1.3078820543302947,2.7617133962026594,,,,-1.5056467189511542,17.953988440069217,7.382476037535221
-1.9904289046083692,-0.19850832893082127,1.7416242415716352,7.215562258589898,0.3028827167614123,0.31174193113667314,-0.0336910085994121,1.3321962068437245,3.6941807787755594,-2.1710839694128055,1.8440354584344971,1.2307195312213839,21.862282045272025,3.468302153314052,13.48296285151421
-1.851512930009275,0.005752168564117421,2.143590917899559,7.085419537948887,-0.2873396597196106,-0.46844800747514626,-0.12614377328631798,1.4347374989576058,3.5556959190144957,0.28619962066018145,0.05412283067152562,1.2233265980373784,-11.160574081529719,-4.012245506133348,8.509201750966696
-1.925448226912561,-0.18308855965021498,2.285104156745667,5.643685729857548,-0.2861878431349818,0.5716283948124357,-0.36005843580728053,1.5490070857752711,3.629798704958964,1.0257159933825188,-0.40459368900513043,1.2283839420576868,0.45562882752750583,4.4501243447164915,-6.769693812577247
-1.8249225105086821,-0.400934291300463,2.0322180163886765,4.213682614415095,-0.21530719533705778,-1.4602407425932995,-0.6602405910359118,0.6604457939050912,3.5295578080661314,,,,-9.466751467996698,9.059995898764916,6.423447493542465
-1.5002385897215857,0.3120047849788178,1.6000745445612292,7.94045618821718,-0.41130993956041806,-1.3300979574022165,0.13771916366312828,1.3851695641623,3.2048738872790343,,,,11.493703100808196,2.171756266221697,6.276907510623086
-1.4398536648611338,-0.4319675741526787,1.9669555711177402,5.630880300919472,0.2749688690760177,-2.9391254399474853,-0.3166424138360756,0.9887102680567201,3.1438306032353647,,,,-5.568827621025391,17.80390257805831,-5.679610199370597
-1.9169839025758093,-0.012972209411021174,1.576756250999627,7.655286998929984,0.3139274763201068,-0.23426429711634,0.13491692036120592,1.3160181279121752,3.6209608409500404,,,,1.3934037760306084,-16.280654023121784,21.21786334132789
-1.0878916713698024,-0.08521072133341168,1.8614779599105824,5.61513885466189,0.10570931678763773,0.35578178435752505,-0.022950330713759973,1.3215881063044805,2.7918625957073333,0.20950223810750634,-0.11439334528395635,1.2229683930509718,7.580162294163788,-5.673147952179269,8.853988396450854
-1.2670385965643525,0.03462444518335228,1.7624311110002406,4.7030729908405,-0.21048797903998606,-0.4278548623127776,-0.112593186730651,1.1020883223935931,2.971201437678857,,,,-16.317584240676982,16.432291176431246,-15.284538970586523
-1.9288728025321933,-0.3769575501007161,2.148605707269762,6.807924429550685,-0.17626757359624712,-1.0426715227125882,-0.46808154202016616,1.6311607745446062,3.6330356436466977,0.11051984325911927,-0.1428920234689028,1.2306210253510443,-5.068405852651235,-14.143800554893753,6.073063198381758
-1.3322187749278895,-0.4818624040788255,2.406514909185665,4.545670912869326,0.0315732668318347,-0.3299716747457282,-0.4800866460533094,1.5554468981350555,3.03546347779894,0.24618684880863112,-0.20071240129898363,1.2290147395450146,-8.434515236523035,-17.548366221803736,10.063658538738263
-1.97880497356559,0.2725675082720862,1.7125872995559983,6.364046725769299,-0.09266468419002472,-2.3274351188009668,0.20024386530660293,1.3494088244381788,3.6820479866325444,0.38561549063234596,0.4121817363753756,1.2264488046495363,-20.19452006232617,7.801573750851275,21.347476585539393
-1.0924837918597583,0.28659485691171627,2.1607249555410926,6.806806496991573,0.4708077434057367,-1.9301625924197552,0.4819237588291955,1.5734780621149935,2.7962608839489898,-0.7525497877785806,0.4372645683246862,1.2263074252116035,12.08073643299365,20.441960346060494,-0.08222079540600835
-1.0054900036151866,0.19860416128279634,2.0747728358715922,7.2013924482155645,-0.050253056775921845,0.2962788389583437,0.1804670409874301,0.9804546492656374,2.708984140691001,,,,-19.108747507703065,18.17504723508634,-23.211274811623944
-1.8065755554486098,-0.4743012783032263,2.083625135362014,7.622023209175541,0.05692763227546749,0.8410933142926069,-0.4342950520835856,1.0202128576472167,3.510069692524419,,,,-3.831549853840678,-23.737976622118968,-20.069936137516205
-1.623557019821679,-0.27312991625504524,2.346395553143575,6.732997692029823,0.3566542279475371,-1.330487653094039,-0.08467749367457586,1.5486965066143712,3.32705115692331,-1.479444953382889,-0.05264746181986475,1.2246692952426892,-7.471000816091248,7.810830434941803,19.51770486600703
-1.6246434101512737,0.1468622567671356,2.325364148806236,6.400142850755586,-0.18188924674187534,-3.0177721558345993,0.047303623392582525,1.6198660785740784,3.3282170977197083,0.8931177601501861,0.13233922874716947,1.2258386573738818,10.70297343233724,-17.59543095921553,9.225117867639321
-1.6937535073009982,0.36115349382926465,2.227434733447307,4.562686460484393,-0.4667581566579626,-1.767055610340158,-0.03821014614225593,1.111911965113841,3.397560994175027,,,,-9.990330348767554,-23.859501654997327,16.386369237592316
-1.4319934496503781,0.445904097489745,2.4779963897376245,7.67401575151105,0.45213248578542586,0.9483574321689048,0.6459155288695371,0.13365332759385745,3.13580093652433,,,,-7.690598275103169,19.66528040309562,-15.131715821368438
-1.0636803292386974,-0.23759628496251406,2.456908447055678,4.615084076288802,-0.14147964472295715,-0.9767554082005248,-0.3236473741994823,1.6066188818304714,2.767487816150048,-4.838572448676571,0.3554733464238499,1.2248346062644369,-6.81445573188682,-4.44698424756723,21.904372154196896
-1.1195643154982862,-0.32346126125349695,1.6055194812304583,4.485506398533179,-0.006387949315858066,0.4218822599470329,-0.35008259007630993,1.036485414411655,2.824171431084598,,,,21.961009538560134,14.824624818868518,8.948611585362446
-1.178833503258954,0.3726061273675735,1.698820305684125,4.493204988965527,0.35740528908493996,0.7849016774230932,0.5845146588370191,1.1663168186031674,2.8834406188443213,,,,-15.039707858677474,22.80229847016012,-20.99815864963144
-1.3685826787299151,0.36862815472068833,2.3123019385035732,7.738887989136796,-0.08386835142592197,0.27097326210782313,0.34107843257070947,0.8031369326436502,3.073189794729407,,,,-0.752149572252099,5.833040780481267,3.0713552665603596
-1.3183165874785912,-0.4710420745720524,1.6373926398894465,6.263967808993076,0.007314753070226665,-1.480309228057184,-0.47375331718211394,1.324102976458729,3.0229237038935572,1.1454191746170304,-0.4249676449930114,1.2249783317258338,10.014296543179919,12.490065950854675,-21.08581154496261
-1.4596510094026416,-0.3177752663193917,1.5529899284601765,4.958795077646947,0.2963027684079389,-0.6187815903814808,-0.15886394239477758,1.0768405705507138,3.162905007663144,,,,5.073548632291773,-8.171811236016634,22.821491126442904
-1.0649725616117314,-0.18119629930305503,1.5112947635635037,4.80782538098854,-0.3305829788087511,-2.5128888724060694,-0.41918553509935186,1.1382494513671864,2.768226559872234,,,,-5.5981726503713425,15.552058345366978,-3.6447943330357564
-1.1663327450685732,-0.41335820973637105,2.3002222746584433,7.900056738947683,0.08932250299024336,-1.3007843095602212,-0.3653666461672856,1.2276011216916236,2.869586743317701,,,,25.43730154581498,5.654356666091686,23.260875786327876
-1.0943761719254723,0.1327446533139378,2.425577738457637,5.981477595880058,-0.3709984528105159,-2.8263695628723795,-0.02852519795953304,1.7134955679776893,2.797630170163222,1.2127723431008892,0.0673923093735038,1.2360514510641527,-24.460117750236556,23.807788087968436,10.755020979335287
-1.9164028931199115,-0.33883439731363885,1.5630133053186774,4.622168265132025,0.4899506448105706,-2.044725903796767,-0.0580659504966739,0.6288927468897285,3.6205799792773687,,,,20.353400012136404,-24.674932315735955,10.371350417399405
-1.7502713920899695,-0.18852159976014848,2.320914537380108,5.703981043898043,0.1618836524894829,-0.2339413235065635,-0.08253012433817217,1.5655012486193636,3.4544484782474205,1.0677586485231125,-0.07253570331536327,1.2303539789193607,1.5482179413022514,5.206325995337067,-0.5118614364086439
-1.8576786714096376,0.4178331448812055,1.7565492382895855,6.158511621393732,0.18199253989315434,-0.3262070173262721,0.5199676164863563,1.295633230089947,3.561255550637727,,,,-10.28992243506906,-22.851196351222693,4.220291250111784
-1.685032498442291,-0.29062673003297124,2.2483520245791198,4.838823811806439,-0.4484105017456397,0.9580172975078938,-0.6129725717578123,1.5079970193492194,3.388609377670379,1.0815300352889126,-0.6513456612573248,1.2254481063143914,6.085662449426509,-3.4979908995166933,-1.9046509939002634
-1.0334419858950872,0.39699324580335915,1.8994979282061322,5.595169838531788,0.397334457538534,-1.4044524459799135,0.5926294891790298,1.4863929582538933,2.7366550875734528,1.1573477198765203,0.42381366126515807,1.2287689552884022,-23.99402907995871,17.110008597004295,2.212909255076395
-1.8895381362039285,-0.0603564178731536,1.8375004140268607,7.473489589825277,0.43621262118238746,0.6120847538876006,0.1533542272816671,1.3572245499430184,3.5940256631451764,0.5382389349852512,-0.06772491886484643,1.2245194270360191,-8.901690319709074,17.14575647710554,24.72517578930568
-1.6958928917756715,0.29250259231004416,1.7224460508296286,7.709775092571842,-0.06449364322878015,-1.9899249948436548,0.25618773218546753,1.4063071104962541,3.3998971060414256,1.103206297870289,0.26618936488412653,1.231211362537176,-13.057511901857634,12.887623990541819,-2.5360844849130357
-1.0477196871679457,-0.3942546184136779,1.8476436432956707,7.41207565782716,0.024818397621442223,0.9218987424351788,-0.3732106872974159,0.8946871649590948,2.7518889806307207,,,,5.238199521446509,13.96708713827262,-13.172804407158184
-1.2609693945282971,0.20639859251391934,2.3764655182954497,6.815685517420498,-0.49093331104570037,-0.764880641534198,0.01199997957092297,1.2385177357927197,2.96513868799107,,,,0.38229549747886493,15.732628315054363,-4.922319150238559
-1.1919599705369999,0.08580158517144676,1.795115970451974,4.735739885429009,-0.39377610809583685,-1.9183362011967908,-0.17944314604662284,1.1483234119582049,2.8961292639998844,,,,-4.229254349396556,7.415589780601666,-16.384806512360406
-1.0999816513987426,-0.14178049602599374,1.8132458357713421,4.507341157248135,0.4518120884030141,0.03131797805286496,0.11921680437818638,1.1491550317920245,2.804150944861739,,,,-15.511006707301638,6.398365346269262,13.77810247128145
-1.1034128751204046,0.4310107296194098,2.2396918487866824,4.713540915274805,0.15580322261045332,-3.0198846652772815,0.4849675119249368,1.0489807804815676,2.8075821685835125,,,,-19.63733565940112,-8.47100353301846,2.563028470630616
-1.051453022349429,0.21771649609831634,1.5139620977172044,5.650133430639421,0.4378029812514961,-2.706221314737185,0.41566457895902453,1.2738834288543734,2.755622315812648,,,,25.38726751305543,4.8858509417758365,-1.683993168687334
-1.9220354803413566,-0.35307916745657064,2.396414090195486,5.4625055861286675,0.45108112634106856,-1.139679753344467,-0.07534296898681031,1.3250242262952443,3.6262047738046865,,,,2.1475340720539657,-4.684947666121808,-16.06562125994793
-1.6877035466896912,-0.16167169888545274,2.4011223568704074,6.888001671191066,-0.46868587128167105,-0.643936656740145,-0.38075550975775024,1.4372332275635866,3.3919623086207236,,,,-11.759022326769916,20.082928426668477,25.154689989716978
-1.499516271533007,-0.4172355866609532,1.500892690805911,4.9521407647698545,-0.20804353276453025,-1.0216977321383602,-0.5959574948861466,1.0127852662770445,3.2041625318585636,,,,-11.550436675766385,7.443995607789343,12.714163877935192
-1.4911788829179395,0.1914757881824889,2.296063737861698,4.966074707374553,-0.21799090710883595,-0.07660090538291087,0.0555185904664974,1.4586782885558423,3.1958251432434963,1.147441574311874,0.04559618927007468,1.2299487789250156,-18.373689307812878,10.599670373454552,-1.9185722670390135
-1.2482539159208663,-0.08247872398941669,1.9117297207583361,5.652014249391684,0.4034014257397278,-0.41232582325140044,0.12912731476252418,1.5099491748455809,2.952268741576563,1.058438558179607,0.11092446789630632,1.2244597949342966,-19.408245474040964,-12.897858771181092,-0.2140249426498103
-1.9133421596621802,0.07787071158024106,2.437567793043057,7.8308898531839155,0.2815100202831422,0.31982341015726945,0.21941542058704022,0.9506353420431153,3.617223574858577,,,,10.27108216649435,-2.5405938767836287,-17.479044837771863
-1.8832543996872855,0.17791187832381605,1.5405106772943518,7.367562838879298,-0.31546505508487366,-1.7065080496980833,0.026743617723374496,0.9222018622587023,3.587135814883686,,,,-8.490455421535453,23.24185646261344,9.891247172570534
-1.5270198417213958,-0.18447372505132853,1.6870713617956197,5.796352082839178,0.14731477468968412,-1.4941755884752617,-0.11322158994510752,1.0719198737368565,3.230901256892905,,,,25.31874448521222,-15.629434586050587,-17.681317373022868
-1.0382277871417558,-0.1972908506261699,1.8566959768979818,5.926888084809239,0.43049996761404197,-0.9257758700835517,0.012698132082097413,1.357752727718617,2.7421092022883675,1.1843880741692552,-0.6249328666047866,1.2254238749046988,11.266313504495589,11.406571678505424,-4.3322350362417
-1.0286138606275377,-0.07735485312763346,1.8270651106362497,6.479345426323011,-0.2711231196300812,0.6875395922503458,-0.1844972750603335,1.1494548050668751,2.73236129713867,,,,11.29807477776448,-4.779477783846876,-14.80469483841647
-1.9986813634904483,0.3828516489082813,2.489181103016173,5.307527014451221,-0.016307718237089652,0.8735408379584086,0.3803141411529996,1.6054456338401257,3.7024288000015977,,,,-16.629343626664312,-13.260605120830771,-10.963581595700408
-1.128521749844936,-0.06988767691773579,1.973944845075445,4.77417783115305,-0.1903378557614832,-3.030802949254472,-0.22694119697085924,1.1364251001769952,2.8328480354415957,,,,-15.669419049429386,7.684667127077345,-8.389299565988331
-1.5524224982462456,0.49205611511623726,2.174596365185918,4.479629745036178,-0.10627244601396413,-0.20748150617418304,0.3935027954035212,1.093279712315557,3.2567487838429052,,,,-16.647158070136165,17.180696411251382,23.806329572543998
-1.3472401161887984,0.4707380212194133,2.482110782628825,6.003668340542241,0.14671719839028707,-2.0326572527174136,0.5515833378993913,1.7763836823121337,3.051566401789211,,,,17.029838156262944,-1.1232668413708842,-23.345924243919637
-1.8964319018280025,-0.23205705372649665,1.9635004670617575,6.807666064481666,0.19158391181268053,-2.7922877103818244,-0.1533615395291632,1.2664471322498527,3.599886701299501,,,,5.887246799842666,-5.6309958513522895,5.138887824718736
-1.930722631457633,-0.305467704198606,1.5456086934538416,5.0573390635409865,-0.29668251046841565,-0.6782184410280578,-0.5712985863979283,0.9129951511522574,3.6341774309291317,,,,2.945562755952886,14.570069376971023,-15.656443668524567
-1.103703431982722,0.006860200377382331,1.8534486834143882,4.028739416738727,-0.2700431689149765,-1.8493786468471463,-0.22789008057300364,0.8285535109336983,2.8071582314514467,,,,13.48054656116243,6.853440615367096,18.856781785760745
-1.7693383934317324,-0.1867814276806562,1.7281945360935462,5.003523002334802,0.32468695845136786,-0.4275854488458819,0.006555304150402119,1.1049105376832238,3.472793192897682,,,,-2.375245608677018,-19.460272976809545,-14.63151100665927
-1.219517628946459,0.12811716435169773,2.106103831172714,5.041593668430799,-0.3941461434257709,-2.411246970418297,-0.12347578605174234,0.9952564226275462,2.9229724284096346,,,,15.787001311191219,6.276519298216786,14.061389728666809
-1.529264875642372,-0.37719844172426986,1.9661695951319635,5.436812424159214,-0.029608997020376115,-0.19345399157010945,-0.40752957878216345,1.3990309876904667,3.2327196751027722,0.5615253747955317,-0.6236053371836255,1.2225163920573445,-14.04881928779586,10.864939008251026,7.7835520719835
-1.2320832731161442,0.4260649538934044,2.4746117123558973,4.289683025510911,0.2180998331958195,-2.968196018764573,0.5137752755693203,1.0318859297342953,2.9367457475088115,,,,21.285504581114814,2.8888182135344507,2.3285743548232074
-1.3768010017270254,-0.1549901537190762,2.480016507275452,4.743740402924548,-0.020676889247450703,0.743514557799827,-0.15199618475292484,1.4814968970574545,3.0814634761196933,,,,-5.266068196947408,-22.74997221143146,10.614859472983817
-1.7390966021328524,0.05356024323960906,1.9404621920655123,7.5863809390661885,0.31881212790916214,-0.712925766477639,0.20099653215434474,1.4742454663947706,3.4425755036096306,-3.0212632839491516,0.1492130693402826,1.2199323295748041,2.6380523908788347,2.65268710532545,20.066422264247542
-1.184410579904405,-0.13288656678810717,2.4448555238783665,7.591044208120188,0.1255897754976587,-0.799178031077652,-0.05441010695164686,0.9376433492124714,2.8884968772851565,,,,2.8149317331260115,23.832853747210084,-22.592974691052405
-1.2886257379752424,-0.06787416941623292,2.0893987508185656,4.3248240147863015,-0.31201943444658764,0.6086803063870505,-0.2984186978516394,1.316562705602499,2.992712035356006,1.470558141364096,0.037923294108222434,1.2267618952277979,-10.938914922769534,-11.154547627826778,20.91927968532529
-1.5163698603949536,0.3078020338228403,2.0875247084742106,6.300295269558909,-0.415138272763107,-1.4031826570201744,0.09464549072616371,1.6051182992672384,3.219713150990538,0.0195332649487285,-0.0832505758557465,1.2311254574609254,5.049466195009956,6.080387722714216,14.408147775775277
-1.0794910594437286,0.4976158933036162,1.9832032609688386,6.5185004357655885,-0.24375726359783467,0.8023120717816745,0.3925680872133538,1.0334250730612249,2.7833883740626404,,,,5.3099591400026025,0.45730967456889693,-22.125271073286584
-1.9428430884088814,-0.44762248600564125,1.661051906422324,6.601107019709467,-0.4309825361422792,-0.2944659169780728,-0.6962934058024904,1.3969205598846604,3.6467404030278248,-0.24100446989334867,-0.1868877556128602,1.2243411758433418,-9.380724755751507,-16.75910216915253,13.258581991832173
-1.014358638163381,-0.4945461656819622,2.01761732147366,4.810294030431725,-0.4364298068352479,0.42006470537213403,-0.7505718640243307,1.534913749044193,2.7175618180143424,,,,-9.665983478164945,17.386396184645662,10.249215086851171
-1.4316519176212643,0.48109747113335255,2.4620967594941057,6.9621186769600385,-0.08356593142847757,-0.9084127350952542,0.45080971576430723,1.3462665645849867,3.1348461369953364,0.8711285894741115,0.3766779584757159,1.222069076897236,-2.1821932398376087,14.570716724287504,19.801144671544275
-1.464595215686169,-0.12973026037207547,1.9035579155678597,6.962588529663609,0.4478590294146456,-0.4897758963691601,0.08035300969837803,1.426843684479113,3.168121413665235,0.15644042591355423,0.24093133244485115,1.2279953118640305,-12.211370115366023,-12.089470499959683,23.463537694091137
-1.9318096671372718,-0.07800156012044523,1.7299030698386668,5.867481076329479,0.027941158902222707,-2.1621022916455956,-0.09205398601885448,1.2339332407952097,3.6357777555965516,,,,0.8145515307319546,14.348027778186845,-1.450076646431771
-1.3787706967615865,0.12680715127257258,1.7040515355461934,4.206420757224372,-0.3709224036983083,0.7629880435557013,-0.1649111368910125,1.059544820252226,3.0827387852208696,,,,-14.556873238856879,1.6369874980932313,-9.227704760221018
-1.1129145018074706,-0.23310008625668244,1.5673592095471598,4.444895129787696,-0.19347434939420927,-0.09966291778736647,-0.3797473453646053,1.1705484835277309,2.816882590271501,,,,4.1240269022916705,19.37562533358237,11.649739362925859
-1.8937251007807916,-0.0062699770094801766,1.7785698451389877,5.615595845206549,0.32961077382553317,-1.9925082675897166,0.16678426229544321,1.228656228850863,3.5976931892495707,,,,17.50433117783877,15.587257625071288,-17.459546962928055
-1.6250681603050081,-0.4901487456170366,2.232742206748679,7.804646314877051,-0.27512375287163326,0.13941665902006406,-0.5968933612870843,1.0804933271432615,3.3290362487785363,,,,-3.3337568840815366,9.815117719024114,16.758939006635007
-1.4621296718234733,-0.3888092344646147,2.3083189558932915,6.165227081603408,0.2506938956169247,-1.9011921946994192,-0.25773173274933114,1.7251868898541285,3.166097760301751,1.111224372570608,-0.315397995707903,1.2266932048422736,20.970834103958936,0.9097697213782048,0.17264693109541862
-1.803863041095571,0.4081990311204081,2.2787062258996214,7.552556742097245,0.2352524390093702,-0.1358545389520316,0.5252798187499707,1.2887472384056575,3.5084048640215597,,,,2.118783165923068,-19.554649130310374,1.5530365662019072
-1.0131213192831812,-0.33505341792714627,1.9232691530104236,4.866881394842775,-0.09980599297763515,-2.6763310409325847,-0.42527810203504857,1.0979233701807338,2.717663142209169,,,,-4.823273711559618,-16.392855669615848,-24.493308896736348
-1.250037029398119,-0.10521341915932736,1.75473320036271,4.760833572749981,-0.022733219956544426,0.9183408644627811,-0.1297354597037186,1.2457112943240607,2.9545788522846905,,,,-23.343048975397824,8.681814097541142,25.6001704304672
-1.8874434484474307,-0.3518834153914848,2.1315029176716216,4.265970739518252,0.31068747902591287,0.7464675359303286,-0.13636601923788744,1.0744704075856522,3.591985271294548,,,,1.0537038031820964,-21.55151752630515,0.18267097926932416
-1.685991113348436,0.33321783678280625,1.8738185519077797,7.543103877197712,0.07568398897523032,-2.529974770791199,0.3578712568114864,1.5563214695146095,3.3905329361560983,0.8776650032417672,0.27864629008284,1.2291884835141471,0.7768190106117869,23.440536803616315,-0.2787699230583468
-1.6809835452508475,-0.33411341512010884,2.2696358947541686,5.664870577399359,0.057120073384022696,0.009628181992269447,-0.2945502128824533,1.5804221354302674,3.3845705313995627,1.0103393570111263,-0.2858775327429216,1.2299347326004844,-8.17331503871496,14.471769127378657,-10.526319459170445
-1.8472373795486645,0.038502122664299754,1.6711333743914811,7.057680014866339,0.07583055033295372,-2.842828670539994,0.05622952027320097,1.1861227088961406,3.550570722196815,,,,9.455853650495726,-12.598015512774742,-18.67044080280868
-1.7062333554414573,-0.30816762938915754,2.3081052916001426,6.04117821291414,0.3300235752131586,-2.9544705695536777,-0.14785293277891423,1.3584228295339669,3.409566698089603,,,,6.741037139111334,23.945939572631087,-10.721459747553501
-1.8144713721286179,-0.41373065695829636,1.5012870853970668,4.243214829944133,-0.005520876764206761,-2.8961440230583335,-0.5094010668681803,0.41571708757253734,3.5188543419723737,,,,21.718780132824374,-10.172903994457036,24.49959394919635
-1.8583798757946388,-0.19669604585472855,1.5425066710965734,4.803009925768578,0.2521994575912956,-0.2098202627253798,-0.060307223613158906,0.8666920720747155,3.5627628456383946,,,,8.213184062830212,-20.50836399022508,14.242323908881904
-1.6729856650984158,0.4475343768586688,2.325066768843408,7.391894371658765,-0.1919853549754924,0.38536133959024,0.3658185946227799,1.0132679690563537,3.3773686349638186,,,,11.58560897427952,3.275419186148573,-0.29446110146406906
-1.3827229724916006,0.12659649530773687,2.281084337194156,6.60986001710814,-0.16952532232010542,0.8498329560597995,0.0626206835960663,0.8206842859710861,3.0871059423786527,,,,2.834214795465657,-4.389746508484202,-24.471788969868143
-1.2170294798278987,0.3745826381482029,2.229208098860364,5.108907015451383,0.29568698007261585,-0.3920937265802138,0.5493957893709096,1.5905999552822323,2.921412449736599,1.0480555085361298,0.6288249749974356,0.49949630353763685,-17.779285292965067,13.771458082642532,0.9801596010039794
-1.3969520485011615,0.25603031765084905,2.2677555817387196,5.265234176339,0.300765506525722,0.7733353105236418,0.4387033766725841,1.4058521395310795,3.1004088068762945,0.7744531635484148,0.48505847970069477,1.2201093275774983,12.928074450066083,-18.44803865648741,11.744984641925152
-1.3315719140721178,-0.052965572036078656,2.0171014604827415,4.762633400789813,0.27843852104326716,-1.5834136684189914,0.0985053615381987,1.1387050219305554,3.0351024145631262,,,,-25.281050921393465,13.344851512827399,-6.532194986786874
-1.6035105148276498,0.08961424762427361,2.428321411035644,5.348096576403485,-0.3219271705429927,-0.12265405726786582,-0.09503562673797009,1.5968083481117379,3.3070410153186645,-3.3715809452735663,1.1379601793846332,1.2187096530932702,-23.935487900160258,-9.828394057885118,25.279767698531035
-1.161666010003057,0.1885491281958106,1.5852116458051686,4.181288726739556,0.2353999525061412,-1.6441183554467287,0.29569920762748003,0.8433288398615828,2.865222425712873,,,,18.76607227253646,3.1655707507454123,-12.183160367756164
-1.5181572011930005,0.014388816403669846,1.9791062100604733,5.534171249649944,-0.46202461884235463,0.3882791375047212,-0.25073240549342624,1.4772624731132036,3.2217136169028153,-1.4450847189823857,-0.494327773994494,1.2266777733588408,-3.328050167732728,12.110869394859574,25.810489432309332
-1.379763093976451,0.3150445358970002,1.685677635058083,4.922469879694731,0.49856674249721067,-0.7433663569882576,0.608569685040453,1.2753134802201564,3.0831355189400504,,,,17.503648487897003,18.699957252412844,9.653241050826507
-1.7369858761156562,-0.43104248036060977,1.5590861517450931,6.823807874644796,0.4654235025886999,0.1183803039229403,-0.19418543735369106,1.3070569460670314,3.4403583010792578,0.5057257493061413,-0.6830693146866882,1.2261949204706266,-9.836005849379868,21.134789495438998,15.872107215357424
-1.3814990939615925,-0.22244574707816922,2.2362058424046474,7.609331480503627,0.14426725880311242,-2.8194620458892317,-0.15700455518529638,1.611254357362172,3.084937419271137,1.0198119983872167,-0.14777225679039557,1.2220378341291094,5.598678346379237,-1.1888105473025845,-25.351174620179744
-1.4602557061848778,-0.47729271537895224,1.8198315088274808,4.498737154537089,-0.038642369487078554,-0.5090732244948981,-0.5468927603554627,1.1653831131589545,3.1637244283986163,,,,3.0344512560518795,20.06939159901181,-17.389087970419897
-1.3332487530378772,-0.07930864242292235,2.407510174363176,6.9407168637961725,-0.041910940576546096,-2.6657939143469633,-0.08588559630356055,1.6416287951814512,3.036717475251616,1.0198484010440272,-0.10019108152334853,1.2230408124374317,-8.596703456177384,13.17744464065171,-9.779055834472288
-1.300009703333449,0.4639579545288619,2.114764837990603,4.1524964613180515,-0.2780218978431348,-1.982319705929818,0.20849846359774693,1.1072795262479915,3.00357987810259,,,,-2.411656743560187,-23.117170950658057,-0.5193583124571588
-1.5783308299117051,-0.4796918542817966,2.016610986299592,6.576491083896929,0.00375493780997882,-1.747351491892033,-0.4833511757561106,1.6112020595631749,3.281901004680849,1.1222088236181909,-0.5001859631113197,1.222393836230588,23.868293963137248,-6.490276817092886,-2.244733811704344
-1.723712207674757,-0.034623202008573384,2.284265080044194,7.909187354223377,-0.10041261112055277,-1.4264571834486617,-0.06224021112054093,1.4075058346728742,3.426952560125444,,,,-19.81996299715448,-10.93629049391915,4.384089635275608
-1.9047561203072925,-0.389349694744732,2.4523147542856663,7.2895810916400094,0.3752062325889449,-0.4566832284998057,-0.18136983747240637,1.3316635417530964,3.608993740985661,-0.30303187126949244,-0.6033085362435128,1.2255258311105133,-4.432318210001656,21.717128574749083,14.721034569925086
-1.4745865414026609,0.43216237490782283,1.8871605148985964,4.754898697368866,-0.11801110387559266,-2.685701497533266,0.2898201023845861,1.138946005258739,3.178037354555594,,,,21.348484398315716,22.619192372916455,9.636895351797166
-1.9780220022820445,-0.018749436437845324,2.2775094222817724,6.688597607325235,0.49245051389434996,-0.03384764928807016,0.2600116662227929,1.5323905329359166,3.6814728154331253,,,,-13.449864986022233,3.1884385243121454,11.087429404454014
-1.1583297655950902,0.4445907831971114,2.073626824343035,6.063237237172032,-0.46735420486414103,-2.9424878723629178,0.24188561616499427,1.6073006930175913,2.8620200630576615,0.5319414467632174,0.4924680152978667,1.2293916250695216,-18.331460413616426,-23.206963346606504,23.16106927741029
-1.0169450812369751,-0.0527378606149308,1.7472822434881106,6.694272993937371,0.17520833571610273,-2.088578607783642,0.024662366552641923,1.3088223211023566,2.7210963101352403,,,,-16.14612982001448,-23.54285253619543,-17.30431861749232
-1.546735501959433,0.4002265599857555,2.381987241397754,6.048675261806817,0.37328642786122135,-0.07834943013818929,0.6092741423026207,1.4464811192938112,3.2505056852916248,,,,-13.503189295621402,-1.6312807852625215,-18.36132783042511
-1.3839088769028223,0.3056048221726615,1.7474917143023974,4.057787863640261,-0.351961252373747,0.7183703152520238,0.020196445578196998,1.0324630842088132,3.088404084113185,,,,23.24817633678245,17.815493763596898,-25.9790087713381
-1.90042254899017,0.22964880971912482,2.0026438959548742,6.667393626083253,-0.38135398003984466,-0.435798460513972,0.03443848236104069,1.4081128924602673,3.604917756200533,0.5889612578485601,0.20085379056822125,1.227745995906293,11.833025605181804,-23.373218072645397,13.306097395473918
-1.7179319959977863,0.2791556372540567,2.442454380484005,5.524627918145484,-0.18302123173707496,-0.7331728760672007,0.16725854507831764,1.6958096442655244,3.4219860283533468,0.8003882382176253,0.09844537827994691,1.2258100937174041,21.87580932530789,-14.47392653121624,-2.0231378560819815
-1.295090216743699,0.11884629162742555,2.4157532352567515,7.549768973071114,0.31880911704634474,0.48698785605449046,0.25686353852897514,0.5231602722648814,2.9991199446956385,,,,25.623135532890664,1.472761290853297,5.9786615019952665
-1.8763120809497063,0.30698992402544045,2.375256897039412,6.186723777792018,0.20993722866319509,-0.14648400931566385,0.4359912467190131,1.599501764633881,3.580341808901644,,,,-17.578624991043448,-20.16329381440555,17.868936011170153
-1.2277578785117544,-0.4293828089211935,1.9931134325551165,4.779381481821332,-0.4095974266907998,-2.3093333644759895,-0.7235251895137382,1.2434608658914081,2.9321381391033725,,,,-25.883661795327537,24.503064524867604,-2.4573208777889826
-1.2788598248487184,0.1492009078388965,2.191280993120155,7.417798325291436,0.3185309550393667,-0.7927884524056239,0.2816265970455081,1.3223308062264725,2.9832400854403365,0.7590803704302543,0.25354441144604567,1.225672842318565,15.13694926737817,-7.44311557359291,-16.527375744975775
-1.0977350856524293,0.1548013386058783,2.287170847181182,5.020870416848258,0.32189802650180566,-2.529775360430442,0.31888659670312813,1.4512055015254774,2.801935585920732,1.342831420210631,0.054706283069660196,1.2318223981783767,-22.471001638186895,-19.5233772287677,26.05820286978848
-1.988133884632448,-0.17867489833624617,2.3411331554027894,6.197470411207924,0.1572267051148435,-2.4951653047549627,-0.10874998521307883,1.2997424286530848,3.691762217757017,,,,10.020408474212045,-18.796751689333785,18.4418561458771
-1.0581382713521235,-0.23105925246408776,2.0097952079822137,6.149538995400228,-0.3129971773921514,-0.29867899113604324,-0.36850636370792456,1.391443064681312,2.7617666044766893,,,,23.23669054128674,19.52153751211455,-6.836990915855579
-1.9087689773125287,0.1691714482232981,2.494001473408572,5.335225308570113,0.15750601507489748,-0.3022715122519415,0.26900364625913353,1.6418186890175896,3.612064449994029,0.30200576879942626,0.5083500366006889,1.2269267956210743,-13.232756079483076,-17.78803718873016,22.684268281085455
-1.1479215918472478,-0.06033773797338848,1.7577344521234646,7.228787255852538,0.0649844758009599,0.6088839994874107,-0.02008645693095773,1.1177088459332263,2.852112799896493,,,,7.357563036792528,-15.16537523622441,-26.102298523773868
-1.9532699221416503,0.19588503051437034,2.2535226957149064,7.877022808506116,-0.04219542709163138,0.5625289014929535,0.18352050753785148,1.0307418463201643,3.6574611301907396,,,,-2.1276978213108864,22.601078359060303,21.960556939924036
-1.8757898986285664,0.11092945361821016,1.8328892961149135,4.039220762080351,-0.12763254864348705,-0.10890966545508363,-0.06085047865032263,0.6241613088474596,3.5799811066067133,,,,13.89440632381658,11.64191744726058,-4.044159764192936
-1.2837451747210011,-0.179102347060217,1.5668267661617155,7.156661295295734,-0.24783013770314444,-0.4902298776966241,-0.2848424220113041,1.3170498363691256,2.987936382628136,-1.6005375184814212,-0.022028285291920267,1.2205266380196107,-23.78611403711236,-11.929571484330578,13.61182472151155
-1.3558477472833146,-0.016188534809091326,2.0529888193245944,7.663208645936184,0.4947192070174433,0.5676499837953841,0.18751867749091317,0.9686082252311781,3.059201552611877,,,,-11.118266459434365,-3.302564558200671,-25.058734483897712
-1.1906422645621833,-0.3749819687474255,2.291822466327348,7.222089096465769,-0.08138287642638797,-0.023487320321713412,-0.38999072402192375,0.9518660665061591,2.8939960698895115,,,,-4.379737091702411,12.851044217806924,-11.711511032567564
-1.914117710908657,0.3045778392282157,1.6027319427173476,4.712441319875911,-0.045996510218411224,-1.8003666852520972,0.19613548790967172,0.665169908723608,3.617471516087707,,,,4.564144408717506,-15.524294074566246,7.7811472942461135
-1.102101955532298,0.3058339953537913,2.163209709295864,6.296160367720063,-0.006307765331112769,0.831616625763445,0.30674210992416645,0.8940715241610993,2.805455760563045,,,,23.269132783656815,16.442910579955083,17.83108123313717
-1.553286806769705,0.19496098537574336,1.8784859197454113,7.48904493479861,-0.20866642602977103,-1.4347227331137447,0.1007949515200304,1.511208070156262,3.256640611652059,1.1275652366146067,0.10202013403114317,1.2263958990277515,12.376643274302523,12.622315005973926,-15.375192684568011
-1.9789229102021872,-0.14999488129851513,1.7366344816931474,6.310791804795315,-0.4020851160834904,-0.2665802992753896,-0.391509105310736,1.2838658977489799,3.682833265025012,,,,14.561667945293348,-5.589627596283032,17.213351322029077
-1.790501217354041,0.19292527744479904,1.6086794670614566,5.430971874473247,0.483357559833808,-1.7518850231605576,0.45991120312897804,1.1522007269817236,3.4944115721768654,,,,-5.219490959360534,24.11364795842849,13.384615689811449
-1.2028343979588614,-0.08466005074304561,1.6856258682339458,6.639974167297371,-0.2609939363582592,-1.3725835482960136,-0.1999646516739731,1.3018728220185642,2.90674475278066,1.1408513537218454,-0.14753096049646094,1.2265498285299663,-7.957830569090872,7.142750108858133,-12.023812774483769
-1.3402649622978147,-0.01586117702234402,1.9303938254795687,7.083585637335865,0.19269789442634425,0.5120771544449632,0.07543268880505326,1.1769235819323316,3.0436968160923605,,,,-2.197692130171063,-23.43506563032976,5.238611217482949
-1.791889574831019,-0.10803202316902194,1.9577906270089107,5.372193671228036,-0.3167323770904784,-1.0385628166761762,-0.33440710215026814,1.133276880605533,3.495321428625565,,,,5.749502511061007,8.62799018346081,23.85818555465032
-1.0174507136706468,0.31407909969683856,2.3632992412088774,5.709149393603505,0.389877682798363,-2.349345938226932,0.5048224456807736,1.7811909033719344,2.7208825674957957,,,,18.490688799977125,1.9735697004975223,-20.81775344743355
-1.0972414508667865,-0.03712338738390286,1.5450233128536448,6.258322837015964,-0.07984136427485189,-0.7782324649441819,-0.07160652424670766,1.141714973265003,2.8007207566503776,,,,-4.9557922623808075,19.398146011158314,13.833047007303266
-1.868113851829173,0.20708960419018652,1.6839131930958593,5.422242570395479,0.49219372646257087,-2.186594616312867,0.4788814539101074,1.088297096825673,3.571593157612764,,,,19.811917737483057,22.78503182510199,-10.868198886784155
-1.0969002483587298,-0.2886287586077677,2.1234069130298585,6.3433297308861825,-0.3462785747890118,-1.1560230058402254,-0.43970885970395174,1.5045448978110907,2.800379554147286,,,,5.941319509271279,9.1644857513637,-2.763288115143312
-1.804279293295075,0.3696810773105468,2.0292807773758286,7.584671509441456,0.09135959222440704,-0.2837624315738907,0.41423701096087623,1.4295909701103209,3.507537896490252,,,,-21.98960363335772,11.580230177007119,-22.64463743652823
-1.7566338001566077,-0.025406400327843248,2.0943221887014967,6.9979049706080865,0.13980671222637214,0.3620095644296484,0.05853696479349049,1.2670134305635412,3.4601800861970506,,,,19.859963393223698,13.85903006047935,-18.542821771891038
-1.5225551883588748,-0.11961337930914029,1.6028394598686693,7.972258287162219,-0.19697164605750772,-0.8742418476558989,-0.19778304050151263,1.2971702095412483,3.2261014743993175,,,,8.889929971820413,-11.782780487003151,-4.283084092846791
-1.6880625930200643,0.4947731320367158,2.4682305487344673,4.8421189152271715,0.33283635620629415,0.8672567498105366,0.7295556529124739,1.618559923392634,3.3916088790552728,,,,-4.277194337406153,-12.819644119480705,-12.786986458630441
-1.5641386250566494,0.1114344900348917,1.8935470482490564,5.808752595324247,-0.460207961864062,-0.6871283829030261,-0.1487745893003295,1.3389162322643697,3.2675253024461206,0.9279191508153917,-0.11991956031144797,1.2242251084688893,-14.105663051310845,5.695691238267479,21.3998785641039
-1.501942351095499,0.21155873368159794,2.0019519131966126,6.573794887237447,0.24974661136463183,-0.5180683088039828,0.33546420426438056,1.4973279257398326,3.2054329456613537,1.0112199758312055,0.13538198281596833,1.224072030023557,-5.354132302713696,12.88449236109097,17.12269550064653
-1.0792862064820126,-0.20932166000278818,1.7824224278187821,7.243352787392627,0.12105999140796131,-1.0237049924042552,-0.15426177263809052,1.3177101179339266,2.7828955956383927,,,,6.291739122338563,-13.671999662144009,22.369933376471014
-1.1285425617726488,-0.02724331434821281,2.177854767214508,7.615381522703917,0.1181875613721789,0.7524894506569879,0.03580363079410373,0.5306519566216454,2.832027741704688,,,,20.229034921667523,11.242766528951606,15.003922372394529
-1.653274901779883,0.15530510796703634,1.677456391933858,4.102720488692189,-0.1947835622822569,-3.00769243529988,-0.10498862331124836,0.31280409053187586,3.3567600816251106,,,,-25.064645915602146,23.847831903170416,-4.232207306573036
-1.18858518147341,-0.0753086438255639,1.9616265099405368,5.350171711916403,0.2104324827859172,-1.1936196646112585,0.03744887309693187,1.2557074803910924,2.8920703613181185,,,,-0.17914544624586543,-0.8146064746655742,8.344737798405804
-1.0835089106028946,0.3253073916456739,2.23728562053537,7.763070651103998,0.1476522771174027,-2.6430820150256196,0.3773925479686852,1.5941675559396287,2.786994090447184,,,,17.487597409568423,-14.768690997496874,21.827196160487038
-1.6961134113829777,0.16475507799599876,1.5196629576180025,6.350701138622821,0.15542288120590886,-0.9585794441202999,0.2459936116353732,1.0948647461045442,3.4004370336332936,,,,-18.629683450899222,-15.704135375114591,-13.872551268466669
-1.013719272985501,-0.19312446471195566,2.415294570005566,6.063270642094674,0.2033918929585954,-2.770290469127339,-0.08811815146544857,1.705850293683197,2.7180428952358167,-0.6661264632709372,0.41822800378847713,1.2280702767681129,-14.64020833259104,-21.022263370623595,9.655036688606591
-1.3961640627543845,-0.020453968535536493,1.8868387439947405,4.153522047540985,0.32961688939142225,-1.7182644575748363,0.167074000239785,0.7811478905916833,3.09943535424833,,,,17.200675939293397,-3.1272823114538766,26.010723254840837
-1.8309568342292357,-0.0404161472636394,2.4992746451216545,6.881178833602348,0.4260424085237974,0.9435584122553919,0.19137707275087884,0.7673724568070437,3.534228125722196,,,,-9.546717393046043,11.868486749655181,21.80797493228999
-1.2484766878100848,-0.36046261783285405,2.3758116408923207,7.955954021924949,-0.013522993120735904,-0.668861896497539,-0.343560321873582,0.9915204584908415,2.9517479790047996,,,,2.6782182944417974,-13.19323984577123,2.151715180770426
-1.135943148545127,-0.07873357267486658,2.0170909879856973,6.514889625567228,-0.39489367002742637,-1.4584487579616834,-0.24862439823722216,1.4877658035394923,2.8392144394411645,-1.5520201762130184,0.09406563190969756,1.2272596591770693,6.426406868973905,-3.7914896916112144,23.712820038632465
-1.7875134905347148,-0.026964577816681823,2.1610958102956355,6.547963780741792,0.020578610396161934,-2.0187937639614972,-0.01796745140920822,1.5048375085822685,3.4908870745154594,0.9889710743151987,0.011159210033196618,1.2321694902350242,17.478460729645345,-20.02035361444517,-21.64947271498164
-1.0679735025811543,0.046709145859906376,1.5793077079825841,7.274517329932664,-0.2048373159625977,-2.6417201753208808,-0.033631242148529986,1.2747746181024622,2.771661443471604,,,,-16.422544047277093,18.669811223592788,-22.784874471062796
-1.3285443341540328,-0.013637026381037698,1.5763018219923626,6.482724788380558,0.4510038489488133,0.09321787014698657,0.19571481114913858,1.3420836384300572,3.032232275044483,1.194182066059304,0.1745072048081685,1.2256562090102272,-6.145043927670286,20.721645647806216,-20.821129995706432
-1.5525706646829227,-0.38918607324178456,2.1047720433110166,7.84345001837055,-0.15352731833286892,-1.6150966006580347,-0.44876496294056484,1.5131654824305163,3.2563539759502724,,,,-9.711006393188251,-16.02435309584368,23.405798537804348
-1.1105438531310363,0.05213574550936273,2.2034401157917123,6.544768091624302,-0.41356766825981495,-0.957145675855493,-0.11482549015583896,1.36568962931323,2.8137987028425275,,,,3.0750152931756514,-19.976867354725897,-5.70563444144242
-1.8592210100485882,0.013727698466160176,1.8602797433982174,4.6129228634991115,-0.36409849360039426,-1.3202073735749664,-0.322999932886553,0.7726378480390259,3.563549871431225,,,,-1.4749896181438982,14.424696235108975,7.872886610440758
-1.8066683960106613,0.1766552586133675,1.536813023209623,5.084819011727024,0.08561992427336573,-0.8801952811560021,0.19539467055524487,0.9517658816863745,3.510997257393286,,,,-25.973099352904608,13.6617689012985,-7.247734508728123
-1.475821301707923,-0.3102452076194969,2.180998912854288,6.50072281883828,-0.34963364418834075,-2.5705484303012227,-0.48953210866179864,1.7785745733193958,3.1801501630968083,0.3191232375936756,-0.4404715148822011,1.2220908605589098,0.09650311980225451,4.506641744364682,8.118997432057
-1.7588449985289722,0.09091362370460876,2.256923379018332,4.490611000921483,-0.07661384783615999,-0.6043028401150252,0.00013127670004697833,1.0168223977862185,3.4620811817199524,,,,-9.930780802067805,-16.33645509706769,-15.648576608658272
-1.388181920467522,-0.21852954663182422,2.133676006079772,5.214726195117905,0.49360202126960795,-1.9804452923957783,0.0537055682779462,1.091530430961544,3.091418103658487,,,,24.34741654745824,-6.611859474404855,-13.162731091763373
-1.538997488279339,-0.0637991401257808,1.944720701441127,6.411230554938214,0.09241788243981808,0.35997493463955976,-0.004303231546588772,1.31347608624995,3.242233671467446,0.8337596441451995,-0.04156459182363881,1.226678836419134,20.893013838535502,21.265076640006278,-25.87234907399548
-1.0806567439831403,-0.40992290732360903,1.8918084857751802,5.487997585743187,-0.03252049800276158,-0.5386887729236101,-0.42971141115102063,1.4946143391014624,2.7843743144738173,1.0677836900552156,-0.4368786927075017,1.2260645920847308,-2.11713862865087,-14.291311097578124,-16.93977427666048
-1.5868448861664826,-0.10083873044389413,2.0568459910212606,6.358085668742426,0.29949835372134026,-1.0906791091525392,0.061778837043267115,1.5084609482141522,3.2901077350823673,-0.03508181479216037,0.16238594698204983,1.2222668768820262,9.54098476157471,-14.039071239880563,16.198516623396102
-1.158378112144527,0.1552598979446297,2.4534423756893196,5.918932205451206,0.31990737272765246,-1.854637130197716,0.31654337005156596,1.7234015855474454,2.862214342596039,,,,-2.3092683915431538,-13.58221862168243,9.011444092250578
-1.5586609456168166,-0.23461158373302915,2.4567832851028486,7.417106362945347,-0.39601235186249584,-1.0986179002245322,-0.3948546220239544,1.360378481044271,3.2629145155774584,0.7649635079154354,-0.5353324390137537,1.2245041761228352,-0.3066824211077422,9.377417051969957,-4.735333912243759
-1.9242833176595469,0.4538686378024648,1.9376318238462744,7.287205126216509,0.12134123229838423,-1.9123960084228564,0.5072401986951485,1.5329837335716165,3.627567391363743,1.1021680753793883,0.5078681516543555,1.2276706160754942,-22.572027709477958,7.248213420766295,-2.8892486772156216
-1.710028077437515,0.4862765004702734,2.0635156728958934,6.869190864024155,-0.1392715131484623,-0.3366469876070255,0.4182939510387591,1.4914380248678663,3.41350920196549,1.037429511068821,0.40480320323999425,1.229542796481338,-18.43254331024661,0.8318254394629463,-0.7009022888662743
-1.0934020438201384,-0.3952759567608015,2.455073647358059,4.13906403023601,0.28670468129026183,-0.8963969101606395,-0.2203502250028485,1.4180090505246357,2.7969421676706983,,,,-0.6980268233966472,-2.534825111324388,24.480131590318187
-1.919607209577657,0.46928249695546076,2.400208119095276,5.938355718644992,-0.32477461729380597,0.4215643677766323,0.27898465983077436,1.506770565260139,3.6230112124967406,,,,21.35005523454373,6.6905209214202195,13.036127759373077
-1.6625333370819548,-0.2649405292693259,1.979824966472024,4.457517343123136,0.0354677410653359,-2.58653598696446,-0.3302591715927776,0.8633010156926657,3.366737296385974,,,,-11.966002408450047,15.676965744412984,-6.579571453392099
-1.4772856728428696,-0.1779159501459524,2.4313762975371724,7.190661449493412,-0.4964384121370591,-0.5674326773186777,-0.3833460399931147,1.223813732197149,3.1814896321468886,,,,-7.106215683604878,-15.292282522997226,-8.208594409491827
-1.8462765484597838,-0.282113305612112,2.064757730617094,7.4033613758226835,0.24512802871535566,0.7174276529261192,-0.14530142210614538,1.1184492800361796,3.550480507769969,,,,3.424772060993795,6.794041533144129,-2.4624605475002688
-1.785746135435206,-0.01734723985979636,2.3490868994216374,7.234788623292712,0.4157253035818533,-1.750596939158271,0.18245535248665,1.7147813861502879,3.4899500947515856,,,,18.24821517234052,6.779345357077636,-17.400395951950088
-1.868844846052263,-0.38769312588539717,2.139342516395115,7.4590158662543615,-0.41428713026312014,0.9156886876084869,-0.5766766555821234,1.0078673077599092,3.572900417210835,,,,-2.035050612830486,-6.425159853499551,-22.133507874104925
-1.8338924049148735,0.36949381879900167,1.5053353244063241,4.995434872114988,0.09017996536004436,-2.119672754182975,0.36302285676499824,0.8112169545324173,3.537947976073445,,,,10.410600281598033,1.06914014905335,-20.71078126616029
-1.7238697742337463,-0.21769277831379852,1.593136278220404,7.9438085200997754,0.11960343979052324,-2.268609928838252,-0.17136027158690903,1.216297323978065,3.4279253453918614,,,,13.94019613934606,24.236507152741485,-12.843246666207504
-1.7820515953337575,-0.15382490166078444,1.6041179933113674,7.928469573762094,0.1009982461827974,0.7080571247401402,-0.10044830539544153,1.2611039084251254,3.486107166491411,,,,19.106257805931754,11.803119514880601,-17.490364003750752
-1.267277290238329,-0.034245138713548506,1.972133384746896,4.250279527514067,0.2171121854315755,-1.2520685823281852,0.08408413330901571,1.0562220723538354,2.9713328613955206,,,,-6.39321819362142,15.633564998162695,0.25033912331102987
-1.0404313223133879,-0.46293814892978147,2.4846546012579784,6.700759845308042,0.00844993779207659,-1.4996932378811678,-0.4433260775486788,1.3433317383309948,2.744486893470118,1.0642858058208156,-0.4670065380852057,1.2252985511199503,-15.888943513316834,8.698359710928399,-3.5246389558109468
-1.6699702918763002,-0.4792369557928444,1.6229030616189508,7.062430125042631,0.4120404564077651,-2.1459564039905743,-0.29404634102194627,1.3278464589508288,3.373234511263785,1.1562362598280975,-0.29443228730564114,1.226478330881372,8.484118821471085,-13.650327893179483,-5.940423389563923
-1.851653155156027,0.3565942373268771,2.1889314077759607,7.506326659863145,0.41131868051774934,0.522511340445142,0.5592634691837082,1.1312774622564723,3.5549992800229813,,,,6.305293636290334,16.216396581881945,-11.8886606876259
-1.2712638977051283,-0.2548202399095508,2.280835040532452,7.242194216608837,0.13957517184948642,-2.447304561502115,-0.18783803345033417,1.5730001642254168,2.974610022572074,1.1088146874308127,-0.16288747612593146,1.225841508244278,9.42435390623637,11.554764464083744,-5.901104333089271
-1.1999917781995622,0.16872257846523808,1.635193693937731,5.124419690652573,-0.3187422780395588,-0.92921150287264,-0.017049769809289267,1.1216948814990617,2.903423722428918,,,,-7.760556567971556,-22.6238451436133,-6.378555205929163
-1.6859054298211764,0.09810417652632775,2.4142218099209805,6.407444553923174,0.4578335136473255,-1.1866008356659563,0.3439555324525936,1.6948501081876206,3.3893373740505353,,,,24.7113860114583,7.1229285430634945,7.432613250144904
-1.4662079789608087,-0.000994872161932947,2.3827028804987966,4.9752496518841305,0.45925736510410275,-2.9963154581034956,0.24638138041947455,0.9953150988077297,3.170494638144099,,,,22.510433695214434,-26.0722828011433,-22.5756346189418
-1.5051994824409332,0.2830835293111522,2.3302407556200335,4.500007764642273,0.22831290662775672,-0.32071976487785037,0.4247100668257965,1.3318447741600457,3.2094861416242235,1.3538422337933724,0.08109047374423091,1.2316614644068244,2.948356134374647,14.331655708245108,-22.15120639364825
-1.2052062036817848,-0.14698245065502313,2.413428109336536,7.192437338683515,-0.4409373833018648,-1.7142219360636446,-0.3114462540781318,1.400339804598287,2.9087518116153737,,,,-1.147484760956237,17.13071281105572,-2.2980242936440383
-1.5148151339489058,0.2734337002694329,1.8905217969400743,4.59903385517908,-0.04508191382921467,-1.6820771152220892,0.1975025280577532,1.0001059239956098,3.2181444076170784,,,,7.448236848493408,-15.116355581710835,-23.81430266284923
-1.703175417100454,-0.42055262074858635,1.6771348503166454,6.073726111751103,-0.17097484919486927,-2.802422431900098,-0.5557154943331329,1.349289674360191,3.4065046907686263,1.0677914214979833,-0.5688700917341754,1.228431989925673,3.1079042406162185,-16.682417423446875,2.737650182618653
-1.221497282941984,0.22383200246188129,1.5034738649034938,7.535981920158239,-0.26585335189632353,-0.2727158618627179,0.11129844522195297,1.3519863345002188,2.924726919670941,1.0905057769993647,0.11893378757073522,1.224349271740073,-24.725072020777745,19.684663456192087,1.2352839653986072
-1.6987649521835206,-0.29103515441888894,1.6622992595264576,5.433783778024797,-0.2951597840340847,-2.9345233099373935,-0.5403462772150722,1.102384306409069,3.4026947968346395,,,,8.239322171397333,9.492027764819062,4.816584671559725
-1.501319168834506,-0.060327323917372944,1.5712469717404165,4.578869815350721,-0.03497817798439995,-1.0182303584079833,-0.13108547598268758,0.8497564732059986,3.205249013485288,,,,11.706714580164572,9.262947517244461,-13.418472802261382
-1.738070123863138,0.1554236966348942,1.6550640272856627,6.92233779460695,0.10931297420966324,0.7293978890761998,0.2090538217362121,1.3609702373284738,3.4419999685978904,-2.2960080755503975,-0.3045121685413206,1.2253117057404292,14.143649587265942,14.935452180769301,25.45999125780497
-1.7813590963921009,0.22488433885454528,2.3588222338150806,7.6874161362775695,-0.09390024166281208,0.6574120223710622,0.19044544349461068,0.8063278294647809,3.48545578821048,,,,-25.833436813062608,19.23633937230259,-24.967751329056526
-1.5838787203536464,0.43458146028410505,2.3898700350427338,6.059545247261227,-0.3386601732403838,-0.2119009897031887,0.25635446739055645,1.5125188577096833,3.2879754121743754,,,,-8.475863622940125,-22.022618240177923,10.48721249510743
-1.8246407034149752,-0.2507902489128513,1.6663296483749424,7.170821408224981,-0.0007577311035689149,-0.8218149642860517,-0.24957487335735212,1.2805812322782342,3.5288126710254772,,,,-18.412258612133584,-8.015273787274024,19.2288126205324
-1.4060760532747056,-0.44898082022061714,1.9442177670496328,6.595490815003373,0.39331504014791907,-1.6116065907537092,-0.2641555814144419,1.5666580394312735,3.1102480208852077,1.0453575551718441,-0.286152294383232,1.2273562568931895,5.176293360354113,-1.9756767473760892,-15.215453788735253
-1.906818530404976,-0.2940946040555059,2.400304851006882,6.548591662717378,0.2569197409339852,-0.3145761222931043,-0.1350337654924174,1.498037062276248,3.610175636041694,1.5969897064648826,-0.36164993165294546,1.2253278024032046,10.274836554494879,25.13816291352648,21.13294707276321
-1.5235761950946842,0.22111627056936867,2.2517819570891446,7.779144895342114,-0.38004134151520264,-2.897767007035945,0.06541662106554483,1.6795236309540025,3.2270771761410773,-1.2336041689336088,0.024603190171776354,1.2254594848635911,8.467058903657733,-11.449133121459335,19.08635261267914
-1.9120707187893031,0.013577686847920267,2.275334554073008,4.275013677562018,0.32697023460922764,-2.4852107853652683,0.18251648908601736,0.754687214960228,3.6160668201531587,,,,17.926250987635274,-11.652143142336422,-7.872661981274731
-1.873666946255552,-0.010621204716383281,1.9486424710058825,7.961551925492731,0.2505094087049921,-1.088322678793805,0.1026551758797519,1.523543246922243,3.577663047619388,,,,12.457820802412716,11.377900952447547,25.17717061155408
-1.128032840290011,0.12377375550076619,2.4758303146960197,4.967708158053004,0.4274735222695014,-2.7541109730975677,0.351375725098826,1.5940737520660626,2.8319461953863607,,,,15.377525908218756,18.96710499599576,-8.494847364396687
-1.3302906700155075,0.1499678546429567,1.7365328773337247,6.058505832978529,0.023301228150034436,-1.516202131309523,0.1572748923380414,1.3432158266778864,3.0338825413032717,0.9497357310768861,0.2570602333062721,1.2262940579294717,15.931563360885402,-25.62484428953036,-7.273208318779037
-1.7743555242030609,0.13472335364737553,1.9892149406658723,5.78925792097893,0.0669051461466541,-3.0234976087992393,0.12973567033144615,1.145780929837152,3.4783658897459255,,,,-21.483235347911105,15.559069511134627,25.355315986775633
-1.3730368703431566,0.06884425007547057,1.509584459115361,6.876691697308885,0.174763399003659,0.08665851999733576,0.14339920808725828,1.3072516725983436,3.077047235886015,1.2044173950963712,0.139626894362556,1.228320617413403,-23.911340015150113,6.320965940580564,10.623770843195663
-1.094506035856893,0.025134826315958092,1.5016246389794596,5.801558664270825,-0.3107247332712182,0.3720779152992115,-0.1265434301382388,1.234316628164852,2.7984915730846334,,,,23.213023165602017,17.824108271458464,-21.052449376967463
-1.1049687359421863,0.2407199089320381,2.4238986561758082,7.10002158018888,-0.23224400040350313,0.7652949902516681,0.1551907115463526,0.30207660662942876,2.8089542731699377,,,,16.650620200310037,-22.47437001398069,13.768780201120583
-1.9618693141881902,0.28234549302057455,1.7925240974827408,6.149000136459186,-0.13733881560060723,0.3403167416476194,0.19898953843385794,1.3889294562489878,3.665854851446535,0.8777991090481573,0.2895495912480074,1.2302523240089243,-13.736887521733564,-14.68559280606603,12.713907643947932
-1.6687891686890675,-0.41944290017478025,2.2864906998102787,6.652176215573906,-0.09340994515195433,-2.166876423978792,-0.47089480162731734,1.8069360387405053,3.3728706247538653,-0.09826875505225666,-0.35046097694996897,1.2297037082378326,-10.47596898862684,15.095210652393101,2.3906091125318714
-1.1735126683969854,-0.38965762672544346,1.7933098113798727,4.115646833283808,-0.21226725628718413,0.41993120933513595,-0.5718151413049851,1.0720884606850059,2.876754628990148,,,,6.801388568085684,-11.938241286558986,13.479385754323063
-1.0202910743510227,-0.27230274571517454,2.122989754093039,5.512629601651087,-0.06594738168747227,-0.39992358699784347,-0.2986932201502463,1.4638288477969972,2.723533034944185,,,,-22.715166910072888,-10.24739989288304,-14.036652944332488
-1.8664209664617202,-0.2053859910421113,1.7928470341674267,4.699668481837467,0.24069870772428503,-1.7583563433151816,-0.0954288561765092,0.7494209997444354,3.5697558317711198,,,,-22.76277126923026,-22.93781158065459,18.435472878156933
-1.0230763059676002,0.4334551107608584,1.963331709523343,5.377190463408645,0.4711345948761192,-1.7505104301131702,0.6693628059836869,1.4575894890766865,2.7264111712769994,,,,-3.4427107334149816,-7.894164371449629,-21.790671803931602
-1.4625654123508007,0.019048424803784214,2.470421131716865,5.055023299309944,0.43179758731900525,-2.1125077020164085,0.26756881756897477,1.4471918672926183,3.165977298362148,,,,-14.786545849054821,-22.803481922485727,-3.305289590790371
-1.0445723299336696,0.268983802601763,1.9609671794352397,4.498409459493509,0.33911090730445625,0.9507063545948569,0.4710062536749974,1.4516525556610225,2.748256221671922,1.3741096319962907,0.3413484966096525,1.2255055529020238,7.788153961662439,19.826290327256554,-5.7238996574471885
-1.746946340567748,-0.37707049494101375,2.0236538719238615,4.914716203754281,-0.4044098312341049,-1.5820076653959703,-0.7047516966759092,1.1233185629396902,3.450452899331637,,,,-2.5852876037064063,-14.049171843845173,-24.507890018987684
-1.1663696262045704,-0.4524214303990637,2.3233552519231666,7.7401422362009775,-0.2784851282423739,-0.7799057717138069,-0.5440992469008443,1.1176482762052316,2.869876184968464,,,,22.510790953387854,10.981181377815536,-0.41273785516587436
-1.6460103697583839,0.1576593243505472,1.7798909588128544,5.340781088226709,0.08838084188128814,-2.985203627349353,0.15732808370924095,1.1867801642643774,3.3495169285457194,,,,22.162400096161864,-23.84750338018118,4.612174670345497
-1.7623451936163508,0.3025379296810231,1.7767065305093395,6.777546397175964,-0.0747025378193511,-2.9255367826326406,0.24494785933516078,1.181341950568073,3.465851752427147,,,,4.450171130072433,0.7678492208427694,17.964280347254874
-1.3814234747803613,0.3624318917013244,1.7395715392625273,6.196794670876553,0.08188283050227341,0.10400725691932067,0.4012696371159335,1.4000404843416543,3.0849300336146195,1.1778465299484349,0.386017567828504,1.2252309625062738,-23.09672377090619,25.713801767741643,3.3341735114436513
-1.0232821659530862,0.1683332505771612,1.8790101369510739,5.997498255735563,0.20553282531941663,-3.008709243305674,0.25182081751132046,1.5190314427909044,2.7268400116186635,1.0792430332003053,0.29946171439457714,1.2262289231501386,0.8593849452931362,-24.41639274386681,-3.478546812997642
-1.2582857170892638,0.018820504279427386,2.1025207205538603,5.075122421330214,-0.4844338504848386,-2.115385131759737,-0.28369970998589633,1.073069719022656,2.9624512897664195,,,,24.265493639656107,20.305816198915714,-10.287680578413015
-1.3520233275451234,-0.3874758672355576,1.957042754307885,7.102460919999558,0.35995290924987433,-2.6973606427427654,-0.23463276311643533,1.6137529611541748,3.0561889002222764,1.0706110400815543,-0.16097529442086356,1.2327146254115173,-14.255877866469167,11.174164566324619,-20.118508118881767
